;FLAVOR:Marlin
;TIME:3739
;Filament used: 3.53397m
;Layer height: 0.2
;MINX:62.62
;MINY:92.62
;MINZ:0.3
;MAXX:117.38
;MAXY:147.38
;MAXZ:43.5
;Generated with Cura_SteamEngine 4.6.2
M140 S70
M105
M190 S70
M104 S220
M105
M109 S220
M82 ;absolute extrusion mode
G28 ;Home
G1 Z15.0 F6000 ;Move the platform down 15mm
G92 E0
G1 F200 E3
G92 E0
G92 E0
G92 E0
G1 F2700 E-13
;LAYER_COUNT:217
;LAYER:0
M107
M204 S5000
G0 F2400 X111.816 Y93.051 Z0.3
M204 S3000
;TYPE:SKIRT
G1 F2100 E0
G1 F1500 X112.459 Y93.1 E0.03547
G1 X113.091 Y93.228 E0.07094
G1 X113.703 Y93.434 E0.10646
G1 X114.285 Y93.713 E0.14196
G1 X114.827 Y94.062 E0.17742
G1 X115.322 Y94.476 E0.21291
G1 X115.763 Y94.948 E0.24844
G1 X116.141 Y95.471 E0.28393
G1 X116.452 Y96.036 E0.31941
G1 X116.691 Y96.635 E0.35488
G1 X116.854 Y97.26 E0.39041
G1 X116.949 Y98.114 E0.43767
G1 X116.96 Y118.09 E1.53643
G1 X116.95 Y118.812 E1.57615
G1 X116.863 Y119.686 E1.62446
G1 X116.669 Y120.736 E1.68319
G1 X116.203 Y123.452 E1.83476
G1 X115.829 Y126.089 E1.98126
G1 X115.522 Y128.787 E2.13062
G1 X115.298 Y131.424 E2.27619
G1 X115.147 Y134.1 E2.42361
G1 X115.06 Y138.194 E2.64885
G1 X115.06 Y140.971 E2.80159
G1 X115.05 Y141.696 E2.84148
G1 X115.001 Y142.339 E2.87695
G1 X114.873 Y142.972 E2.91247
G1 X114.667 Y143.584 E2.94799
G1 X114.388 Y144.165 E2.98344
G1 X114.039 Y144.708 E3.01894
G1 X113.588 Y145.243 E3.05743
G1 X113 Y145.794 E3.10175
G1 X112.474 Y146.168 E3.13725
G1 X111.905 Y146.473 E3.17276
G1 X111.303 Y146.706 E3.20827
G1 X110.677 Y146.863 E3.24377
G1 X109.822 Y146.949 E3.29103
G1 X109.265 Y146.959 E3.32168
G1 X93.974 Y146.96 E4.16274
G1 X93.201 Y146.949 E4.20526
G1 X92.558 Y146.9 E4.24073
G1 X91.926 Y146.772 E4.2762
G1 X91.314 Y146.566 E4.31172
G1 X90.732 Y146.287 E4.34722
G1 X90.19 Y145.938 E4.38268
G1 X89.606 Y145.438 E4.42497
G1 X88.931 Y144.674 E4.48104
G1 X88.496 Y144.076 E4.52172
G1 X87.762 Y143.038 E4.59164
G1 X86.125 Y140.856 E4.74168
G1 X84.457 Y138.762 E4.88893
G1 X82.738 Y136.723 E5.03563
G1 X80.956 Y134.729 E5.18272
G1 X79.108 Y132.771 E5.33081
G1 X77.212 Y130.876 E5.47826
G1 X75.263 Y129.034 E5.62576
G1 X73.254 Y127.241 E5.77387
G1 X71.231 Y125.534 E5.91947
G1 X69.107 Y123.844 E6.06876
G1 X66.957 Y122.23 E6.21664
G1 X65.36 Y121.092 E6.3245
G1 X64.73 Y120.564 E6.36971
G1 X64.175 Y119.962 E6.41475
G1 X63.807 Y119.432 E6.45024
G1 X63.506 Y118.861 E6.48574
G1 X63.279 Y118.257 E6.52123
G1 X63.129 Y117.629 E6.55675
G1 X63.051 Y116.822 E6.60134
G1 X63.041 Y116.265 E6.63199
G1 X63.04 Y100.954 E7.47415
G1 X63.051 Y100.199 E7.51568
G1 X63.1 Y99.556 E7.55115
G1 X63.229 Y98.923 E7.58669
G1 X63.434 Y98.312 E7.62214
G1 X63.714 Y97.73 E7.65766
G1 X64.064 Y97.188 E7.69315
G1 X64.512 Y96.657 E7.73136
G1 X65.1 Y96.106 E7.77568
G1 X65.626 Y95.732 E7.81118
G1 X66.195 Y95.427 E7.84669
G1 X66.797 Y95.194 E7.8822
G1 X67.423 Y95.037 E7.9177
G1 X68.278 Y94.951 E7.96496
G1 X68.835 Y94.941 E7.99561
G1 X71.895 Y94.94 E8.16392
G1 X74.573 Y94.902 E8.31123
G1 X77.246 Y94.789 E8.45839
G1 X79.917 Y94.599 E8.60568
G1 X82.61 Y94.332 E8.75453
G1 X85.255 Y93.994 E8.9012
G1 X87.915 Y93.576 E9.0493
G1 X89.876 Y93.211 E9.15902
G1 X91.074 Y93.054 E9.22548
G1 X91.58 Y93.04 E9.25332
G1 X111.043 Y93.04 E10.32386
G1 X111.816 Y93.051 E10.36638
M204 S5000
G0 F2400 X111.822 Y92.631
M204 S3000
G1 F1500 X112.491 Y92.68 E10.40328
G1 X113.149 Y92.809 E10.44016
G1 X113.787 Y93.015 E10.47704
G1 X114.397 Y93.296 E10.51398
G1 X114.968 Y93.647 E10.55085
G1 X115.494 Y94.063 E10.58773
G1 X115.967 Y94.54 E10.62468
G1 X116.379 Y95.069 E10.66156
G1 X116.726 Y95.643 E10.69846
G1 X117.002 Y96.254 E10.73533
G1 X117.203 Y96.894 E10.77223
G1 X117.327 Y97.554 E10.80917
G1 X117.369 Y98.102 E10.8394
G1 X117.38 Y118.018 E11.93486
G1 X117.369 Y118.818 E11.97887
G1 X117.276 Y119.762 E12.03104
G1 X117.083 Y120.807 E12.08949
G1 X116.619 Y123.513 E12.24051
G1 X116.243 Y126.161 E12.38762
G1 X115.944 Y128.796 E12.53348
G1 X115.715 Y131.485 E12.68192
G1 X115.567 Y134.103 E12.82615
G1 X115.48 Y138.203 E13.05172
G1 X115.48 Y140.899 E13.20001
G1 X115.469 Y141.702 E13.24418
G1 X115.42 Y142.371 E13.28108
G1 X115.292 Y143.029 E13.31795
G1 X115.086 Y143.668 E13.35488
G1 X114.806 Y144.277 E13.39175
G1 X114.455 Y144.849 E13.42866
G1 X113.89 Y145.535 E13.47754
G1 X113.284 Y146.105 E13.5233
G1 X112.74 Y146.497 E13.56019
G1 X112.153 Y146.821 E13.59706
G1 X111.531 Y147.073 E13.63398
G1 X110.884 Y147.25 E13.67087
G1 X110.221 Y147.348 E13.70774
G1 X109.272 Y147.379 E13.75996
G1 X93.974 Y147.38 E14.60141
G1 X93.195 Y147.369 E14.64427
G1 X92.526 Y147.32 E14.68116
G1 X91.868 Y147.191 E14.71804
G1 X91.23 Y146.985 E14.75492
G1 X90.62 Y146.704 E14.79186
G1 X90.049 Y146.353 E14.82873
G1 X89.31 Y145.736 E14.88168
G1 X88.591 Y144.921 E14.94146
G1 X88.156 Y144.323 E14.98214
G1 X87.415 Y143.275 E15.05273
G1 X85.788 Y141.108 E15.20178
G1 X84.139 Y139.036 E15.34744
G1 X82.434 Y137.015 E15.49288
G1 X80.634 Y135 E15.64149
G1 X78.802 Y133.059 E15.7883
G1 X76.923 Y131.181 E15.93442
G1 X74.973 Y129.338 E16.082
G1 X72.982 Y127.562 E16.22876
G1 X70.956 Y125.853 E16.37455
G1 X68.873 Y124.194 E16.52102
G1 X66.693 Y122.558 E16.67094
G1 X65.116 Y121.434 E16.77745
G1 X64.435 Y120.863 E16.82634
G1 X63.862 Y120.243 E16.87277
G1 X63.475 Y119.695 E16.90967
G1 X63.156 Y119.105 E16.94657
G1 X62.91 Y118.481 E16.98346
G1 X62.739 Y117.832 E17.02038
G1 X62.647 Y117.168 E17.05725
G1 X62.621 Y116.272 E17.10655
G1 X62.62 Y100.954 E17.9491
G1 X62.631 Y100.193 E17.99096
G1 X62.68 Y99.524 E18.02786
G1 X62.809 Y98.866 E18.06474
G1 X63.016 Y98.227 E18.10169
G1 X63.297 Y97.618 E18.13858
G1 X63.648 Y97.047 E18.17545
G1 X64.21 Y96.365 E18.22405
G1 X64.816 Y95.795 E18.26981
G1 X65.36 Y95.403 E18.3067
G1 X65.947 Y95.079 E18.34357
G1 X66.569 Y94.827 E18.38049
G1 X67.216 Y94.65 E18.41738
G1 X67.879 Y94.552 E18.45425
G1 X68.828 Y94.521 E18.50647
G1 X71.889 Y94.52 E18.67484
G1 X74.549 Y94.482 E18.82117
G1 X77.233 Y94.368 E18.96893
G1 X79.884 Y94.18 E19.11511
G1 X82.585 Y93.913 E19.2644
G1 X85.171 Y93.582 E19.4078
G1 X87.842 Y93.162 E19.55652
G1 X89.799 Y92.798 E19.66601
G1 X91.06 Y92.634 E19.73596
G1 X91.58 Y92.62 E19.76457
G1 X111.043 Y92.62 E20.83511
G1 X111.822 Y92.631 E20.87796
M204 S5000
G1 F2700 E7.87796
G0 F2400 X91.099 Y97.589
G0 X90.34 Y100.36
M204 S3000
;TYPE:SUPPORT
G1 F2100 E20.87796
G1 F1500 X90.34 Y116.64 E21.77129
G1 X68.46 Y116.64 E22.97192
G1 X68.46 Y100.36 E23.86525
G1 X90.34 Y100.36 E25.06587
M204 S5000
G0 F2400 X84 Y100.53
M204 S3000
G1 F1500 X84 Y116.47 E25.94054
M204 S5000
G0 F2400 X90.17 Y114
M204 S3000
G1 F1500 X68.63 Y114 E27.12251
M204 S5000
G0 F2400 X76 Y116.47
M204 S3000
G1 F1500 X76 Y100.53 E27.99718
M204 S5000
G0 F2400 X68.63 Y106
M204 S3000
G1 F1500 X90.17 Y106 E29.17915
M204 S5000
G1 F2700 E16.17915
G0 F2400 X90.589 Y118.901
G0 X93.36 Y119.66
M204 S3000
G1 F2100 E29.17915
G1 F1500 X109.64 Y119.66 E30.07248
G1 X109.64 Y141.54 E31.2731
G1 X93.36 Y141.54 E32.16643
G1 X93.36 Y119.66 E33.36705
M204 S5000
G0 F2400 X93.53 Y122
M204 S3000
G1 F1500 X109.47 Y122 E34.24173
M204 S5000
G0 F2400 X108 Y119.83
M204 S3000
G1 F1500 X108 Y141.37 E35.42369
M204 S5000
G0 F2400 X109.469 Y138
M204 S3000
G1 F1500 X93.529 Y138 E36.29837
M204 S5000
G0 F2400 X100 Y141.37
M204 S3000
G1 F1500 X100 Y119.83 E37.48033
M204 S5000
G0 F2400 X93.529 Y130
M204 S3000
G1 F1500 X109.469 Y130 E38.35501
M204 S5000
G1 F2700 E25.35501
;MESH:HERRAMIENTAS2.stl
G0 F2400 X109.469 Y119.415
G0 X109.469 Y118.1
G0 X91.95 Y118.05
G0 X91.88 Y118.12
M204 S3000
;TYPE:WALL-INNER
G1 F2100 E38.35501
G1 F1500 X91.88 Y98.88 E39.41328
G1 X111.12 Y98.88 E40.47156
G1 X111.12 Y118.12 E41.52984
G1 X91.88 Y118.12 E42.58811
M204 S5000
G0 F2400 X91.46 Y118.54
M204 S3000
;TYPE:WALL-OUTER
G1 F1500 X91.46 Y98.46 E43.69259
G1 X111.54 Y98.46 E44.79707
G1 X111.54 Y118.54 E45.90155
G1 X91.46 Y118.54 E47.00603
M204 S5000
G0 F2400 X91.46 Y118.34
G0 X91.95 Y118.05
G0 X92.29 Y117.71
M204 S3000
;TYPE:SKIN
G1 F1500 X92.29 Y99.29 E48.0192
G1 X110.71 Y99.29 E49.03238
G1 X110.71 Y117.71 E50.04555
G1 X92.29 Y117.71 E51.05872
M204 S5000
G0 F2400 X101.09 Y108.91
M204 S3000
G1 F1500 X101.09 Y108.09 E51.10382
G1 X101.91 Y108.09 E51.14893
G1 X101.91 Y108.91 E51.19403
G1 X101.09 Y108.91 E51.23913
M204 S5000
G0 F2400 X100.67 Y109.33
M204 S3000
G1 F1500 X100.67 Y107.67 E51.33044
G1 X102.33 Y107.67 E51.42175
G1 X102.33 Y109.33 E51.51305
G1 X100.67 Y109.33 E51.60436
M204 S5000
G0 F2400 X100.25 Y109.75
M204 S3000
G1 F1500 X100.25 Y107.25 E51.74187
G1 X102.75 Y107.25 E51.87938
G1 X102.75 Y109.75 E52.01689
G1 X100.25 Y109.75 E52.1544
M204 S5000
G0 F2400 X99.83 Y110.17
M204 S3000
G1 F1500 X99.83 Y106.83 E52.33811
G1 X103.17 Y106.83 E52.52183
G1 X103.17 Y110.17 E52.70554
G1 X99.83 Y110.17 E52.88925
M204 S5000
G0 F2400 X99.41 Y110.59
M204 S3000
G1 F1500 X99.41 Y106.41 E53.11917
G1 X103.59 Y106.41 E53.34909
G1 X103.59 Y110.59 E53.579
G1 X99.41 Y110.59 E53.80892
M204 S5000
G0 F2400 X98.99 Y111.01
M204 S3000
G1 F1500 X98.99 Y105.99 E54.08504
G1 X104.01 Y105.99 E54.36116
G1 X104.01 Y111.01 E54.63728
G1 X98.99 Y111.01 E54.9134
M204 S5000
G0 F2400 X98.57 Y111.43
M204 S3000
G1 F1500 X98.57 Y105.57 E55.23572
G1 X104.43 Y105.57 E55.55804
G1 X104.43 Y111.43 E55.88037
G1 X98.57 Y111.43 E56.20269
M204 S5000
G0 F2400 X98.15 Y111.85
M204 S3000
G1 F1500 X98.15 Y105.15 E56.57122
G1 X104.85 Y105.15 E56.93974
G1 X104.85 Y111.85 E57.30827
G1 X98.15 Y111.85 E57.6768
M204 S5000
G0 F2400 X97.73 Y112.27
M204 S3000
G1 F1500 X97.73 Y104.73 E58.09153
G1 X105.27 Y104.73 E58.50626
G1 X105.27 Y112.27 E58.92099
G1 X97.73 Y112.27 E59.33572
M204 S5000
G0 F2400 X97.31 Y112.69
M204 S3000
G1 F1500 X97.31 Y104.31 E59.79665
G1 X105.69 Y104.31 E60.25758
G1 X105.69 Y112.69 E60.71851
G1 X97.31 Y112.69 E61.17945
M204 S5000
G0 F2400 X96.89 Y113.11
M204 S3000
G1 F1500 X96.89 Y103.89 E61.68658
G1 X106.11 Y103.89 E62.19372
G1 X106.11 Y113.11 E62.70086
G1 X96.89 Y113.11 E63.20799
M204 S5000
G0 F2400 X96.47 Y113.53
M204 S3000
G1 F1500 X96.47 Y103.47 E63.76133
G1 X106.53 Y103.47 E64.31467
G1 X106.53 Y113.53 E64.86801
G1 X96.47 Y113.53 E65.42135
M204 S5000
G0 F2400 X96.05 Y113.95
M204 S3000
G1 F1500 X96.05 Y103.05 E66.02089
G1 X106.95 Y103.05 E66.62044
G1 X106.95 Y113.95 E67.21998
G1 X96.05 Y113.95 E67.81952
M204 S5000
G0 F2400 X95.63 Y114.37
M204 S3000
G1 F1500 X95.63 Y102.63 E68.46527
G1 X107.37 Y102.63 E69.11102
G1 X107.37 Y114.37 E69.75676
G1 X95.63 Y114.37 E70.40251
M204 S5000
G0 F2400 X95.21 Y114.79
M204 S3000
G1 F1500 X95.21 Y102.21 E71.09446
G1 X107.79 Y102.21 E71.78641
G1 X107.79 Y114.79 E72.47836
G1 X95.21 Y114.79 E73.17031
M204 S5000
G0 F2400 X94.79 Y115.21
M204 S3000
G1 F1500 X94.79 Y101.79 E73.90846
G1 X108.21 Y101.79 E74.64661
G1 X108.21 Y115.21 E75.38477
G1 X94.79 Y115.21 E76.12292
M204 S5000
G0 F2400 X94.37 Y115.63
M204 S3000
G1 F1500 X94.37 Y101.37 E76.90728
G1 X108.63 Y101.37 E77.69163
G1 X108.63 Y115.63 E78.47599
G1 X94.37 Y115.63 E79.26035
M204 S5000
G0 F2400 X93.95 Y116.05
M204 S3000
G1 F1500 X93.95 Y100.95 E80.0909
G1 X109.05 Y100.95 E80.92146
G1 X109.05 Y116.05 E81.75202
G1 X93.95 Y116.05 E82.58258
M204 S5000
G0 F2400 X93.53 Y116.47
M204 S3000
G1 F1500 X93.53 Y100.53 E83.45935
G1 X109.47 Y100.53 E84.33611
G1 X109.47 Y116.47 E85.21287
G1 X93.53 Y116.47 E86.08964
M204 S5000
G0 F2400 X93.11 Y116.89
M204 S3000
G1 F1500 X93.11 Y100.11 E87.0126
G1 X109.89 Y100.11 E87.93557
G1 X109.89 Y116.89 E88.85853
G1 X93.11 Y116.89 E89.7815
M204 S5000
G0 F2400 X92.69 Y117.31
M204 S3000
G1 F1500 X92.69 Y99.69 E90.75067
G1 X110.31 Y99.69 E91.71984
G1 X110.31 Y117.31 E92.68901
G1 X92.69 Y117.31 E93.65818
M204 S5000
G0 F2400 X101.332 Y108.705
M204 S3000
;TYPE:SKIN
G1 F1500 X101.294 Y108.666 E93.65961
M204 S5000
G0 F2400 X101.294 Y108.384
M204 S3000
G1 F1500 X101.615 Y108.705 E93.6715
M204 S5000
G0 F2400 X101.704 Y108.511
M204 S3000
G1 F1500 X101.488 Y108.294 E93.67951
M204 S5000
G1 F2700 E80.67951
;MESH:NONMESH
G0 F600 X101.488 Y108.294 Z0.5
G0 F2400 X91.9 Y100.35
G0 X90.585 Y100.35
G0 X68.45 Y100.35
;TIME_ELAPSED:80.811610
;LAYER:1
M140 S70
M106 S204
M204 S3000
;TYPE:SUPPORT
G1 F2100 E93.67951
G1 F3000 X90.35 Y100.35 E94.40791
G1 X90.35 Y116.65 E94.95005
G1 X68.45 Y116.65 E95.67845
G1 X68.45 Y100.35 E96.22059
M204 S5000
G0 F7200 X68.61 Y106
M204 S3000
G1 F3000 X90.19 Y106 E96.93834
M204 S5000
G0 F7200 X90.19 Y114
M204 S3000
G1 F3000 X68.61 Y114 E97.6561
M204 S5000
G0 F7200 X76 Y116.49
M204 S3000
G1 F3000 X76 Y100.51 E98.18759
M204 S5000
G0 F7200 X84 Y100.51
M204 S3000
G1 F3000 X84 Y116.49 E98.71909
M204 S5000
G1 F2700 E85.71909
G0 F7200 X91.093 Y119.411
G0 X93.35 Y119.65
M204 S3000
G1 F2100 E98.71909
G1 F3000 X109.65 Y119.65 E99.26123
G1 X109.65 Y141.55 E99.98963
G1 X93.35 Y141.55 E100.53177
G1 X93.35 Y119.65 E101.26016
M204 S5000
G0 F7200 X93.51 Y122
M204 S3000
G1 F3000 X109.49 Y122 E101.79166
M204 S5000
G0 F7200 X108 Y119.81
M204 S3000
G1 F3000 X108 Y141.39 E102.50942
M204 S5000
G0 F7200 X109.489 Y138
M204 S3000
G1 F3000 X93.509 Y138 E103.04091
M204 S5000
G0 F7200 X100 Y141.39
M204 S3000
G1 F3000 X100 Y119.81 E103.75867
M204 S5000
G0 F7200 X93.509 Y130
M204 S3000
G1 F3000 X109.489 Y130 E104.29016
M204 S5000
G1 F2700 E91.29016
;MESH:HERRAMIENTAS2.stl
G0 F7200 X109.489 Y119.415
G0 X109.489 Y118.13
G0 X91.92 Y118.08
G0 X91.85 Y118.15
M204 S3000
;TYPE:WALL-INNER
G1 F2100 E104.29016
G1 F3000 X91.85 Y98.85 E104.93208
G1 X111.15 Y98.85 E105.574
G1 X111.15 Y118.15 E106.21592
G1 X91.85 Y118.15 E106.85785
M204 S5000
G0 F7200 X91.45 Y118.55
M204 S3000
;TYPE:WALL-OUTER
G1 F1500 X91.45 Y98.45 E107.52637
G1 X111.55 Y98.45 E108.1949
G1 X111.55 Y118.55 E108.86343
G1 X91.45 Y118.55 E109.53196
M204 S5000
G0 F7200 X91.45 Y118.35
G0 X92.24 Y117.76
M204 S3000
;TYPE:SKIN
G1 F1500 X92.24 Y99.24 E110.14794
G1 X110.76 Y99.24 E110.76392
G1 X110.76 Y117.76 E111.37989
G1 X92.24 Y117.76 E111.99587
M204 S5000
G0 F7200 X92.529 Y99.42
M204 S3000
G1 F1500 X92.419 Y99.53 E112.00105
M204 S5000
G0 F7200 X92.419 Y100.096
M204 S3000
G1 F1500 X93.095 Y99.42 E112.03284
M204 S5000
G0 F7200 X93.661 Y99.42
M204 S3000
G1 F1500 X92.419 Y100.661 E112.09124
M204 S5000
G0 F7200 X92.419 Y101.227
M204 S3000
G1 F1500 X94.226 Y99.42 E112.17623
M204 S5000
G0 F7200 X94.792 Y99.42
M204 S3000
G1 F1500 X92.419 Y101.793 E112.28785
M204 S5000
G0 F7200 X92.419 Y102.358
M204 S3000
G1 F1500 X95.358 Y99.42 E112.42607
M204 S5000
G0 F7200 X95.923 Y99.42
M204 S3000
G1 F1500 X92.419 Y102.924 E112.59089
M204 S5000
G0 F7200 X92.419 Y103.49
M204 S3000
G1 F1500 X96.489 Y99.42 E112.78233
M204 S5000
G0 F7200 X97.055 Y99.42
M204 S3000
G1 F1500 X92.419 Y104.055 E113.00037
M204 S5000
G0 F7200 X92.419 Y104.621
M204 S3000
G1 F1500 X97.62 Y99.42 E113.24501
M204 S5000
G0 F7200 X98.186 Y99.42
M204 S3000
G1 F1500 X92.419 Y105.187 E113.51627
M204 S5000
G0 F7200 X92.419 Y105.752
M204 S3000
G1 F1500 X98.752 Y99.42 E113.81413
M204 S5000
G0 F7200 X99.317 Y99.42
M204 S3000
G1 F1500 X92.419 Y106.318 E114.13859
M204 S5000
G0 F7200 X92.419 Y106.884
M204 S3000
G1 F1500 X99.883 Y99.42 E114.48968
M204 S5000
G0 F7200 X100.449 Y99.42
M204 S3000
G1 F1500 X92.419 Y107.449 E114.86736
M204 S5000
G0 F7200 X92.419 Y108.015
M204 S3000
G1 F1500 X101.014 Y99.42 E115.27164
M204 S5000
G0 F7200 X101.58 Y99.42
M204 S3000
G1 F1500 X92.419 Y108.581 E115.70255
M204 S5000
G0 F7200 X92.419 Y109.146
M204 S3000
G1 F1500 X102.146 Y99.42 E116.16005
M204 S5000
G0 F7200 X102.712 Y99.42
M204 S3000
G1 F1500 X92.419 Y109.712 E116.64418
M204 S5000
G0 F7200 X92.419 Y110.278
M204 S3000
G1 F1500 X103.277 Y99.42 E117.15491
M204 S5000
G0 F7200 X103.843 Y99.42
M204 S3000
G1 F1500 X92.419 Y110.844 E117.69226
M204 S5000
G0 F7200 X92.419 Y111.409
M204 S3000
G1 F1500 X104.409 Y99.42 E118.2562
M204 S5000
G0 F7200 X104.974 Y99.42
M204 S3000
G1 F1500 X92.419 Y111.975 E118.84675
M204 S5000
G0 F7200 X92.419 Y112.541
M204 S3000
G1 F1500 X105.54 Y99.42 E119.46393
M204 S5000
G0 F7200 X106.106 Y99.42
M204 S3000
G1 F1500 X92.419 Y113.106 E120.1077
M204 S5000
G0 F7200 X92.419 Y113.672
M204 S3000
G1 F1500 X106.671 Y99.42 E120.77807
M204 S5000
G0 F7200 X107.237 Y99.42
M204 S3000
G1 F1500 X92.419 Y114.238 E121.47506
M204 S5000
G0 F7200 X92.419 Y114.803
M204 S3000
G1 F1500 X107.803 Y99.42 E122.19865
M204 S5000
G0 F7200 X108.368 Y99.42
M204 S3000
