;FLAVOR:Marlin
;TIME:1884
;Filament used: 2.32988m
;Layer height: 0.2
;MINX:72.429
;MINY:110.435
;MINZ:0.3
;MAXX:105.572
;MAXY:143.567
;MAXZ:18.9
;Generated with Cura_SteamEngine 4.6.2
M140 S70
M105
M190 S70
M104 S237
M105
M109 S237
M82 ;absolute extrusion mode
G28 ;Home
G1 Z15.0 F6000 ;Move the platform down 15mm
G92 E0
G1 F200 E3
G92 E0
G92 E0
G92 E0
G1 F2700 E-13
;LAYER_COUNT:94
;LAYER:0
M107
M204 S5000
G0 F1200 X90.173 Y110.882 Z0.3
M204 S3000
;TYPE:SKIRT
G1 F2100 E0
G1 F1200 X91.166 Y110.986 E0.05753
G1 X91.744 Y111.074 E0.09122
G1 X92.387 Y111.198 E0.12896
G1 X92.973 Y111.335 E0.16363
G1 X93.654 Y111.524 E0.20436
G1 X94.45 Y111.791 E0.25274
G1 X95.552 Y112.236 E0.32122
G1 X96.038 Y112.453 E0.35189
G1 X96.559 Y112.718 E0.38557
G1 X97.178 Y113.062 E0.42638
G1 X97.638 Y113.344 E0.45747
G1 X98.101 Y113.647 E0.48936
G1 X98.552 Y113.966 E0.52119
G1 X99.085 Y114.374 E0.55987
G1 X99.738 Y114.931 E0.60932
G1 X100.616 Y115.778 E0.67962
G1 X101.043 Y116.228 E0.71537
G1 X101.638 Y116.934 E0.76857
G1 X102.024 Y117.438 E0.80515
G1 X102.422 Y118.006 E0.84512
G1 X102.733 Y118.488 E0.87817
G1 X103.084 Y119.081 E0.91788
G1 X103.336 Y119.544 E0.94825
G1 X103.954 Y120.906 E1.03444
G1 X104.2 Y121.522 E1.07266
G1 X104.506 Y122.47 E1.13006
G1 X104.642 Y122.959 E1.15931
G1 X104.809 Y123.673 E1.20156
G1 X104.906 Y124.172 E1.23085
G1 X105.087 Y125.617 E1.31477
G1 X105.138 Y126.285 E1.35338
G1 X105.152 Y126.803 E1.38323
G1 X105.151 Y127.312 E1.41257
G1 X105.127 Y127.925 E1.44792
G1 X105.076 Y128.571 E1.48526
G1 X105.006 Y129.181 E1.52064
G1 X104.915 Y129.767 E1.55481
G1 X104.799 Y130.364 E1.58985
G1 X104.417 Y131.793 E1.67509
G1 X104.221 Y132.403 E1.71201
G1 X103.866 Y133.314 E1.76835
G1 X103.633 Y133.836 E1.80129
G1 X103.31 Y134.489 E1.84327
G1 X102.988 Y135.076 E1.88185
G1 X102.684 Y135.58 E1.91576
G1 X102.409 Y136.003 E1.94484
G1 X101.522 Y137.186 E2.03004
G1 X101.121 Y137.672 E2.06634
G1 X100.392 Y138.447 E2.12765
G1 X100.018 Y138.809 E2.15765
G1 X99.469 Y139.296 E2.19994
G1 X98.929 Y139.736 E2.24007
G1 X98.48 Y140.073 E2.27242
G1 X97.915 Y140.463 E2.31198
G1 X96.782 Y141.14 E2.38804
G1 X96.303 Y141.401 E2.41947
G1 X95.29 Y141.871 E2.48382
G1 X94.754 Y142.088 E2.51714
G1 X94.1 Y142.321 E2.55715
G1 X93.432 Y142.527 E2.59743
G1 X92.854 Y142.68 E2.63188
G1 X92.213 Y142.824 E2.66974
G1 X90.959 Y143.022 E2.74289
G1 X90.3 Y143.095 E2.7811
G1 X89.719 Y143.13 E2.81464
G1 X89.17 Y143.147 E2.84629
G1 X88.014 Y143.116 E2.91292
G1 X87.461 Y143.074 E2.94488
G1 X86.769 Y142.993 E2.98503
G1 X86.271 Y142.916 E3.01407
G1 X84.775 Y142.578 E3.10244
G1 X84.148 Y142.401 E3.13999
G1 X83.21 Y142.072 E3.19726
G1 X82.641 Y141.844 E3.23259
G1 X82.054 Y141.579 E3.2697
G1 X81.536 Y141.318 E3.30312
G1 X80.297 Y140.592 E3.38587
G1 X79.767 Y140.246 E3.42234
G1 X78.994 Y139.671 E3.47786
G1 X78.488 Y139.256 E3.51557
G1 X78.007 Y138.827 E3.55271
G1 X77.623 Y138.461 E3.58327
G1 X77.093 Y137.909 E3.62737
G1 X76.758 Y137.532 E3.65643
G1 X75.822 Y136.319 E3.74472
G1 X75.517 Y135.885 E3.77529
G1 X75.207 Y135.394 E3.80875
G1 X74.945 Y134.949 E3.8385
G1 X74.637 Y134.383 E3.87563
G1 X74.372 Y133.842 E3.91035
G1 X74.139 Y133.32 E3.94329
G1 X73.883 Y132.684 E3.98279
G1 X73.701 Y132.173 E4.01405
G1 X73.296 Y130.735 E4.10014
G1 X73.167 Y130.182 E4.13286
G1 X72.994 Y129.144 E4.19349
G1 X72.915 Y128.471 E4.23254
G1 X72.872 Y127.9 E4.26554
G1 X72.849 Y127.231 E4.30411
G1 X72.851 Y126.594 E4.34082
G1 X72.885 Y125.888 E4.38155
G1 X73.033 Y124.595 E4.45654
G1 X73.133 Y123.968 E4.49312
G1 X73.25 Y123.423 E4.52524
G1 X73.424 Y122.72 E4.56698
G1 X73.706 Y121.794 E4.62275
G1 X73.923 Y121.197 E4.65936
G1 X74.169 Y120.593 E4.69694
G1 X74.448 Y119.982 E4.73564
G1 X74.688 Y119.507 E4.76631
G1 X74.995 Y118.947 E4.80311
G1 X75.295 Y118.448 E4.83666
G1 X75.575 Y118.012 E4.86652
G1 X76 Y117.409 E4.90903
G1 X76.321 Y116.986 E4.93963
G1 X76.789 Y116.419 E4.98199
G1 X77.149 Y116.016 E5.01313
G1 X77.657 Y115.492 E5.05518
G1 X78.262 Y114.932 E5.10269
G1 X79.185 Y114.174 E5.17151
G1 X79.642 Y113.829 E5.20451
G1 X80.505 Y113.257 E5.26417
G1 X80.96 Y112.983 E5.29477
G1 X81.601 Y112.635 E5.3368
G1 X82.136 Y112.373 E5.37113
G1 X83.425 Y111.842 E5.45146
G1 X84.058 Y111.617 E5.49017
G1 X84.54 Y111.471 E5.51919
G1 X85.03 Y111.338 E5.54845
G1 X85.606 Y111.202 E5.58255
G1 X86.258 Y111.075 E5.62083
G1 X86.873 Y110.98 E5.65669
G1 X87.508 Y110.908 E5.69351
G1 X88.153 Y110.863 E5.73077
G1 X89.51 Y110.855 E5.80896
G1 X90.173 Y110.882 E5.8472
M204 S5000
G0 X90.208 Y110.464
M204 S3000
G1 X90.716 Y110.51 E5.87659
G1 X91.215 Y110.569 E5.90555
G1 X91.823 Y110.662 E5.94099
G1 X92.466 Y110.786 E5.97872
G1 X93.072 Y110.927 E6.01458
G1 X93.768 Y111.12 E6.0562
G1 X94.607 Y111.402 E6.1072
G1 X95.709 Y111.847 E6.17568
G1 X96.214 Y112.072 E6.20754
G1 X96.761 Y112.35 E6.2429
G1 X97.395 Y112.703 E6.28471
G1 X97.868 Y112.992 E6.31665
G1 X98.331 Y113.295 E6.34854
G1 X98.799 Y113.626 E6.38157
G1 X99.342 Y114.042 E6.42098
G1 X100.03 Y114.629 E6.4731
G1 X100.908 Y115.476 E6.54339
G1 X101.352 Y115.943 E6.58053
G1 X101.961 Y116.665 E6.63495
G1 X102.361 Y117.187 E6.67285
G1 X102.767 Y117.766 E6.7136
G1 X103.095 Y118.274 E6.74844
G1 X103.446 Y118.867 E6.78815
G1 X103.707 Y119.348 E6.81968
G1 X104.338 Y120.735 E6.90749
G1 X104.597 Y121.386 E6.94786
G1 X104.907 Y122.344 E7.00588
G1 X105.048 Y122.851 E7.03621
G1 X105.218 Y123.58 E7.07934
G1 X105.319 Y124.095 E7.10958
G1 X105.504 Y125.568 E7.19513
G1 X105.558 Y126.271 E7.23576
G1 X105.572 Y126.804 E7.26648
G1 X105.571 Y127.313 E7.29581
G1 X105.546 Y127.945 E7.33226
G1 X105.495 Y128.606 E7.37046
G1 X105.421 Y129.246 E7.40758
G1 X105.33 Y129.832 E7.44176
G1 X105.211 Y130.448 E7.47791
G1 X104.821 Y131.905 E7.56482
G1 X104.62 Y132.536 E7.60298
G1 X104.255 Y133.47 E7.66076
G1 X104.016 Y134.01 E7.69479
G1 X103.685 Y134.677 E7.7377
G1 X103.348 Y135.293 E7.77816
G1 X103.044 Y135.797 E7.81208
G1 X102.76 Y136.235 E7.84216
G1 X101.856 Y137.441 E7.92901
G1 X101.433 Y137.953 E7.96728
G1 X100.694 Y138.739 E8.02944
G1 X100.306 Y139.114 E8.06054
G1 X99.747 Y139.611 E8.10364
G1 X99.182 Y140.072 E8.14566
G1 X98.733 Y140.409 E8.17801
G1 X98.318 Y140.7 E8.20721
G1 X97.763 Y141.052 E8.24508
G1 X96.994 Y141.502 E8.29643
G1 X96.491 Y141.777 E8.32946
G1 X95.463 Y142.254 E8.39476
G1 X94.908 Y142.479 E8.42927
G1 X94.239 Y142.717 E8.47019
G1 X93.54 Y142.933 E8.51235
G1 X92.962 Y143.086 E8.5468
G1 X92.287 Y143.237 E8.58666
G1 X91.021 Y143.437 E8.66051
G1 X90.328 Y143.514 E8.70069
G1 X89.733 Y143.55 E8.73504
G1 X89.173 Y143.567 E8.76732
G1 X88.669 Y143.564 E8.79636
G1 X87.997 Y143.536 E8.83512
G1 X87.425 Y143.493 E8.86817
G1 X86.717 Y143.41 E8.90925
G1 X86.204 Y143.331 E8.93916
G1 X84.679 Y142.987 E9.02924
G1 X84.028 Y142.803 E9.06823
G1 X83.068 Y142.468 E9.12682
G1 X82.468 Y142.226 E9.1641
G1 X81.881 Y141.961 E9.20121
G1 X81.342 Y141.691 E9.23595
G1 X80.083 Y140.953 E9.32004
G1 X79.533 Y140.595 E9.35785
G1 X78.74 Y140.005 E9.41481
G1 X78.209 Y139.57 E9.45436
G1 X77.728 Y139.141 E9.4915
G1 X77.331 Y138.762 E9.52313
G1 X76.789 Y138.199 E9.56816
G1 X76.442 Y137.808 E9.59829
G1 X75.487 Y136.573 E9.68824
G1 X75.17 Y136.122 E9.72001
G1 X74.845 Y135.607 E9.7551
G1 X74.583 Y135.162 E9.78486
G1 X74.26 Y134.568 E9.82382
G1 X73.995 Y134.027 E9.85853
G1 X73.754 Y133.488 E9.89255
G1 X73.493 Y132.84 E9.93281
G1 X73.304 Y132.309 E9.96529
G1 X72.891 Y130.846 E10.05289
G1 X72.757 Y130.274 E10.08674
G1 X72.579 Y129.208 E10.14901
G1 X72.496 Y128.503 E10.18992
G1 X72.453 Y127.932 E10.22292
G1 X72.429 Y127.242 E10.2627
G1 X72.431 Y126.59 E10.30027
G1 X72.452 Y126.077 E10.32986
G1 X72.504 Y125.465 E10.36525
G1 X72.616 Y124.545 E10.41865
G1 X72.722 Y123.884 E10.45723
G1 X72.842 Y123.322 E10.49034
G1 X73.016 Y122.619 E10.53207
G1 X73.305 Y121.667 E10.5894
G1 X73.53 Y121.048 E10.62736
G1 X73.78 Y120.434 E10.66556
G1 X74.073 Y119.793 E10.70617
G1 X74.313 Y119.318 E10.73684
G1 X74.635 Y118.73 E10.77547
G1 X74.935 Y118.231 E10.80902
G1 X75.224 Y117.782 E10.83978
G1 X75.657 Y117.165 E10.88322
G1 X75.988 Y116.729 E10.91476
G1 X76.466 Y116.15 E10.95803
G1 X76.839 Y115.733 E10.99027
G1 X77.357 Y115.199 E11.03314
G1 X77.996 Y114.607 E11.08333
G1 X78.919 Y113.849 E11.15215
G1 X79.393 Y113.491 E11.18638
G1 X80.276 Y112.904 E11.24748
G1 X80.747 Y112.621 E11.27914
G1 X81.402 Y112.265 E11.3221
G1 X81.956 Y111.994 E11.35764
G1 X83.267 Y111.453 E11.43936
G1 X83.934 Y111.216 E11.48015
G1 X84.43 Y111.066 E11.51001
G1 X84.92 Y110.933 E11.53927
G1 X85.526 Y110.79 E11.57515
G1 X86.178 Y110.663 E11.61342
G1 X86.826 Y110.563 E11.6512
G1 X87.461 Y110.491 E11.68803
G1 X88.129 Y110.444 E11.72662
G1 X89.51 Y110.435 E11.8062
G1 X90.208 Y110.464 E11.84645
M204 S5000
G1 F2700 E-1.15355
;MESH:CONECTORDEMEDIA.stl
G0 F1200 X89.813 Y115.405
G0 X89.677 Y116.713
G0 X90.429 Y117.195
M204 S3000
;TYPE:WALL-INNER
G1 F2100 E11.84645
G1 F1200 X91.179 Y117.332 E11.89038
G1 X91.941 Y117.536 E11.93584
G1 X92.598 Y117.768 E11.97599
G1 X93.292 Y118.068 E12.01956
G1 X93.99 Y118.439 E12.06511
G1 X94.639 Y118.852 E12.10943
G1 X95.249 Y119.31 E12.15339
G1 X95.788 Y119.784 E12.19475
G1 X96.331 Y120.335 E12.23933
G1 X96.824 Y120.921 E12.28345
G1 X97.277 Y121.554 E12.32831
G1 X97.67 Y122.202 E12.37198
G1 X97.988 Y122.84 E12.41305
G1 X98.286 Y123.556 E12.45774
G1 X98.53 Y124.3 E12.50286
G1 X98.708 Y125.037 E12.54655
G1 X98.824 Y125.754 E12.5884
G1 X98.891 Y126.498 E12.63145
G1 X98.901 Y127.272 E12.67605
G1 X98.847 Y128.048 E12.72088
G1 X98.734 Y128.833 E12.76658
G1 X98.587 Y129.479 E12.80475
G1 X98.357 Y130.238 E12.85045
G1 X98.075 Y130.959 E12.89506
G1 X97.736 Y131.659 E12.93988
G1 X97.35 Y132.322 E12.98409
G1 X96.943 Y132.907 E13.02515
G1 X96.457 Y133.512 E13.06987
G1 X95.94 Y134.059 E13.11324
G1 X95.358 Y134.587 E13.15852
G1 X94.759 Y135.051 E13.20218
G1 X94.136 Y135.458 E13.24507
G1 X93.492 Y135.819 E13.28761
G1 X92.788 Y136.144 E13.33229
G1 X92.048 Y136.418 E13.37776
G1 X91.327 Y136.62 E13.4209
G1 X90.619 Y136.761 E13.4625
G1 X89.874 Y136.858 E13.50579
G1 X89.076 Y136.896 E13.55183
G1 X88.319 Y136.874 E13.59547
G1 X87.531 Y136.789 E13.64114
G1 X86.846 Y136.66 E13.68131
G1 X86.111 Y136.467 E13.72509
G1 X85.375 Y136.209 E13.77004
G1 X84.666 Y135.899 E13.81462
G1 X84.053 Y135.569 E13.85474
G1 X83.392 Y135.154 E13.89971
G1 X82.778 Y134.696 E13.94385
G1 X82.189 Y134.181 E13.98894
G1 X81.649 Y133.63 E14.03339
G1 X81.199 Y133.089 E14.07394
G1 X80.742 Y132.456 E14.11893
G1 X80.352 Y131.814 E14.16222
G1 X79.989 Y131.099 E14.20842
G1 X79.707 Y130.414 E14.25111
G1 X79.488 Y129.732 E14.29238
G1 X79.296 Y128.956 E14.33845
G1 X79.175 Y128.219 E14.38148
G1 X79.107 Y127.456 E14.42563
G1 X79.101 Y126.667 E14.47109
G1 X79.151 Y125.985 E14.5105
G1 X79.262 Y125.203 E14.55601
G1 X79.427 Y124.462 E14.59975
G1 X79.665 Y123.687 E14.64647
G1 X79.934 Y123.007 E14.68861
G1 X80.247 Y122.363 E14.72987
G1 X80.636 Y121.695 E14.77441
G1 X81.084 Y121.043 E14.82
G1 X81.55 Y120.468 E14.86264
G1 X82.099 Y119.89 E14.90858
G1 X82.611 Y119.429 E14.94828
G1 X83.225 Y118.951 E14.99312
G1 X83.87 Y118.523 E15.03772
G1 X84.541 Y118.151 E15.08193
G1 X85.19 Y117.858 E15.12297
G1 X85.901 Y117.591 E15.16673
G1 X86.675 Y117.37 E15.21311
G1 X87.402 Y117.22 E15.25589
G1 X88.173 Y117.123 E15.30066
G1 X88.885 Y117.093 E15.34173
G1 X89.65 Y117.114 E15.38583
G1 X90.429 Y117.195 E15.43096
M204 S5000
G0 X95.003 Y121.126
G0 X97.052 Y123.496
M204 S3000
G1 X96.698 Y122.779 E15.47703
G1 X96.284 Y122.098 E15.52296
G1 X95.808 Y121.455 E15.56906
G1 X95.276 Y120.859 E15.61509
G1 X94.693 Y120.314 E15.66108
G1 X94.062 Y119.825 E15.70708
G1 X93.389 Y119.394 E15.75313
G1 X92.679 Y119.025 E15.79924
G1 X91.94 Y118.725 E15.8452
G1 X91.175 Y118.492 E15.89128
G1 X90.394 Y118.329 E15.93725
G1 X89.599 Y118.239 E15.98336
G1 X88.801 Y118.221 E16.02935
G1 X88.006 Y118.274 E16.07526
G1 X87.216 Y118.4 E16.12136
G1 X86.441 Y118.599 E16.16747
G1 X85.689 Y118.867 E16.21347
G1 X84.964 Y119.202 E16.25949
G1 X84.271 Y119.601 E16.30557
G1 X83.619 Y120.062 E16.35158
G1 X83.011 Y120.58 E16.39761
G1 X82.452 Y121.151 E16.44365
G1 X81.948 Y121.771 E16.48969
G1 X81.503 Y122.435 E16.53575
G1 X81.118 Y123.135 E16.58179
G1 X80.801 Y123.867 E16.62775
G1 X80.551 Y124.625 E16.67375
G1 X80.371 Y125.404 E16.71982
G1 X80.261 Y126.196 E16.76589
G1 X80.226 Y126.994 E16.81192
G1 X80.261 Y127.791 E16.85789
G1 X80.371 Y128.583 E16.90397
G1 X80.551 Y129.362 E16.95004
G1 X80.801 Y130.119 E16.99598
G1 X81.118 Y130.854 E17.0421
G1 X81.503 Y131.554 E17.08813
G1 X81.948 Y132.216 E17.1341
G1 X82.452 Y132.836 E17.18014
G1 X83.011 Y133.407 E17.22619
G1 X83.619 Y133.925 E17.27221
G1 X84.271 Y134.386 E17.31822
G1 X84.964 Y134.786 E17.36433
G1 X85.69 Y135.12 E17.41038
G1 X86.441 Y135.388 E17.45633
G1 X87.214 Y135.587 E17.50232
G1 X88.004 Y135.714 E17.54843
G1 X88.801 Y135.767 E17.59446
G1 X89.599 Y135.749 E17.64045
G1 X90.394 Y135.659 E17.68656
G1 X91.175 Y135.496 E17.73253
G1 X91.94 Y135.263 E17.77861
G1 X92.679 Y134.962 E17.82459
G1 X93.389 Y134.594 E17.87067
G1 X94.063 Y134.163 E17.91677
G1 X94.693 Y133.673 E17.96276
G1 X95.276 Y133.128 E18.00875
G1 X95.808 Y132.532 E18.05479
G1 X96.284 Y131.89 E18.10084
G1 X96.699 Y131.208 E18.14684
G1 X97.052 Y130.491 E18.19289
G1 X97.335 Y129.744 E18.23892
G1 X97.552 Y128.974 E18.28502
G1 X97.696 Y128.189 E18.33101
G1 X97.768 Y127.393 E18.37707
G1 X97.768 Y126.594 E18.42311
G1 X97.696 Y125.799 E18.4691
G1 X97.552 Y125.013 E18.51515
G1 X97.335 Y124.243 E18.56125
G1 X97.052 Y123.496 E18.60728
M204 S5000
G0 X95.208 Y121.363
G0 X90.471 Y116.876
G0 X90.485 Y116.778
M204 S3000
G1 X91.277 Y116.923 E18.65367
G1 X92.061 Y117.133 E18.70044
G1 X92.747 Y117.375 E18.74236
G1 X93.479 Y117.692 E18.78833
G1 X94.201 Y118.075 E18.83542
G1 X94.878 Y118.506 E18.88167
G1 X95.516 Y118.985 E18.92764
G1 X96.076 Y119.478 E18.97063
G1 X96.642 Y120.053 E19.01712
G1 X97.154 Y120.661 E19.06293
G1 X97.625 Y121.318 E19.10951
G1 X98.043 Y122.009 E19.15604
G1 X98.369 Y122.661 E19.19805
G1 X98.68 Y123.41 E19.24478
G1 X98.934 Y124.184 E19.29172
G1 X99.122 Y124.961 E19.33779
G1 X99.239 Y125.687 E19.38016
G1 X99.311 Y126.48 E19.42604
G1 X99.321 Y127.284 E19.47238
G1 X99.265 Y128.097 E19.51933
G1 X99.149 Y128.899 E19.56603
G1 X98.989 Y129.601 E19.60752
G1 X98.755 Y130.373 E19.654
G1 X98.46 Y131.128 E19.70071
G1 X98.108 Y131.855 E19.74725
G1 X97.702 Y132.552 E19.79374
G1 X97.285 Y133.151 E19.83579
G1 X96.775 Y133.786 E19.88272
G1 X96.231 Y134.362 E19.92838
G1 X95.628 Y134.909 E19.97529
G1 X94.997 Y135.398 E20.02129
G1 X94.366 Y135.81 E20.06472
G1 X93.681 Y136.194 E20.10997
G1 X92.943 Y136.535 E20.15681
G1 X92.185 Y136.815 E20.20338
G1 X91.417 Y137.03 E20.24933
G1 X90.681 Y137.177 E20.29258
G1 X89.911 Y137.277 E20.33732
G1 X89.083 Y137.317 E20.38509
G1 X88.287 Y137.293 E20.43098
G1 X87.471 Y137.205 E20.47827
G1 X86.76 Y137.071 E20.51996
G1 X85.99 Y136.869 E20.56583
G1 X85.212 Y136.597 E20.61333
G1 X84.486 Y136.279 E20.659
G1 X83.842 Y135.933 E20.70112
G1 X83.153 Y135.5 E20.74802
G1 X82.513 Y135.023 E20.79401
G1 X81.902 Y134.488 E20.84081
G1 X81.334 Y133.909 E20.88755
G1 X80.865 Y133.345 E20.92981
G1 X80.395 Y132.693 E20.97613
G1 X79.982 Y132.014 E21.02192
G1 X79.611 Y131.282 E21.06921
G1 X79.31 Y130.552 E21.11471
G1 X79.083 Y129.847 E21.15739
G1 X78.886 Y129.05 E21.2047
G1 X78.758 Y128.27 E21.25024
G1 X78.687 Y127.472 E21.29641
G1 X78.681 Y126.652 E21.34366
G1 X78.733 Y125.94 E21.3848
G1 X78.848 Y125.13 E21.43194
G1 X79.022 Y124.349 E21.47805
G1 X79.265 Y123.556 E21.52584
G1 X79.553 Y122.829 E21.5709
G1 X79.873 Y122.172 E21.61301
G1 X80.282 Y121.469 E21.65988
G1 X80.744 Y120.796 E21.70692
G1 X81.24 Y120.184 E21.75231
G1 X81.803 Y119.591 E21.79943
G1 X82.339 Y119.109 E21.84096
G1 X82.982 Y118.608 E21.88794
G1 X83.647 Y118.167 E21.93392
G1 X84.362 Y117.771 E21.98101
G1 X85.025 Y117.471 E22.02295
G1 X85.774 Y117.19 E22.06904
G1 X86.564 Y116.964 E22.11639
G1 X87.345 Y116.804 E22.16233
G1 X88.138 Y116.704 E22.20839
G1 X88.879 Y116.672 E22.25113
G1 X89.678 Y116.694 E22.29718
G1 X90.485 Y116.778 E22.34394
M204 S5000
G0 X90.471 Y116.876
G0 X85.139 Y119.54
G0 X83.853 Y120.363
G0 X82.737 Y121.405
G0 X81.828 Y122.633
G0 X81.157 Y124.003
G0 X80.745 Y125.473
G0 X80.606 Y126.994
G0 X80.745 Y128.514
