;FLAVOR:Marlin
;TIME:6512
;Filament used: 6.24206m
;Layer height: 0.2
;MINX:37.77
;MINY:65.015
;MINZ:0.3
;MAXX:151.347
;MAXY:174.97
;MAXZ:31.7
;Generated with Cura_SteamEngine 4.6.2
M140 S70
M105
M190 S70
M104 S237
M105
M109 S237
M82 ;absolute extrusion mode
G28 ;Home
G1 Z15.0 F6000 ;Move the platform down 15mm
G92 E0
G1 F200 E3
G92 E0
G92 E0
G92 E0
G1 F2700 E-13
;LAYER_COUNT:158
;LAYER:0
M107
G0 F1200 X102.452 Y65.454 Z0.3
;TYPE:SKIRT
G1 F2100 E0
G1 F1200 X103.095 Y65.513 E0.03721
G1 X103.726 Y65.65 E0.07441
G1 X104.334 Y65.864 E0.11156
G1 X104.912 Y66.152 E0.14877
G1 X105.462 Y66.519 E0.18687
G1 X106.118 Y67.019 E0.2344
G1 X108.316 Y68.649 E0.39208
G1 X110.505 Y70.176 E0.54588
G1 X112.748 Y71.651 E0.70057
G1 X115.028 Y73.058 E0.85495
G1 X117.343 Y74.398 E1.00908
G1 X119.709 Y75.68 E1.16415
G1 X122.111 Y76.894 E1.31923
G1 X124.501 Y78.018 E1.47142
G1 X127.017 Y79.116 E1.62961
G1 X129.481 Y80.111 E1.78273
G1 X131.989 Y81.038 E1.9368
G1 X133.994 Y81.726 E2.05895
G1 X134.59 Y81.973 E2.09613
G1 X135.151 Y82.291 E2.13328
G1 X135.668 Y82.677 E2.17046
G1 X136.164 Y83.151 E2.21
G1 X136.586 Y83.639 E2.24717
G1 X136.945 Y84.176 E2.28439
G1 X137.234 Y84.753 E2.32158
G1 X137.509 Y85.586 E2.37213
G1 X137.737 Y86.541 E2.42871
G1 X138.395 Y89.146 E2.58353
G1 X139.131 Y91.742 E2.73901
G1 X139.931 Y94.291 E2.89296
G1 X140.805 Y96.823 E3.04731
G1 X141.754 Y99.34 E3.20231
G1 X142.771 Y101.821 E3.35682
G1 X143.852 Y104.257 E3.51039
G1 X145.022 Y106.707 E3.66684
G1 X146.235 Y109.074 E3.8201
G1 X147.528 Y111.427 E3.97481
G1 X148.872 Y113.718 E4.12787
G1 X150.123 Y115.727 E4.26424
G1 X150.429 Y116.295 E4.30142
G1 X150.663 Y116.896 E4.33858
G1 X150.821 Y117.522 E4.37579
G1 X150.908 Y118.326 E4.42238
G1 X150.925 Y118.898 E4.45536
G1 X150.927 Y120.802 E4.56507
G1 X150.916 Y121.575 E4.60962
G1 X150.867 Y122.218 E4.64678
G1 X150.739 Y122.85 E4.68394
G1 X150.533 Y123.462 E4.72115
G1 X150.093 Y124.312 E4.7763
G1 X148.458 Y126.881 E4.95177
G1 X147.073 Y129.204 E5.10762
G1 X145.783 Y131.513 E5.26003
G1 X144.515 Y133.942 E5.41792
G1 X143.372 Y136.29 E5.56839
G1 X142.249 Y138.776 E5.72558
G1 X141.221 Y141.23 E5.8789
G1 X140.233 Y143.79 E6.03702
G1 X139.366 Y146.25 E6.18732
G1 X138.541 Y148.815 E6.34258
G1 X137.762 Y151.494 E6.50334
G1 X137.468 Y152.563 E6.56723
G1 X137.258 Y153.174 E6.60446
G1 X136.975 Y153.754 E6.64165
G1 X136.623 Y154.294 E6.67879
G1 X136.226 Y154.765 E6.71429
G1 X135.61 Y155.357 E6.76352
G1 X135.088 Y155.736 E6.80069
G1 X134.522 Y156.046 E6.83787
G1 X133.207 Y156.578 E6.91961
G1 X130.696 Y157.61 E7.07605
G1 X128.23 Y158.705 E7.23153
G1 X125.818 Y159.859 E7.3856
G1 X123.435 Y161.083 E7.53997
G1 X121.087 Y162.373 E7.69435
G1 X118.783 Y163.727 E7.84834
G1 X116.482 Y165.166 E8.00472
G1 X114.287 Y166.628 E8.1567
G1 X112.075 Y168.193 E8.31283
G1 X109.93 Y169.804 E8.46741
G1 X107.848 Y171.462 E8.62078
G1 X105.764 Y173.219 E8.77785
G1 X105.164 Y173.679 E8.82142
G1 X104.604 Y174 E8.85861
G1 X104.009 Y174.25 E8.8958
G1 X103.388 Y174.424 E8.93296
G1 X102.75 Y174.52 E8.97014
G1 X101.832 Y174.549 E9.02306
G1 X92.597 Y174.55 E9.55521
G1 X91.817 Y174.539 E9.60016
G1 X89.457 Y174.445 E9.73626
G1 X86.78 Y174.392 E9.89055
G1 X84.1 Y174.413 E10.04498
G1 X82.322 Y174.49 E10.14753
G1 X80.682 Y174.542 E10.24208
G1 X80.172 Y174.55 E10.27148
G1 X78.407 Y174.55 E10.37318
G1 X77.634 Y174.539 E10.41773
G1 X76.991 Y174.49 E10.45489
G1 X76.359 Y174.362 E10.49204
G1 X75.747 Y174.156 E10.52925
G1 X75.165 Y173.877 E10.56644
G1 X74.406 Y173.359 E10.6194
G1 X73.952 Y172.985 E10.65329
G1 X72.667 Y171.887 E10.75069
G1 X70.548 Y170.175 E10.90766
G1 X68.449 Y168.576 E11.05971
G1 X66.246 Y166.995 E11.21596
G1 X64.026 Y165.494 E11.37038
G1 X61.782 Y164.067 E11.52362
G1 X59.462 Y162.684 E11.67925
G1 X57.146 Y161.389 E11.83216
G1 X54.72 Y160.121 E11.98989
G1 X52.374 Y158.979 E12.14024
G1 X49.888 Y157.856 E12.29743
G1 X47.422 Y156.823 E12.45149
G1 X46.908 Y156.625 E12.48323
G1 X45.779 Y156.173 E12.55331
G1 X45.196 Y155.896 E12.5905
G1 X44.652 Y155.549 E12.62769
G1 X44.108 Y155.093 E12.66859
G1 X43.517 Y154.47 E12.71807
G1 X43.143 Y153.945 E12.75521
G1 X42.836 Y153.377 E12.79242
G1 X42.602 Y152.776 E12.82958
G1 X42.421 Y152.023 E12.87421
G1 X42.342 Y151.524 E12.90332
G1 X42.07 Y149.514 E13.0202
G1 X41.632 Y146.855 E13.17548
G1 X41.125 Y144.236 E13.3292
G1 X40.543 Y141.63 E13.48307
G1 X39.881 Y139.015 E13.63851
G1 X39.144 Y136.415 E13.79423
G1 X38.437 Y134.151 E13.9309
G1 X38.283 Y133.524 E13.9681
G1 X38.202 Y132.757 E14.01255
G1 X38.19 Y108.107 E15.43296
G1 X38.201 Y107.335 E15.47745
G1 X38.25 Y106.692 E15.51461
G1 X38.422 Y105.905 E15.56103
G1 X38.608 Y105.288 E15.59816
G1 X39.386 Y102.613 E15.75869
G1 X40.05 Y100.069 E15.91019
G1 X40.667 Y97.392 E16.0685
G1 X41.181 Y94.83 E16.21907
G1 X41.639 Y92.162 E16.37506
G1 X42.016 Y89.52 E16.52884
G1 X42.335 Y86.706 E16.69203
G1 X42.478 Y85.669 E16.75235
G1 X42.66 Y85.05 E16.78953
G1 X42.917 Y84.458 E16.82672
G1 X43.245 Y83.902 E16.86391
G1 X43.765 Y83.252 E16.91188
G1 X44.38 Y82.658 E16.96115
G1 X44.901 Y82.278 E16.99831
G1 X45.466 Y81.965 E17.03553
G1 X45.998 Y81.747 E17.06866
G1 X48.501 Y80.88 E17.22129
G1 X51.007 Y79.936 E17.3756
G1 X53.511 Y78.909 E17.53156
G1 X55.937 Y77.832 E17.68451
G1 X58.354 Y76.678 E17.83884
G1 X60.75 Y75.449 E17.99401
G1 X63.121 Y74.147 E18.14988
G1 X65.402 Y72.808 E18.30229
G1 X67.676 Y71.386 E18.45684
G1 X69.931 Y69.885 E18.61293
G1 X72.093 Y68.356 E18.76552
G1 X74.559 Y66.5 E18.94337
G1 X75.098 Y66.145 E18.98056
G1 X75.676 Y65.859 E19.01772
G1 X76.286 Y65.646 E19.05495
G1 X76.917 Y65.511 E19.09213
G1 X77.528 Y65.456 E19.12748
G1 X78.098 Y65.438 E19.16035
G1 X88.261 Y65.435 E19.74597
G1 X101.816 Y65.438 E20.52705
G1 X102.452 Y65.454 E20.56371
G1 F2700 E7.56371
G0 F1200 X106.886 Y97.301
G0 X109.999 Y111.106
G0 X132.958 Y140.341
G0 X133.113 Y151.367
G0 X126.017 Y160.229
G1 F2100 E20.56371
G1 F1200 X123.613 Y161.464 E20.71945
G1 X121.286 Y162.743 E20.87246
G1 X119.002 Y164.085 E21.02511
G1 X116.736 Y165.501 E21.17908
G1 X114.505 Y166.988 E21.33357
G1 X112.328 Y168.528 E21.48723
G1 X110.181 Y170.14 E21.64194
G1 X108.104 Y171.794 E21.79494
G1 X106.063 Y173.516 E21.94881
G1 X105.418 Y174.015 E21.9958
G1 X104.838 Y174.353 E22.03449
G1 X104.223 Y174.62 E22.07312
G1 X103.58 Y174.811 E22.11177
G1 X102.919 Y174.925 E22.15042
G1 X102.396 Y174.959 E22.18062
G1 X101.839 Y174.969 E22.21273
G1 X92.597 Y174.97 E22.74528
G1 X91.811 Y174.959 E22.79057
G1 X89.476 Y174.865 E22.92523
G1 X86.776 Y174.812 E23.08085
G1 X84.122 Y174.833 E23.23378
G1 X82.34 Y174.91 E23.33656
G1 X80.695 Y174.962 E23.4314
G1 X80.177 Y174.97 E23.46125
G1 X78.407 Y174.97 E23.56325
G1 X77.628 Y174.959 E23.60814
G1 X76.959 Y174.91 E23.64679
G1 X76.301 Y174.781 E23.68543
G1 X75.663 Y174.575 E23.72406
G1 X75.053 Y174.294 E23.76276
G1 X74.482 Y173.943 E23.80139
G1 X73.767 Y173.379 E23.85386
G1 X72.388 Y172.202 E23.95833
G1 X70.309 Y170.522 E24.11236
G1 X68.167 Y168.89 E24.26753
G1 X66.007 Y167.34 E24.42072
G1 X63.823 Y165.863 E24.57265
G1 X61.542 Y164.413 E24.7284
G1 X59.258 Y163.051 E24.88163
G1 X56.92 Y161.744 E25.03598
G1 X54.558 Y160.51 E25.18954
G1 X52.149 Y159.337 E25.34394
G1 X49.741 Y158.249 E25.4962
G1 X47.283 Y157.22 E25.64975
G1 X46.757 Y157.017 E25.68224
G1 X45.623 Y156.563 E25.75262
G1 X45.016 Y156.276 E25.79131
G1 X44.448 Y155.92 E25.82994
G1 X43.817 Y155.396 E25.8772
G1 X43.208 Y154.755 E25.92815
G1 X42.814 Y154.212 E25.96681
G1 X42.489 Y153.626 E26.00542
G1 X42.235 Y153.005 E26.04408
G1 X42.007 Y152.09 E26.09842
G1 X41.926 Y151.58 E26.12818
G1 X41.655 Y149.575 E26.24476
G1 X41.217 Y146.922 E26.39971
G1 X40.717 Y144.338 E26.55137
G1 X40.133 Y141.722 E26.70582
G1 X39.477 Y139.131 E26.85983
G1 X38.741 Y136.534 E27.01537
G1 X38.036 Y134.276 E27.15168
G1 X37.874 Y133.625 E27.19034
G1 X37.783 Y132.77 E27.23988
G1 X37.77 Y132.27 E27.2687
G1 X37.77 Y108.107 E28.66105
G1 X37.781 Y107.329 E28.70589
G1 X37.83 Y106.66 E28.74454
G1 X38.02 Y105.783 E28.79625
G1 X38.221 Y105.117 E28.83634
G1 X38.972 Y102.534 E28.99134
G1 X39.65 Y99.938 E29.14595
G1 X40.254 Y97.318 E29.30088
G1 X40.768 Y94.752 E29.45168
G1 X41.222 Y92.106 E29.60638
G1 X41.602 Y89.443 E29.76138
G1 X41.918 Y86.659 E29.92284
G1 X42.063 Y85.602 E29.98431
G1 X42.247 Y84.957 E30.02296
G1 X42.507 Y84.338 E30.06165
G1 X42.838 Y83.755 E30.10028
G1 X43.459 Y82.964 E30.15823
G1 X44.091 Y82.351 E30.20897
G1 X44.631 Y81.952 E30.24765
G1 X45.214 Y81.62 E30.28631
G1 X45.861 Y81.35 E30.32671
G1 X48.359 Y80.485 E30.47904
G1 X50.861 Y79.542 E30.63311
G1 X53.338 Y78.526 E30.78739
G1 X55.76 Y77.451 E30.94008
G1 X58.198 Y76.287 E31.09576
G1 X60.53 Y75.091 E31.24678
G1 X62.906 Y73.786 E31.40298
G1 X65.182 Y72.45 E31.55506
G1 X67.461 Y71.024 E31.70997
G1 X69.689 Y69.542 E31.86416
G1 X71.839 Y68.021 E32.01592
G1 X74.307 Y66.164 E32.19389
G1 X74.866 Y65.794 E32.23252
G1 X75.465 Y65.492 E32.27118
G1 X76.096 Y65.264 E32.30984
G1 X76.749 Y65.112 E32.34847
G1 X77.514 Y65.036 E32.39277
G1 X78.084 Y65.018 E32.42563
G1 X88.261 Y65.015 E33.01206
G1 X101.816 Y65.018 E33.79315
G1 X102.464 Y65.034 E33.8305
G1 X103.133 Y65.093 E33.8692
G1 X103.789 Y65.232 E33.90784
G1 X104.424 Y65.447 E33.94647
G1 X105.03 Y65.736 E33.98515
G1 X105.717 Y66.185 E34.03245
G1 X106.406 Y66.71 E34.08236
G1 X108.543 Y68.294 E34.23564
G1 X110.743 Y69.83 E34.39025
G1 X112.959 Y71.286 E34.54304
G1 X115.259 Y72.706 E34.6988
G1 X117.564 Y74.04 E34.85226
G1 X119.897 Y75.304 E35.00516
G1 X122.291 Y76.514 E35.15973
G1 X124.703 Y77.649 E35.31333
G1 X127.124 Y78.705 E35.46553
G1 X129.662 Y79.731 E35.62328
G1 X132.138 Y80.646 E35.77539
G1 X134.13 Y81.329 E35.89673
G1 X134.75 Y81.584 E35.93536
G1 X135.336 Y81.911 E35.97403
G1 X135.879 Y82.305 E36.01269
G1 X136.327 Y82.716 E36.04772
G1 X136.904 Y83.364 E36.09772
G1 X137.281 Y83.919 E36.13638
G1 X137.589 Y84.515 E36.17504
G1 X137.823 Y85.143 E36.21366
G1 X138.14 Y86.424 E36.2897
G1 X138.799 Y89.03 E36.44459
G1 X139.531 Y91.613 E36.59929
G1 X140.334 Y94.171 E36.75378
G1 X141.2 Y96.681 E36.90679
G1 X142.153 Y99.207 E37.06236
G1 X143.148 Y101.636 E37.21361
G1 X144.233 Y104.08 E37.3677
G1 X145.393 Y106.508 E37.52275
G1 X146.617 Y108.896 E37.67738
G1 X147.875 Y111.187 E37.82799
G1 X149.258 Y113.544 E37.98546
G1 X150.479 Y115.505 E38.11857
G1 X150.799 Y116.095 E38.15725
G1 X151.047 Y116.718 E38.19589
G1 X151.219 Y117.367 E38.23458
G1 X151.328 Y118.314 E38.28951
G1 X151.345 Y118.886 E38.32248
G1 X151.347 Y120.802 E38.43289
G1 X151.336 Y121.581 E38.47778
G1 X151.287 Y122.25 E38.51643
G1 X151.158 Y122.908 E38.55507
G1 X150.952 Y123.546 E38.5937
G1 X150.671 Y124.156 E38.6324
G1 X150.284 Y124.793 E38.67535
G1 X148.804 Y127.121 E38.83431
G1 X147.441 Y129.408 E38.98773
G1 X146.139 Y131.739 E39.14158
G1 X144.904 Y134.104 E39.29532
G1 X143.73 Y136.515 E39.44984
G1 X142.642 Y138.923 E39.60211
G1 X141.605 Y141.4 E39.75684
G1 X140.645 Y143.888 E39.91051
G1 X139.76 Y146.396 E40.06376
G1 X138.936 Y148.959 E40.2189
G1 X138.176 Y151.573 E40.37576
G1 X137.873 Y152.675 E40.44162
G1 X137.656 Y153.31 E40.48029
G1 X137.366 Y153.915 E40.51895
G1 X137.006 Y154.481 E40.5576
G1 X136.531 Y155.054 E40.60049
G1 X135.898 Y155.665 E40.65118
G1 X135.357 Y156.062 E40.68985
G1 X134.773 Y156.392 E40.7285
G1 X130.87 Y157.993 E40.97159
G1 X128.407 Y159.086 E41.12687
G1 X126.017 Y160.229 E41.27953
G1 F2700 E28.27953
G0 F1200 X133.113 Y151.367
G0 X133.114 Y140.714
G0 X121.491 Y128.384
G0 X117.56 Y128.135
;TYPE:SUPPORT
G1 F2100 E41.27953
G1 F1200 X114.44 Y128.135 E41.45888
G1 X114.44 Y118.44 E42.01621
G1 X117.635 Y118.44 E42.19988
G1 X118.04 Y118.035 E42.2328
G1 X118.04 Y111.865 E42.58749
G1 X121.1 Y111.865 E42.7634
G1 X121.1 Y121.56 E43.32072
G1 X117.965 Y121.56 E43.50094
G1 X117.56 Y121.965 E43.53387
G1 X117.56 Y128.135 E43.88856
G0 X117.39 Y127.348
G1 X114.61 Y127.348 E44.04837
G0 X116.017 Y127.965
G1 X116.017 Y118.61 E44.58615
G0 X114.61 Y119.347
G1 X120.93 Y119.347 E44.94946
G0 X120.93 Y116.68
G1 X118.21 Y116.68 E45.10582
G0 X118.21 Y114.013
G1 X120.93 Y114.013 E45.26218
G0 X118.684 Y112.035
G1 X118.684 Y121.39 E45.79997
G0 X117.39 Y122.014
G1 X114.61 Y122.014 E45.95978
G0 X114.61 Y124.681
G1 X117.39 Y124.681 E46.11959
G0 X126.493 Y121.416
G1 X126.493 Y119.569 E46.22576
G1 X126.492 Y118.639 E46.27923
G1 X126.547 Y118.584 E46.2837
G1 X129.69 Y118.584 E46.46438
G1 X129.69 Y121.416 E46.62718
G1 X126.493 Y121.416 E46.81096
G0 X126.685 Y121.246
G1 X126.685 Y118.754 E46.95421
G0 X126.662 Y119.347
G1 X129.52 Y119.347 E47.11851
G0 X129.352 Y118.754
G1 X129.352 Y121.246 E47.26176
G1 F2700 E34.26176
G0 F1200 X130.449 Y121.982
G0 X141.551 Y121.982
G0 X142.31 Y121.416
G1 F2100 E47.26176
G1 F1200 X142.31 Y118.584 E47.42456
G1 X145.507 Y118.584 E47.60835
G1 X145.507 Y121.416 E47.77115
G1 X142.31 Y121.416 E47.95493
G0 X142.687 Y121.246
G1 X142.687 Y118.754 E48.09818
G0 X142.48 Y119.347
G1 X145.337 Y119.347 E48.26242
G1 F2700 E35.26242
G0 F1200 X141.551 Y121.982
G0 X121.65 Y133.108
G0 X102.53 Y141.999
G0 X103.111 Y142.58
G0 X103.113 Y153.36
G0 X102.388 Y154.004
G0 X99.22 Y154.003
G0 X84.36 Y150.13
G1 F2100 E48.26242
G1 F1200 X84.36 Y153.13 E48.43488
G1 X81.731 Y153.13 E48.58601
G1 X81.731 Y150.13 E48.75847
G1 X84.36 Y150.13 E48.9096
G0 X84.013 Y150.3
G1 X84.013 Y152.96 E49.06251
G0 X84.189 Y151.351
G1 X81.9 Y151.351 E49.1941
G1 F2700 E36.1941
G0 F1200 X81.484 Y153.359
G0 X80.757 Y154.004
G0 X77.528 Y154
G0 X76.886 Y153.278
G0 X72.539 Y136.951
G0 X72.539 Y103.049
G0 X76.887 Y86.64
G0 X77.612 Y85.996
G0 X81.295 Y85.994
G0 X81.67 Y74.005
G1 F2100 E49.1941
G1 F1200 X81.67 Y70.855 E49.37518
G1 X87.35 Y70.856 E49.7017
G1 X87.35 Y74.005 E49.88272
G1 X81.67 Y74.005 E50.20924
G0 X84.013 Y73.835
G1 X84.013 Y71.026 E50.37072
G0 X81.84 Y71.341
G1 X87.18 Y71.341 E50.6777
G0 X86.68 Y71.026
G1 X86.68 Y73.835 E50.83917
G1 F2700 E37.83917
;MESH:Part7.stl
G0 F1200 X81.07 Y81.863
G0 X73.115 Y87.304
G0 X71.806 Y87.304
G0 X70.23 Y89.15
;TYPE:WALL-INNER
G1 F2100 E50.83917
G1 F1200 X49.711 Y89.15 E52.02154
G1 X49.711 Y96.29 E52.43297
G1 X48.6 Y96.29 E52.49699
G1 X48.6 Y87.71 E52.9914
G1 X71.4 Y87.71 E54.30521
G1 X71.4 Y96.29 E54.79962
G1 X70.23 Y96.29 E54.86703
G1 X70.23 Y89.15 E55.27846
G0 X69.81 Y89.57
G1 X50.131 Y89.57 E56.41243
G1 X50.131 Y96.71 E56.82386
G1 X48.18 Y96.71 E56.93628
G1 X48.18 Y87.29 E57.47909
G1 X71.82 Y87.29 E58.84131
G1 X71.82 Y96.71 E59.38412
G1 X69.81 Y96.71 E59.49994
G1 X69.81 Y89.57 E59.91137
G0 X69.39 Y89.99
;TYPE:WALL-OUTER
G1 X50.551 Y89.99 E60.99693
G1 X50.551 Y97.103 E61.40681
G1 X50.524 Y97.13 E61.40901
G1 X47.786 Y97.13 E61.56678
G1 X47.76 Y97.104 E61.5689
G1 X47.76 Y86.896 E62.15711
G1 X47.786 Y86.87 E62.15923
G1 X71.855 Y86.87 E63.54617
G1 X72.22 Y86.876 E63.5672
G1 X72.24 Y86.896 E63.56883
G1 X72.24 Y97.104 E64.15705
G1 X72.214 Y97.13 E64.15917
G1 X69.416 Y97.13 E64.3204
G1 X69.39 Y97.104 E64.32251
G1 X69.39 Y89.99 E64.73245
G0 X69.19 Y89.99
G0 X69.19 Y89.47
G0 X70.64 Y88.74
;TYPE:SKIN
G1 X49.301 Y88.74 E65.96207
G1 X49.301 Y95.88 E66.3735
G1 X49.01 Y95.88 E66.39027
G1 X49.01 Y88.12 E66.83742
G1 X70.99 Y88.12 E68.10398
G1 X70.99 Y95.88 E68.55113
G1 X70.64 Y95.88 E68.5713
G1 X70.64 Y88.74 E68.98273
G0 X70.711 Y88.549
;TYPE:SKIN
G1 X70.472 Y88.309 E68.99203
G0 X70.429 Y88.549
G1 X70.189 Y88.309 E69.00134
G0 X70.146 Y88.549
G1 X69.906 Y88.309 E69.01065
G0 X69.863 Y88.549
G1 X69.623 Y88.309 E69.01997
G0 X69.58 Y88.549
G1 X69.34 Y88.309 E69.02928
G0 X69.297 Y88.549
G1 X69.057 Y88.309 E69.03859
G0 X69.014 Y88.549
G1 X68.775 Y88.309 E69.04789
G0 X68.732 Y88.549
G1 X68.492 Y88.309 E69.0572
G0 X68.449 Y88.549
G1 X68.209 Y88.309 E69.06651
G0 X68.166 Y88.549
G1 X67.926 Y88.309 E69.07583
G0 X67.883 Y88.549
G1 X67.643 Y88.309 E69.08514
G0 X67.6 Y88.549
G1 X67.36 Y88.309 E69.09445
G0 X67.317 Y88.549
G1 X67.078 Y88.309 E69.10375
G0 X67.034 Y88.549
G1 X66.795 Y88.309 E69.11304
G0 X66.752 Y88.549
G1 X66.512 Y88.309 E69.12235
G0 X66.469 Y88.549
G1 X66.229 Y88.309 E69.13167
G0 X66.186 Y88.549
G1 X65.946 Y88.309 E69.14098
G0 X65.903 Y88.549
G1 X65.663 Y88.309 E69.15029
G0 X65.62 Y88.549
G1 X65.381 Y88.309 E69.15959
G0 X65.337 Y88.549
G1 X65.098 Y88.309 E69.16888
G0 X65.055 Y88.549
G1 X64.815 Y88.309 E69.1782
G0 X64.772 Y88.549
