;FLAVOR:Marlin
;TIME:890
;Filament used: 0.898913m
;Layer height: 0.2
;MINX:70.891
;MINY:100.896
;MINZ:0.3
;MAXX:109.095
;MAXY:139.104
;MAXZ:15.9
;Generated with Cura_SteamEngine 4.6.2
M140 S70
M105
M190 S70
M104 S237
M105
M109 S237
M82 ;absolute extrusion mode
G28 ;Home
G1 Z15.0 F6000 ;Move the platform down 15mm
G92 E0
G1 F200 E3
G92 E0
G92 E0
G92 E0
G1 F2700 E-13
;LAYER_COUNT:79
;LAYER:0
M107
M204 S5000
G0 F1200 X91.998 Y101.422 Z0.3
M204 S3000
;TYPE:SKIRT
G1 F2100 E0
G1 F1200 X93.175 Y101.586 E0.06848
G1 X94.282 Y101.812 E0.13358
G1 X94.833 Y101.95 E0.16631
G1 X95.435 Y102.121 E0.20237
G1 X96.552 Y102.501 E0.27036
G1 X97.586 Y102.924 E0.33474
G1 X98.097 Y103.16 E0.36717
G1 X98.647 Y103.435 E0.40261
G1 X99.13 Y103.696 E0.43424
G1 X99.686 Y104.021 E0.47135
G1 X100.634 Y104.637 E0.5365
G1 X101.555 Y105.317 E0.60247
G1 X102.494 Y106.107 E0.67318
G1 X103.283 Y106.859 E0.73598
G1 X104.093 Y107.736 E0.80478
G1 X104.455 Y108.162 E0.83699
G1 X104.85 Y108.66 E0.87362
G1 X105.499 Y109.567 E0.93788
G1 X106.118 Y110.551 E1.00487
G1 X106.678 Y111.581 E1.07243
G1 X106.938 Y112.112 E1.1065
G1 X107.174 Y112.641 E1.13988
G1 X107.598 Y113.726 E1.207
G1 X107.945 Y114.802 E1.27215
G1 X108.237 Y115.943 E1.34001
G1 X108.455 Y117.093 E1.40746
G1 X108.601 Y118.249 E1.4746
G1 X108.673 Y119.409 E1.54157
G1 X108.675 Y120.531 E1.60623
G1 X108.65 Y121.106 E1.63939
G1 X108.599 Y121.78 E1.67834
G1 X108.461 Y122.87 E1.74165
G1 X108.243 Y124.03 E1.80966
G1 X107.958 Y125.155 E1.87654
G1 X107.616 Y126.223 E1.94116
G1 X107.17 Y127.365 E2.0118
G1 X106.724 Y128.329 E2.07301
G1 X106.449 Y128.861 E2.10752
G1 X106.116 Y129.454 E2.14671
G1 X105.502 Y130.429 E2.2131
G1 X104.85 Y131.337 E2.27752
G1 X104.506 Y131.775 E2.30961
G1 X104.101 Y132.258 E2.34593
G1 X103.317 Y133.106 E2.41248
G1 X102.479 Y133.907 E2.47928
G1 X101.575 Y134.666 E2.5473
G1 X100.681 Y135.331 E2.6115
G1 X99.705 Y135.966 E2.6786
G1 X98.674 Y136.55 E2.74687
G1 X97.623 Y137.06 E2.81419
G1 X96.543 Y137.503 E2.88146
G1 X95.428 Y137.88 E2.94928
G1 X94.33 Y138.177 E3.01482
G1 X93.233 Y138.404 E3.07937
G1 X92.053 Y138.573 E3.14806
G1 X90.866 Y138.666 E3.21667
G1 X89.725 Y138.684 E3.28243
G1 X88.581 Y138.633 E3.34841
G1 X87.429 Y138.509 E3.41518
G1 X86.223 Y138.301 E3.4857
G1 X85.148 Y138.046 E3.54936
G1 X84.019 Y137.704 E3.61734
G1 X82.949 Y137.306 E3.68312
G1 X81.845 Y136.814 E3.75277
G1 X80.861 Y136.301 E3.81671
G1 X79.846 Y135.688 E3.88504
G1 X79.372 Y135.373 E3.91784
G1 X78.869 Y135.014 E3.95345
G1 X77.935 Y134.272 E4.02218
G1 X77.123 Y133.544 E4.08502
G1 X76.287 Y132.697 E4.1536
G1 X75.514 Y131.808 E4.22148
G1 X74.828 Y130.913 E4.28646
G1 X74.503 Y130.448 E4.31915
G1 X74.165 Y129.929 E4.35484
G1 X73.589 Y128.942 E4.42069
G1 X73.319 Y128.429 E4.4541
G1 X73.057 Y127.889 E4.48869
G1 X72.602 Y126.827 E4.55526
G1 X72.215 Y125.743 E4.62159
G1 X71.895 Y124.635 E4.68804
G1 X71.759 Y124.072 E4.72142
G1 X71.632 Y123.456 E4.75766
G1 X71.452 Y122.3 E4.82507
G1 X71.346 Y121.153 E4.89145
G1 X71.311 Y120.005 E4.95763
G1 X71.346 Y118.856 E5.02387
G1 X71.45 Y117.72 E5.08961
G1 X71.632 Y116.547 E5.15801
G1 X71.746 Y115.985 E5.19105
G1 X71.882 Y115.41 E5.2251
G1 X72.021 Y114.893 E5.25595
G1 X72.208 Y114.275 E5.29315
G1 X72.589 Y113.209 E5.35838
G1 X72.801 Y112.685 E5.39096
G1 X73.057 Y112.109 E5.42728
G1 X73.559 Y111.112 E5.4916
G1 X74.181 Y110.048 E5.56262
G1 X74.803 Y109.122 E5.6269
G1 X75.501 Y108.207 E5.69321
G1 X76.284 Y107.306 E5.762
G1 X77.093 Y106.485 E5.82841
G1 X77.947 Y105.719 E5.89452
G1 X78.858 Y104.997 E5.9615
G1 X79.305 Y104.674 E5.99328
G1 X79.792 Y104.345 E6.02715
G1 X80.28 Y104.038 E6.06037
G1 X80.84 Y103.71 E6.09776
G1 X81.817 Y103.199 E6.1613
G1 X82.91 Y102.71 E6.2303
G1 X83.979 Y102.308 E6.29611
G1 X85.098 Y101.968 E6.3635
G1 X85.641 Y101.829 E6.3958
G1 X86.221 Y101.699 E6.43005
G1 X86.753 Y101.597 E6.46126
G1 X87.399 Y101.494 E6.49896
G1 X88.533 Y101.371 E6.56468
G1 X89.688 Y101.316 E6.63131
G1 X90.834 Y101.332 E6.69736
G1 X91.998 Y101.422 E6.76463
M204 S5000
G0 X92.034 Y101.004
M204 S3000
G1 X93.237 Y101.17 E6.83461
G1 X94.37 Y101.401 E6.90124
G1 X94.947 Y101.546 E6.93552
G1 X95.549 Y101.717 E6.97158
G1 X96.691 Y102.105 E7.04108
G1 X97.748 Y102.536 E7.10686
G1 X98.285 Y102.784 E7.14094
G1 X98.835 Y103.059 E7.17638
G1 X99.342 Y103.333 E7.20958
G1 X99.898 Y103.658 E7.24669
G1 X100.865 Y104.286 E7.31314
G1 X101.807 Y104.981 E7.38059
G1 X102.767 Y105.788 E7.45286
G1 X103.576 Y106.557 E7.51718
G1 X104.404 Y107.454 E7.58752
G1 X104.784 Y107.901 E7.62133
G1 X105.179 Y108.399 E7.65795
G1 X105.843 Y109.325 E7.72361
G1 X106.475 Y110.331 E7.79207
G1 X107.049 Y111.383 E7.86113
G1 X107.322 Y111.941 E7.89692
G1 X107.558 Y112.47 E7.9303
G1 X107.99 Y113.576 E7.99872
G1 X108.346 Y114.677 E8.0654
G1 X108.645 Y115.842 E8.13471
G1 X108.869 Y117.019 E8.20375
G1 X109.018 Y118.2 E8.27234
G1 X109.092 Y119.387 E8.34087
G1 X109.095 Y120.534 E8.40696
G1 X109.069 Y121.138 E8.4418
G1 X109.018 Y121.812 E8.48075
G1 X108.878 Y122.926 E8.54545
G1 X108.655 Y124.111 E8.61493
G1 X108.364 Y125.261 E8.68328
G1 X108.015 Y126.354 E8.7494
G1 X107.56 Y127.521 E8.82158
G1 X107.104 Y128.509 E8.88428
G1 X106.815 Y129.067 E8.92049
G1 X106.482 Y129.66 E8.95968
G1 X105.856 Y130.655 E9.02742
G1 X105.189 Y131.585 E9.09336
G1 X104.828 Y132.044 E9.12701
G1 X104.423 Y132.527 E9.16333
G1 X103.623 Y133.393 E9.23127
G1 X102.766 Y134.213 E9.29962
G1 X101.843 Y134.99 E9.36914
G1 X100.928 Y135.67 E9.43483
G1 X99.931 Y136.32 E9.50341
G1 X98.877 Y136.917 E9.57321
G1 X97.803 Y137.439 E9.64202
G1 X96.699 Y137.893 E9.71081
G1 X95.558 Y138.279 E9.78022
G1 X94.437 Y138.583 E9.84715
G1 X93.315 Y138.816 E9.91318
G1 X92.109 Y138.989 E9.98338
G1 X90.895 Y139.085 E10.05356
G1 X89.728 Y139.104 E10.12081
G1 X88.559 Y139.052 E10.18824
G1 X87.381 Y138.926 E10.25651
G1 X86.148 Y138.714 E10.3286
G1 X85.047 Y138.454 E10.39379
G1 X83.894 Y138.105 E10.4632
G1 X82.799 Y137.699 E10.5305
G1 X81.671 Y137.196 E10.60167
G1 X80.664 Y136.672 E10.66708
G1 X79.626 Y136.046 E10.73693
G1 X79.128 Y135.715 E10.77138
G1 X78.625 Y135.356 E10.80699
G1 X77.671 Y134.598 E10.87721
G1 X76.84 Y133.854 E10.94148
G1 X75.985 Y132.99 E11.01152
G1 X75.195 Y132.081 E11.08092
G1 X74.493 Y131.166 E11.14737
G1 X74.151 Y130.677 E11.18176
G1 X73.813 Y130.158 E11.21745
G1 X73.225 Y129.152 E11.28459
G1 X72.941 Y128.613 E11.3197
G1 X72.679 Y128.073 E11.35429
G1 X72.215 Y126.99 E11.42218
G1 X71.818 Y125.881 E11.49005
G1 X71.49 Y124.748 E11.55802
G1 X71.348 Y124.157 E11.59305
G1 X71.221 Y123.541 E11.62929
G1 X71.037 Y122.362 E11.69805
G1 X70.927 Y121.188 E11.76599
G1 X70.891 Y120.014 E11.83368
G1 X70.926 Y118.84 E11.90135
G1 X71.033 Y117.678 E11.9686
G1 X71.218 Y116.479 E12.0385
G1 X71.337 Y115.888 E12.07324
G1 X71.473 Y115.313 E12.10729
G1 X71.619 Y114.771 E12.13964
G1 X71.806 Y114.153 E12.17684
G1 X72.194 Y113.065 E12.2434
G1 X72.417 Y112.514 E12.27765
G1 X72.673 Y111.938 E12.31398
G1 X73.185 Y110.92 E12.37964
G1 X73.821 Y109.832 E12.45226
G1 X74.456 Y108.885 E12.51796
G1 X75.17 Y107.95 E12.58575
G1 X75.969 Y107.028 E12.65605
G1 X76.797 Y106.187 E12.72406
G1 X77.669 Y105.404 E12.79159
G1 X78.6 Y104.665 E12.86008
G1 X79.07 Y104.326 E12.89348
G1 X79.557 Y103.997 E12.92734
G1 X80.068 Y103.676 E12.96212
G1 X80.628 Y103.348 E12.99951
G1 X81.625 Y102.826 E13.06436
G1 X82.742 Y102.325 E13.1349
G1 X83.835 Y101.914 E13.20219
G1 X84.98 Y101.565 E13.27117
G1 X85.549 Y101.419 E13.30502
G1 X86.129 Y101.289 E13.33927
G1 X86.687 Y101.182 E13.37201
G1 X87.333 Y101.079 E13.4097
G1 X88.49 Y100.953 E13.47677
G1 X89.672 Y100.896 E13.54496
G1 X90.843 Y100.913 E13.61244
G1 X92.034 Y101.004 E13.68127
M204 S5000
G1 F2700 E0.68127
;MESH:tapa3.stl
G0 F1200 X90.247 Y105.848
G0 X90.187 Y107.161
G0 X88.832 Y108.256
G0 X84.026 Y117.028
G0 X82.975 Y119.349
M204 S3000
;TYPE:WALL-INNER
G1 F2100 E13.68127
G1 F1200 X82.947 Y120 E13.71882
G1 X82.975 Y120.651 E13.75636
G1 X83.066 Y121.296 E13.7939
G1 X83.216 Y121.93 E13.83144
G1 X83.422 Y122.547 E13.86892
G1 X83.684 Y123.142 E13.90639
G1 X84 Y123.712 E13.94394
G1 X84.371 Y124.251 E13.98165
G1 X84.786 Y124.75 E14.01904
G1 X85.247 Y125.211 E14.05661
G1 X85.747 Y125.627 E14.09409
G1 X86.285 Y125.995 E14.13165
G1 X86.853 Y126.311 E14.16911
G1 X87.449 Y126.575 E14.20667
G1 X88.067 Y126.781 E14.2442
G1 X88.701 Y126.931 E14.28175
G1 X89.348 Y127.021 E14.31939
G1 X89.997 Y127.05 E14.35682
G1 X90.645 Y127.021 E14.3942
G1 X91.292 Y126.931 E14.43184
G1 X91.927 Y126.781 E14.46944
G1 X92.544 Y126.575 E14.50692
G1 X93.139 Y126.311 E14.54443
G1 X93.708 Y125.996 E14.58191
G1 X94.246 Y125.628 E14.61947
G1 X94.747 Y125.211 E14.65703
G1 X95.208 Y124.75 E14.6946
G1 X95.623 Y124.251 E14.73199
G1 X95.993 Y123.712 E14.76967
G1 X96.308 Y123.142 E14.80719
G1 X96.572 Y122.547 E14.8447
G1 X96.778 Y121.93 E14.88219
G1 X96.928 Y121.295 E14.91978
G1 X97.018 Y120.651 E14.95725
G1 X97.047 Y120 E14.9948
G1 X97.018 Y119.349 E15.03235
G1 X96.928 Y118.705 E15.06982
G1 X96.778 Y118.07 E15.10742
G1 X96.572 Y117.453 E15.1449
G1 X96.308 Y116.858 E15.18241
G1 X95.993 Y116.288 E15.21994
G1 X95.623 Y115.749 E15.25761
G1 X95.208 Y115.25 E15.29501
G1 X94.747 Y114.789 E15.33258
G1 X94.246 Y114.372 E15.37014
G1 X93.708 Y114.004 E15.4077
G1 X93.139 Y113.689 E15.44518
G1 X92.544 Y113.425 E15.48268
G1 X91.927 Y113.219 E15.52017
G1 X91.292 Y113.069 E15.55776
G1 X90.645 Y112.979 E15.59541
G1 X89.997 Y112.95 E15.63278
G1 X89.348 Y112.979 E15.67022
G1 X88.701 Y113.069 E15.70786
G1 X88.067 Y113.219 E15.7454
G1 X87.449 Y113.425 E15.78294
G1 X86.853 Y113.689 E15.8205
G1 X86.285 Y114.005 E15.85795
G1 X85.747 Y114.373 E15.89551
G1 X85.247 Y114.789 E15.93299
G1 X84.786 Y115.25 E15.97056
G1 X84.371 Y115.749 E16.00796
G1 X84 Y116.288 E16.04567
G1 X83.684 Y116.858 E16.08322
G1 X83.422 Y117.453 E16.12068
G1 X83.216 Y118.07 E16.15817
G1 X83.066 Y118.704 E16.19571
G1 X82.975 Y119.349 E16.23324
M204 S5000
G0 X81.912 Y123.469
M204 S3000
G1 X81.029 Y123.198 E16.28647
G1 X80.2 Y123.317 E16.33473
G1 X79.664 Y123.592 E16.36944
G1 X79.073 Y124.23 E16.41955
G1 X78.895 Y124.806 E16.45429
G1 X78.843 Y124.978 E16.46465
G1 X78.802 Y125.111 E16.47267
G1 X78.865 Y125.547 E16.49805
G1 X78.688 Y125.165 E16.50144
G1 X78.561 Y124.892 E16.51281
G1 X78.496 Y124.725 E16.52167
G1 X78.281 Y124.179 E16.55549
G1 X78.036 Y123.417 E16.60161
G1 X77.854 Y122.696 E16.64446
G1 X77.706 Y121.919 E16.69004
G1 X77.61 Y121.14 E16.73527
G1 X77.564 Y120.387 E16.77874
G1 X77.564 Y119.613 E16.82334
G1 X77.61 Y118.86 E16.86681
G1 X77.708 Y118.07 E16.91268
G1 X77.856 Y117.294 E16.9582
G1 X78.036 Y116.583 E17.00046
G1 X78.281 Y115.821 E17.04659
G1 X78.563 Y115.102 E17.09109
G1 X78.896 Y114.386 E17.13659
G1 X79.247 Y113.741 E17.17891
G1 X79.673 Y113.063 E17.22505
G1 X80.113 Y112.446 E17.26871
G1 X80.62 Y111.826 E17.31487
G1 X81.118 Y111.287 E17.35715
G1 X81.693 Y110.74 E17.40288
G1 X82.276 Y110.248 E17.44684
G1 X82.924 Y109.768 E17.49331
G1 X83.548 Y109.363 E17.53618
G1 X84.224 Y108.981 E17.58092
G1 X84.923 Y108.643 E17.62566
G1 X85.64 Y108.349 E17.67031
G1 X86.386 Y108.096 E17.7157
G1 X87.128 Y107.896 E17.75999
G1 X87.861 Y107.746 E17.8031
G1 X88.409 Y107.668 E17.835
G1 X88.507 Y107.655 E17.84069
G1 X88.649 Y107.634 E17.84896
G1 X89.04 Y107.604 E17.87156
G1 X89.179 Y107.593 E17.8796
G1 X89.043 Y107.634 E17.88003
G1 X88.784 Y107.82 E17.88473
G1 X88.555 Y107.985 E17.89704
G1 X88.499 Y108.066 E17.90217
G1 X88.113 Y108.627 E17.94141
G1 X87.948 Y109.204 E17.97599
G1 X88.011 Y110.073 E18.0262
G1 X88.426 Y110.797 E18.07428
G1 X88.873 Y111.199 E18.10893
G1 X89.685 Y111.515 E18.15913
G1 X90.521 Y111.458 E18.20742
G1 X91.072 Y111.226 E18.24187
G1 X91.648 Y110.699 E18.28686
G1 X91.938 Y110.171 E18.32157
G1 X92.067 Y109.312 E18.37162
G1 X91.826 Y108.509 E18.41993
G1 X91.512 Y108.072 E18.45094
G1 X91.475 Y108.02 E18.45462
G1 X90.929 Y107.647 E18.49272
G1 X90.851 Y107.594 E18.49815
G1 X90.961 Y107.599 E18.49923
G1 X91.514 Y107.659 E18.51426
G1 X91.577 Y107.666 E18.51769
G1 X91.747 Y107.685 E18.52754
G1 X92.494 Y107.814 E18.57123
G1 X93.251 Y107.995 E18.61608
G1 X93.983 Y108.217 E18.66015
G1 X94.728 Y108.495 E18.70597
G1 X95.409 Y108.799 E18.74895
G1 X96.099 Y109.16 E18.79382
G1 X96.766 Y109.564 E18.83876
G1 X97.404 Y110.007 E18.88351
G1 X98.01 Y110.486 E18.92802
G1 X98.588 Y111.004 E18.97275
G1 X99.131 Y111.555 E19.01732
G1 X99.622 Y112.121 E19.0605
G1 X100.11 Y112.758 E19.10674
G1 X100.53 Y113.384 E19.15018
G1 X100.936 Y114.078 E19.19651
G1 X101.27 Y114.744 E19.23944
G1 X101.581 Y115.466 E19.28474
G1 X101.837 Y116.187 E19.32883
G1 X102.061 Y116.968 E19.37565
G1 X102.22 Y117.692 E19.41836
G1 X102.341 Y118.458 E19.46305
G1 X102.41 Y119.194 E19.50564
G1 X102.436 Y119.993 E19.55171
G1 X102.41 Y120.789 E19.5976
G1 X102.341 Y121.541 E19.64112
G1 X102.22 Y122.308 E19.68586
G1 X102.061 Y123.032 E19.72857
G1 X101.838 Y123.809 E19.77516
G1 X101.58 Y124.534 E19.8195
G1 X101.472 Y124.786 E19.8353
G1 X101.275 Y125.245 E19.86408
G1 X101.27 Y125.256 E19.86478
G1 X101.152 Y125.492 E19.87998
G1 X101.182 Y125.246 E19.88122
G1 X101.187 Y125.208 E19.88229
G1 X101.077 Y124.721 E19.90047
G1 X101.013 Y124.439 E19.91714
G1 X100.695 Y123.933 E19.95157
G1 X100.087 Y123.444 E19.99653
G1 X99.524 Y123.242 E20.031
G1 X98.741 Y123.24 E20.07612
G1 X98.246 Y123.407 E20.10622
G1 X97.786 Y123.695 E20.1375
G1 X97.298 Y124.303 E20.18242
G1 X97.096 Y124.866 E20.21689
G1 X97.094 Y125.656 E20.26241
G1 X97.292 Y126.222 E20.29696
G1 X97.776 Y126.831 E20.34179
G1 X98.283 Y127.154 E20.37643
G1 X99.045 Y127.328 E20.42147
G1 X99.568 Y127.275 E20.45176
G1 X99.637 Y127.269 E20.45575
G1 X100.035 Y127.078 E20.48119
G1 X100.31 Y126.945 E20.49879
G1 X100.113 Y127.239 E20.5047
G1 X99.923 Y127.487 E20.51508
G1 X99.881 Y127.542 E20.5188
G1 X99.628 Y127.873 E20.54281
G1 X99.132 Y128.445 E20.58644
G1 X98.588 Y128.996 E20.63105
G1 X98.01 Y129.514 E20.67578
G1 X97.404 Y129.993 E20.72029
G1 X96.766 Y130.436 E20.76505
G1 X96.099 Y130.84 E20.80998
G1 X95.409 Y131.201 E20.85485
G1 X94.718 Y131.51 E20.89847
G1 X93.994 Y131.781 E20.94302
G1 X93.256 Y132.004 E20.98744
G1 X92.494 Y132.186 E21.03259
G1 X91.747 Y132.315 E21.07627
G1 X90.961 Y132.401 E21.12183
G1 X90.174 Y132.438 E21.16723
G1 X89.416 Y132.425 E21.21091
G1 X88.649 Y132.366 E21.25524
G1 X87.861 Y132.254 E21.30111
G1 X87.128 Y132.104 E21.34422
G1 X86.386 Y131.904 E21.3885
G1 X85.646 Y131.653 E21.43353
G1 X84.915 Y131.353 E21.47906
G1 X84.224 Y131.019 E21.52328
G1 X83.548 Y130.637 E21.56803
G1 X82.924 Y130.232 E21.61089
G1 X82.269 Y129.747 E21.65786
G1 X81.701 Y129.269 E21.70064
G1 X81.137 Y128.731 E21.74555
G1 X80.605 Y128.157 E21.79065
G1 X80.152 Y127.6 E21.83202
G1 X80.113 Y127.552 E21.83558
G1 X79.79 Y127.098 E21.86769
G1 X79.642 Y126.889 E21.88244
G1 X79.834 Y127.066 E21.88363
G1 X80.226 Y127.187 E21.89455
G1 X80.286 Y127.205 E21.89801
G1 X80.712 Y127.339 E21.92374
G1 X81.542 Y127.219 E21.97206
G1 X82.077 Y126.947 E22.00665
G1 X82.671 Y126.308 E22.05692
G1 X82.942 Y125.426 E22.11009
G1 X82.823 Y124.597 E22.15835
G1 X82.548 Y124.062 E22.19301
G1 X81.912 Y123.469 E22.24312
M204 S5000
G0 X81.696 Y123.842
M204 S3000
G1 X80.996 Y123.627 E22.28532
G1 X80.329 Y123.723 E22.32415
G1 X79.922 Y123.932 E22.35051
G1 X79.446 Y124.445 E22.39084
G1 X79.231 Y125.144 E22.43298
G1 X79.327 Y125.809 E22.47169
G1 X79.535 Y126.218 E22.49813
G1 X80.049 Y126.693 E22.53846
G1 X80.746 Y126.91 E22.58053
G1 X81.413 Y126.813 E22.61937
G1 X81.82 Y126.606 E22.64568
G1 X82.298 Y126.092 E22.68612
G1 X82.513 Y125.393 E22.72827
G1 X82.417 Y124.726 E22.7671
G1 X82.208 Y124.319 E22.79346
G1 X81.696 Y123.842 E22.83378
M204 S5000
G0 X81.746 Y123.756
G0 X83.777 Y117.591
G0 X84.273 Y116.457
G0 X84.358 Y116.509
M204 S3000
G1 X84.061 Y117.045 E22.86909
G1 X83.814 Y117.605 E22.90436
G1 X83.62 Y118.185 E22.9396
G1 X83.479 Y118.782 E22.97495
G1 X83.394 Y119.388 E23.01021
G1 X83.367 Y120 E23.04551
G1 X83.394 Y120.612 E23.08081
G1 X83.479 Y121.218 E23.11607
G1 X83.62 Y121.815 E23.15142
G1 X83.814 Y122.395 E23.18666
G1 X84.061 Y122.955 E23.22193
G1 X84.358 Y123.491 E23.25724
G1 X84.706 Y123.997 E23.29263
G1 X85.097 Y124.467 E23.32786
G1 X85.53 Y124.9 E23.36314
G1 X86 Y125.291 E23.39837
G1 X86.506 Y125.637 E23.4337
