;FLAVOR:Marlin
;TIME:1138
;Filament used: 1.37403m
;Layer height: 0.3
;MINX:75.932
;MINY:79.467
;MINZ:0.32
;MAXX:104.055
;MAXY:162.441
;MAXZ:14.42
;Generated with Cura_SteamEngine 4.6.2
M140 S70
M105
M190 S70
M104 S230
M105
M109 S230
M82 ;absolute extrusion mode
G28 ;Home
G1 Z15.0 F6000 ;Move the platform down 15mm
G92 E0
G1 F200 E3
G92 E0
G92 E0
G92 E0
G1 F2700 E-10
;LAYER_COUNT:48
;LAYER:0
M106 S25.5
G0 F1200 X90.831 Y79.93 Z0.32
;TYPE:SKIRT
G1 F2100 E0
G1 F1200 X91.464 Y80.051 E0.03961
G1 X92.077 Y80.243 E0.07909
G1 X92.884 Y80.601 E0.13336
G1 X94.425 Y81.446 E0.24138
G1 X95.201 Y81.879 E0.296
G1 X95.808 Y82.276 E0.34058
G1 X96.512 Y82.81 E0.39489
G1 X96.957 Y83.166 E0.42992
G1 X97.767 Y83.847 E0.49496
G1 X98.51 Y84.496 E0.5556
G1 X99.009 Y84.954 E0.59723
G1 X99.691 Y85.615 E0.65561
G1 X100.164 Y86.092 E0.6969
G1 X100.6 Y86.563 E0.73635
G1 X101.233 Y87.34 E0.79795
G1 X101.803 Y88.158 E0.85923
G1 X102.364 Y89.131 E0.92826
G1 X102.615 Y89.684 E0.96559
G1 X102.97 Y90.576 E1.0246
G1 X103.176 Y91.225 E1.06645
G1 X103.331 Y91.757 E1.10051
G1 X103.55 Y92.799 E1.16595
G1 X103.631 Y93.439 E1.20561
G1 X103.633 Y94.084 E1.24525
G1 X103.572 Y94.621 E1.27847
G1 X103.471 Y95.232 E1.31653
G1 X103.306 Y95.991 E1.36428
G1 X103.163 Y96.51 E1.39736
G1 X102.51 Y98.562 E1.52972
G1 X101.731 Y101.175 E1.69731
G1 X101.036 Y103.771 E1.8625
G1 X100.795 Y104.787 E1.92668
G1 X100.583 Y105.629 E1.98005
G1 X100.185 Y107.038 E2.07004
G1 X100.017 Y107.606 E2.10645
G1 X99.327 Y110.202 E2.27155
G1 X98.712 Y112.804 E2.43589
G1 X98.174 Y115.433 E2.60083
G1 X97.709 Y118.059 E2.76474
G1 X97.32 Y120.695 E2.92852
G1 X97 Y123.385 E3.09502
G1 X96.757 Y126.06 E3.26012
G1 X96.594 Y128.719 E3.42386
G1 X96.504 Y131.401 E3.5888
G1 X96.485 Y133.271 E3.70375
G1 X96.48 Y156.075 E5.10539
G1 X96.468 Y156.88 E5.15487
G1 X96.419 Y157.523 E5.19451
G1 X96.29 Y158.155 E5.23416
G1 X96.084 Y158.767 E5.27385
G1 X95.804 Y159.348 E5.31349
G1 X95.454 Y159.891 E5.3532
G1 X95.04 Y160.386 E5.39286
G1 X94.568 Y160.825 E5.43248
G1 X94.045 Y161.204 E5.47218
G1 X93.479 Y161.514 E5.51184
G1 X92.88 Y161.753 E5.55148
G1 X92.255 Y161.915 E5.59117
G1 X91.404 Y162.009 E5.64379
G1 X89.407 Y162.021 E5.76654
G1 X88.672 Y162.012 E5.81172
G1 X88.029 Y161.963 E5.85136
G1 X87.396 Y161.835 E5.89105
G1 X86.784 Y161.63 E5.93072
G1 X86.203 Y161.351 E5.97034
G1 X85.66 Y161.002 E6.01001
G1 X85.164 Y160.588 E6.04972
G1 X84.724 Y160.117 E6.08934
G1 X84.345 Y159.595 E6.12899
G1 X84.033 Y159.029 E6.16871
G1 X83.794 Y158.43 E6.20835
G1 X83.631 Y157.806 E6.248
G1 X83.537 Y157.006 E6.29751
G1 X83.52 Y156.471 E6.33041
G1 X83.52 Y133.243 E7.75811
G1 X83.482 Y130.568 E7.92254
G1 X83.369 Y127.897 E8.08686
G1 X83.179 Y125.221 E8.25176
G1 X82.913 Y122.533 E8.41778
G1 X82.573 Y119.882 E8.58206
G1 X82.155 Y117.218 E8.7478
G1 X81.667 Y114.593 E8.91191
G1 X81.11 Y112.005 E9.07463
G1 X80.471 Y109.398 E9.23961
G1 X79.458 Y105.792 E9.46983
G1 X79.1 Y104.329 E9.5624
G1 X78.405 Y101.629 E9.73377
G1 X77.677 Y99.1 E9.89553
G1 X76.795 Y96.339 E10.07368
G1 X76.654 Y95.802 E10.1078
G1 X76.484 Y94.974 E10.15976
G1 X76.397 Y94.419 E10.19429
G1 X76.351 Y93.775 E10.23397
G1 X76.385 Y93.131 E10.27361
G1 X76.515 Y92.36 E10.32167
G1 X76.632 Y91.858 E10.35335
G1 X76.837 Y91.146 E10.39889
G1 X77.04 Y90.503 E10.44034
G1 X77.27 Y89.905 E10.47972
G1 X77.558 Y89.277 E10.52218
G1 X77.848 Y88.732 E10.56013
G1 X78.178 Y88.192 E10.59903
G1 X78.554 Y87.637 E10.64023
G1 X79.314 Y86.679 E10.71539
G1 X80.335 Y85.578 E10.80768
G1 X80.865 Y85.033 E10.85441
G1 X81.788 Y84.068 E10.93649
G1 X82.263 Y83.631 E10.97616
G1 X82.832 Y83.214 E11.01952
G1 X84.288 Y82.181 E11.12925
G1 X84.75 Y81.889 E11.16284
G1 X85.407 Y81.52 E11.20916
G1 X86.976 Y80.672 E11.31878
G1 X87.566 Y80.385 E11.35911
G1 X88.166 Y80.147 E11.39878
G1 X88.79 Y79.984 E11.43842
G1 X89.43 Y79.899 E11.4781
G1 X90.187 Y79.888 E11.52464
G1 X90.831 Y79.93 E11.5643
G0 X90.857 Y79.51
G1 X91.517 Y79.631 E11.60555
G1 X92.008 Y79.775 E11.637
G1 X93.086 Y80.232 E11.70896
G1 X94.627 Y81.077 E11.81699
G1 X95.406 Y81.512 E11.87183
G1 X96.061 Y81.941 E11.91995
G1 X96.765 Y82.475 E11.97426
G1 X97.227 Y82.845 E12.01065
G1 X98.037 Y83.526 E12.07569
G1 X98.787 Y84.18 E12.13685
G1 X99.294 Y84.645 E12.17914
G1 X99.984 Y85.314 E12.23821
G1 X100.463 Y85.797 E12.28002
G1 X100.92 Y86.29 E12.32134
G1 X101.245 Y86.677 E12.3524
G1 X101.563 Y87.079 E12.38391
G1 X102.151 Y87.923 E12.44713
G1 X102.747 Y88.957 E12.52049
G1 X102.998 Y89.51 E12.55781
G1 X103.37 Y90.449 E12.61989
G1 X103.576 Y91.098 E12.66175
G1 X103.734 Y91.642 E12.69656
G1 X103.853 Y92.141 E12.7281
G1 X103.963 Y92.72 E12.76432
G1 X104.049 Y93.386 E12.8056
G1 X104.055 Y94.056 E12.84678
G1 X103.987 Y94.689 E12.88591
G1 X103.886 Y95.3 E12.92397
G1 X103.715 Y96.086 E12.97342
G1 X103.566 Y96.626 E13.00785
G1 X102.904 Y98.708 E13.14213
G1 X102.14 Y101.27 E13.30646
G1 X101.446 Y103.866 E13.47162
G1 X101.204 Y104.884 E13.53594
G1 X100.99 Y105.732 E13.58969
G1 X100.589 Y107.153 E13.68044
G1 X100.421 Y107.723 E13.71697
G1 X99.735 Y110.304 E13.88112
G1 X99.12 Y112.908 E14.04557
G1 X98.591 Y115.486 E14.20733
G1 X98.124 Y118.124 E14.372
G1 X97.734 Y120.767 E14.53621
G1 X97.416 Y123.438 E14.70154
G1 X97.176 Y126.089 E14.86515
G1 X97.014 Y128.724 E15.02741
G1 X96.923 Y131.419 E15.19316
G1 X96.905 Y133.275 E15.30724
G1 X96.9 Y156.075 E16.70864
G1 X96.888 Y156.886 E16.75849
G1 X96.838 Y157.555 E16.79972
G1 X96.709 Y158.213 E16.84094
G1 X96.502 Y158.852 E16.88222
G1 X96.221 Y159.461 E16.92345
G1 X95.87 Y160.032 E16.96464
G1 X95.453 Y160.557 E17.00585
G1 X94.976 Y161.03 E17.04714
G1 X94.447 Y161.442 E17.08836
G1 X93.872 Y161.788 E17.1296
G1 X93.26 Y162.063 E17.17084
G1 X92.62 Y162.264 E17.21208
G1 X91.961 Y162.387 E17.25328
G1 X91.415 Y162.429 E17.28694
G1 X89.408 Y162.441 E17.4103
G1 X88.666 Y162.431 E17.45591
G1 X87.997 Y162.382 E17.49714
G1 X87.339 Y162.254 E17.53834
G1 X86.7 Y162.048 E17.57961
G1 X86.091 Y161.768 E17.62081
G1 X85.519 Y161.418 E17.66203
G1 X84.993 Y161.001 E17.70328
G1 X84.52 Y160.525 E17.74453
G1 X84.107 Y159.997 E17.78573
G1 X83.76 Y159.423 E17.82696
G1 X83.484 Y158.811 E17.86822
G1 X83.282 Y158.172 E17.90941
G1 X83.158 Y157.512 E17.95069
G1 X83.104 Y156.692 E18.0012
G1 X83.1 Y133.243 E19.44249
G1 X83.062 Y130.592 E19.60545
G1 X82.948 Y127.907 E19.77063
G1 X82.76 Y125.257 E19.93392
G1 X82.493 Y122.558 E20.10062
G1 X82.161 Y119.966 E20.26124
G1 X81.741 Y117.291 E20.42767
G1 X81.257 Y114.69 E20.59029
G1 X80.696 Y112.083 E20.75419
G1 X80.06 Y109.488 E20.91842
G1 X79.054 Y105.905 E21.14716
G1 X78.674 Y104.356 E21.24519
G1 X78.014 Y101.79 E21.40804
G1 X77.265 Y99.191 E21.57429
G1 X76.395 Y96.466 E21.75011
G1 X76.243 Y95.886 E21.78697
G1 X76.073 Y95.058 E21.83892
G1 X75.981 Y94.475 E21.8752
G1 X75.932 Y93.806 E21.91643
G1 X75.962 Y93.135 E21.95771
G1 X76.101 Y92.284 E22.01071
G1 X76.229 Y91.742 E22.04494
G1 X76.434 Y91.03 E22.09048
G1 X76.639 Y90.376 E22.13261
G1 X76.888 Y89.73 E22.17516
G1 X77.176 Y89.102 E22.21763
G1 X77.49 Y88.513 E22.25865
G1 X77.82 Y87.973 E22.29755
G1 X78.209 Y87.397 E22.34027
G1 X78.989 Y86.414 E22.4174
G1 X80.029 Y85.29 E22.51153
G1 X80.592 Y84.711 E22.56116
G1 X81.485 Y83.778 E22.64055
G1 X81.977 Y83.322 E22.68178
G1 X82.589 Y82.872 E22.72847
G1 X84.045 Y81.839 E22.8382
G1 X84.544 Y81.523 E22.8745
G1 X85.201 Y81.154 E22.92082
G1 X86.776 Y80.303 E23.03085
G1 X87.387 Y80.006 E23.07261
G1 X88.01 Y79.756 E23.11387
G1 X88.658 Y79.582 E23.15511
G1 X89.321 Y79.487 E23.19627
G1 X89.805 Y79.467 E23.22605
G1 X90.857 Y79.51 E23.29076
G0 X92.847 Y86.937
;TYPE:SUPPORT
G1 F900 X93.014 Y87.127 E23.30627
G1 X93.403 Y87.26 E23.33148
G1 X93.754 Y87.689 E23.36547
G1 X94.118 Y87.856 E23.39003
G1 X94.423 Y88.242 E23.42019
G1 X94.773 Y88.423 E23.44436
G1 X95.019 Y88.754 E23.46964
G1 X95.361 Y88.957 E23.49403
G1 X95.624 Y89.303 E23.52068
G1 X95.952 Y89.532 E23.54521
G1 X96.175 Y89.856 E23.56933
G1 X96.493 Y90.088 E23.59346
G1 X96.7 Y90.434 E23.61819
G1 X96.992 Y90.704 E23.64257
G1 X97.214 Y91.118 E23.67138
G1 X97.465 Y91.417 E23.69532
G1 X97.827 Y92.249 E23.75095
G1 X98.165 Y93.368 E23.82263
G1 X98.238 Y93.774 E23.84793
G1 X98.101 Y94.511 E23.89389
G1 X97.971 Y94.984 E23.92397
G1 X97.755 Y95.297 E23.94729
G1 X96.171 Y99.006 E24.19459
G1 X96.027 Y99.505 E24.22644
G1 X95.916 Y99.997 E24.25737
G1 X95.701 Y101.209 E24.33284
G1 X95.691 Y101.297 E24.33827
G1 X95.349 Y101.527 E24.36355
G1 X95.329 Y104.276 E24.53211
G1 X92.191 Y104.276 E24.72453
G1 X92.191 Y102.947 E24.80602
G1 X94.081 Y101.058 E24.96988
G1 X94.253 Y100.667 E24.99607
G1 X94.299 Y99.291 E25.08049
G1 X94.303 Y97.934 E25.1637
G1 X94.204 Y95.676 E25.30229
G1 X93.962 Y93.189 E25.45551
G1 X93.57 Y90.738 E25.60771
G1 X93.136 Y88.734 E25.73344
G1 X92.946 Y88.024 E25.77851
G1 X92.832 Y87.559 E25.80787
G1 X92.809 Y87.334 E25.82173
G1 X92.847 Y86.937 E25.84619
G0 F1200 X92.98 Y87.343
G1 F900 X93.119 Y87.343 E25.85471
G0 F1200 X94.681 Y88.585
G1 F900 X94.681 Y104.106 E26.80644
G0 F1200 X95.166 Y103.345
G1 F900 X92.361 Y103.345 E26.97843
G0 F1200 X94.423 Y100.678
G1 F900 X95.622 Y100.678 E27.05195
G0 F1200 X96.411 Y98.011
G1 F900 X94.473 Y98.011 E27.17079
G0 F1200 X94.342 Y95.344
G1 F900 X97.55 Y95.344 E27.3675
G0 F1200 X97.348 Y95.819
G1 F900 X97.348 Y91.576 E27.62767
G0 F1200 X97.78 Y92.677
G1 F900 X94.052 Y92.677 E27.85627
G0 F1200 X93.586 Y90.01
G1 F900 X96.098 Y90.01 E28.0103
G1 F2700 E18.0103
G0 F1200 X91.546 Y85.129
G0 X90.379 Y84.428
G0 X89.095 Y84.681
G0 X87.961 Y85.563
G0 X87.177 Y87.453
G1 F2100 E28.0103
G1 F900 X86.971 Y88.307 E28.06417
G1 X86.773 Y89.145 E28.11697
G1 X86.507 Y90.381 E28.19449
G1 X86.363 Y91.137 E28.24168
G1 X85.974 Y93.705 E28.40094
G1 X85.807 Y95.475 E28.50996
G1 X85.763 Y96.064 E28.54618
G1 X85.717 Y97.219 E28.61706
G1 X85.698 Y98.391 E28.68893
G1 X85.705 Y99.448 E28.75374
G1 X85.751 Y100.669 E28.82867
G1 X85.918 Y101.057 E28.85457
G1 X87.82 Y102.958 E29.01946
G1 X87.82 Y104.276 E29.10028
G1 X84.67 Y104.276 E29.29343
G1 X84.67 Y103.406 E29.34678
G1 X84.208 Y100.646 E29.51837
G1 X84.015 Y99.645 E29.58088
G1 X83.858 Y99.086 E29.61649
G1 X83.551 Y98.35 E29.66539
G1 X82.797 Y96.846 E29.76855
G1 X82.328 Y94.817 E29.89624
G1 X81.923 Y94.568 E29.9254
G1 X81.759 Y93.762 E29.97583
G1 X81.838 Y93.327 E30.00294
G1 X81.985 Y92.902 E30.03052
G1 X82.221 Y92.067 E30.08372
G1 X82.539 Y91.406 E30.1287
G1 X82.777 Y91.094 E30.15276
G1 X83 Y90.721 E30.17941
G1 X83.282 Y90.449 E30.20344
G1 X83.517 Y90.091 E30.22969
G1 X83.839 Y89.846 E30.2545
G1 X84.065 Y89.514 E30.27913
G1 X84.391 Y89.285 E30.30356
G1 X84.645 Y88.941 E30.32978
G1 X84.979 Y88.727 E30.3541
G1 X85.636 Y87.887 E30.4195
G1 X85.747 Y87.903 E30.42637
G1 X86.221 Y87.719 E30.45755
G1 X86.597 Y87.26 E30.49393
G1 X86.978 Y87.129 E30.51864
G1 X87.162 Y86.916 E30.5359
G1 X87.184 Y87.192 E30.55287
G1 X87.177 Y87.453 E30.56888
G0 F1200 X87.009 Y87.343
G1 F900 X86.88 Y87.343 E30.57679
G0 F1200 X86.68 Y87.426
G1 F900 X86.68 Y88.803 E30.66123
G0 F1200 X86.412 Y90.01
G1 F900 X83.904 Y90.01 E30.81502
G0 F1200 X84.013 Y89.891
G1 F900 X84.013 Y99.016 E31.37455
G0 F1200 X83.571 Y98.011
G1 F900 X85.534 Y98.011 E31.49491
G0 F1200 X85.582 Y100.678
G1 F900 X84.386 Y100.678 E31.56825
G0 F1200 X86.68 Y102.06
G1 F900 X86.68 Y104.106 E31.69371
G0 F1200 X87.65 Y103.345
G1 F900 X84.832 Y103.345 E31.8665
G0 F1200 X85.649 Y95.344
G1 F900 X82.624 Y95.344 E32.05199
G0 F1200 X82.226 Y92.677
G1 F900 X85.957 Y92.677 E32.28077
G1 F2700 E22.28077
;MESH:Head.STL
G0 F1200 X87.524 Y93.881
G0 X89.78 Y102.146
;TYPE:WALL-INNER
G1 F2100 E32.28077
G1 F900 X87.69 Y100.057 E32.4624
G1 X87.665 Y99.389 E32.50349
G1 X87.658 Y98.409 E32.56372
G1 X87.677 Y97.284 E32.63288
G1 X87.72 Y96.188 E32.7003
G1 X87.759 Y95.648 E32.73358
G1 X87.923 Y93.919 E32.84032
G1 X88.295 Y91.465 E32.99288
G1 X88.426 Y90.78 E33.03575
G1 X88.684 Y89.583 E33.11101
G1 X88.876 Y88.766 E33.1626
G1 X89.262 Y87.172 E33.2634
G1 X89.44 Y86.633 E33.29829
G1 X89.462 Y86.534 E33.30453
G1 X89.604 Y86.413 E33.31599
G1 X89.956 Y86.17 E33.34228
G1 X89.999 Y86.15 E33.3452
G1 X90.143 Y86.227 E33.35523
G1 X90.457 Y86.457 E33.37916
G1 X90.553 Y86.545 E33.38716
G1 X90.667 Y86.962 E33.41373
G1 X91.046 Y88.507 E33.51151
G1 X91.235 Y89.216 E33.55661
G1 X91.64 Y91.081 E33.67392
G1 X92.019 Y93.449 E33.82132
G1 X92.246 Y95.794 E33.96613
G1 X92.343 Y97.995 E34.10154
G1 X92.339 Y99.244 E34.17831
G1 X92.312 Y100.055 E34.22819
G1 X90.231 Y102.135 E34.40903
G1 X90.22 Y155.76 E37.70508
G1 X89.99 Y155.761 E37.71922
G1 X89.78 Y155.761 E37.73212
G1 X89.78 Y155.551 E37.74048
G1 X89.78 Y102.146 E41.02301
G0 F1200 X89.36 Y102.32
G1 F900 X87.276 Y100.237 E41.20411
G1 X87.245 Y99.405 E41.25529
G1 X87.238 Y98.402 E41.31694
G1 X87.257 Y97.267 E41.38671
G1 X87.301 Y96.157 E41.45499
G1 X87.341 Y95.608 E41.48882
G1 X87.505 Y93.879 E41.59557
G1 X87.882 Y91.386 E41.75055
G1 X88.015 Y90.691 E41.79404
G1 X88.275 Y89.487 E41.86975
G1 X88.468 Y88.667 E41.92153
G1 X88.859 Y87.051 E42.02372
G1 X89.035 Y86.52 E42.0581
G1 X89.084 Y86.305 E42.07166
G1 X89.352 Y86.076 E42.09332
G1 X89.743 Y85.806 E42.12253
G1 X89.936 Y85.715 E42.13565
G1 X90.079 Y85.717 E42.14444
G1 X90.369 Y85.872 E42.16465
G1 X90.722 Y86.13 E42.19152
G1 X90.926 Y86.319 E42.20861
G1 X91.075 Y86.862 E42.24322
G1 X91.453 Y88.403 E42.34075
G1 X91.641 Y89.108 E42.3856
G1 X92.055 Y91.015 E42.50554
G1 X92.435 Y93.392 E42.6535
G1 X92.666 Y95.776 E42.80071
G1 X92.763 Y97.977 E42.93613
G1 X92.759 Y99.258 E43.01487
G1 X92.726 Y100.235 E43.07495
G1 X90.651 Y102.309 E43.25528
G1 X90.64 Y156.18 E46.56644
G1 X89.57 Y156.181 E46.63221
G1 X89.36 Y156.181 E46.64512
G1 X89.36 Y155.971 E46.65348
G1 X89.36 Y102.32 E49.95112
G0 F1200 X88.94 Y102.494
;TYPE:WALL-OUTER
G1 F900 X86.862 Y100.417 E50.13171
G1 X86.825 Y99.421 E50.19297
G1 X86.818 Y98.395 E50.25603
G1 X86.837 Y97.25 E50.32642
G1 X86.882 Y96.126 E50.39556
G1 X86.923 Y95.568 E50.42995
G1 X87.087 Y93.839 E50.5367
G1 X87.467 Y91.323 E50.6931
G1 X87.605 Y90.603 E50.73816
G1 X87.866 Y89.391 E50.81436
G1 X88.06 Y88.567 E50.86639
G1 X88.248 Y87.799 E50.91499
G1 X88.454 Y86.936 E50.96953
G1 X88.63 Y86.407 E51.00379
G1 X88.706 Y86.075 E51.02473
G1 X89.094 Y85.745 E51.05603
G1 X89.534 Y85.44 E51.08894
G1 X89.846 Y85.293 E51.11014
G1 X90.187 Y85.299 E51.1311
G1 X90.593 Y85.515 E51.15937
G1 X90.987 Y85.803 E51.18937
G1 X91.3 Y86.093 E51.21559
G1 X91.483 Y86.762 E51.25822
G1 X91.86 Y88.299 E51.3555
G1 X92.047 Y89 E51.40009
G1 X92.47 Y90.949 E51.52267
G1 X92.851 Y93.335 E51.67119
G1 X93.086 Y95.758 E51.82081
G1 X93.183 Y97.959 E51.95623
G1 X93.179 Y99.272 E52.03693
G1 X93.14 Y100.415 E52.10723
G1 X91.071 Y102.483 E52.28703
G1 X91.06 Y156.6 E55.61332
G1 X89.15 Y156.601 E55.73071
G1 X88.94 Y156.601 E55.74362
G1 X88.94 Y156.391 E55.75198
G1 X88.94 Y102.494 E59.06475
G0 F1200 X88.7 Y102.254
G0 X89.067 Y101.888
G0 X90 Y101.786
;TYPE:SKIN
G1 F900 X88.094 Y99.882 E59.23034
G1 X88.075 Y99.373 E59.26164
G1 X88.068 Y98.416 E59.32047
G1 X88.087 Y97.3 E59.38907
G1 X88.13 Y96.204 E59.45649
G1 X88.167 Y95.687 E59.48835
G1 X88.329 Y93.98 E59.59374
G1 X88.701 Y91.526 E59.7463
G1 X88.826 Y90.866 E59.78758
G1 X89.083 Y89.677 E59.86235
G1 X89.275 Y88.861 E59.91388
G1 X89.654 Y87.291 E60.01315
G1 X89.83 Y86.759 E60.04759
G1 X89.856 Y86.737 E60.04969
G1 X90.005 Y86.634 E60.06082
G1 X90.187 Y86.767 E60.07467
G1 X90.269 Y87.06 E60.09338
G1 X90.649 Y88.609 E60.19141
G1 X90.835 Y89.303 E60.23557
G1 X91.238 Y91.158 E60.35225
G1 X91.611 Y93.488 E60.49728
G1 X91.836 Y95.812 E60.64079
G1 X91.933 Y97.993 E60.77498
G1 X91.929 Y99.23 E60.85101
G1 X91.908 Y99.88 E60.89099
G1 X90 Y101.786 E61.05675
G0 F1200 X88.262 Y99.255
G1 F900 X90.261 Y101.254 E61.23051
G0 F1200 X90.558 Y100.957
G1 F900 X88.258 Y98.657 E61.43044
G0 F1200 X88.262 Y98.068
G1 F900 X90.855 Y100.66 E61.65579
G0 F1200 X91.153 Y100.364
G1 F900 X88.272 Y97.483 E61.90622
G0 F1200 X88.291 Y96.909
G1 F900 X91.45 Y100.067 E62.18077
G0 F1200 X91.722 Y99.745
G1 F900 X88.313 Y96.337 E62.47705
G0 F1200 X88.349 Y95.778
G1 F900 X91.739 Y99.168 E62.77172
G0 F1200 X91.741 Y98.576
G1 F900 X88.399 Y95.234 E63.06222
G0 F1200 X88.451 Y94.692
G1 F900 X91.742 Y97.983 E63.34829
G0 F1200 X91.714 Y97.361
G1 F900 X88.502 Y94.149 E63.62749
