;FLAVOR:Marlin
;TIME:1323
;Filament used: 1.10912m
;Layer height: 0.2
;MINX:27.37
;MINY:107.87
;MINZ:0.3
;MAXX:152.63
;MAXY:152.13
;MAXZ:0.9
;Generated with Cura_SteamEngine 4.6.2
M140 S70
M105
M190 S70
M104 S237
M105
M109 S237
M82 ;absolute extrusion mode
G28 ;Home
G1 Z15.0 F6000 ;Move the platform down 15mm
G92 E0
G1 F200 E3
G92 E0
G92 E0
G92 E0
G1 F2700 E-13
;LAYER_COUNT:4
;LAYER:0
M107
M204 S5000
G0 F1200 X147.066 Y108.301 Z0.3
M204 S3000
;TYPE:SKIRT
G1 F2100 E0
G1 F1200 X147.709 Y108.35 E0.03716
G1 X148.341 Y108.478 E0.07432
G1 X148.953 Y108.684 E0.11153
G1 X149.535 Y108.963 E0.14872
G1 X150.077 Y109.312 E0.18586
G1 X150.572 Y109.726 E0.22305
G1 X151.013 Y110.198 E0.26027
G1 X151.391 Y110.721 E0.29745
G1 X151.702 Y111.286 E0.33462
G1 X151.941 Y111.885 E0.37178
G1 X152.104 Y112.51 E0.409
G1 X152.199 Y113.364 E0.45851
G1 X152.21 Y125.834 E1.17707
G1 X152.19 Y127.286 E1.26075
G1 X152.151 Y128.666 E1.3403
G1 X152.151 Y131.351 E1.49502
G1 X152.182 Y132.793 E1.57813
G1 X152.208 Y133.677 E1.62909
G1 X152.21 Y145.828 E2.32927
G1 X152.201 Y146.555 E2.37117
G1 X152.153 Y147.199 E2.40838
G1 X152.026 Y147.832 E2.44558
G1 X151.821 Y148.444 E2.48277
G1 X151.543 Y149.026 E2.51994
G1 X151.195 Y149.569 E2.5571
G1 X150.782 Y150.065 E2.5943
G1 X150.311 Y150.506 E2.63148
G1 X149.789 Y150.886 E2.66868
G1 X149.224 Y151.198 E2.70587
G1 X148.625 Y151.438 E2.74306
G1 X148.001 Y151.602 E2.78024
G1 X147.137 Y151.699 E2.83033
G1 X33.64 Y151.71 E9.37039
G1 X32.942 Y151.701 E9.41062
G1 X32.298 Y151.652 E9.44783
G1 X31.666 Y151.525 E9.48498
G1 X31.054 Y151.32 E9.52217
G1 X30.472 Y151.041 E9.55936
G1 X29.929 Y150.693 E9.59653
G1 X29.433 Y150.28 E9.63372
G1 X28.992 Y149.809 E9.6709
G1 X28.613 Y149.287 E9.70807
G1 X28.301 Y148.722 E9.74526
G1 X28.061 Y148.123 E9.78244
G1 X27.897 Y147.499 E9.81962
G1 X27.801 Y146.632 E9.86989
G1 X27.79 Y134.207 E10.58586
G1 X27.811 Y132.713 E10.67195
G1 X27.849 Y131.334 E10.75145
G1 X27.849 Y128.649 E10.90616
G1 X27.817 Y127.166 E10.99164
G1 X27.792 Y126.323 E11.04024
G1 X27.79 Y114.103 E11.74439
G1 X27.799 Y113.438 E11.78271
G1 X27.848 Y112.795 E11.81987
G1 X27.976 Y112.163 E11.85703
G1 X28.181 Y111.551 E11.89422
G1 X28.46 Y110.969 E11.93141
G1 X28.809 Y110.426 E11.96861
G1 X29.222 Y109.931 E12.00576
G1 X29.694 Y109.49 E12.04298
G1 X30.216 Y109.111 E12.08015
G1 X30.781 Y108.799 E12.11734
G1 X31.38 Y108.56 E12.1545
G1 X32.005 Y108.397 E12.19172
G1 X32.863 Y108.301 E12.24147
G1 X146.293 Y108.29 E18.77767
G1 X147.066 Y108.301 E18.82222
M204 S5000
G0 X147.072 Y107.881
M204 S3000
G1 X147.741 Y107.93 E18.86087
G1 X148.399 Y108.059 E18.89951
G1 X149.037 Y108.265 E18.93814
G1 X149.647 Y108.546 E18.97684
G1 X150.218 Y108.897 E19.01546
G1 X150.744 Y109.313 E19.05411
G1 X151.217 Y109.79 E19.09281
G1 X151.629 Y110.319 E19.13145
G1 X151.976 Y110.893 E19.1701
G1 X152.252 Y111.504 E19.20873
G1 X152.453 Y112.144 E19.24739
G1 X152.577 Y112.804 E19.28609
G1 X152.619 Y113.352 E19.31776
G1 X152.63 Y125.762 E20.03286
G1 X152.609 Y127.292 E20.12103
G1 X152.571 Y128.678 E20.20093
G1 X152.571 Y131.342 E20.35444
G1 X152.602 Y132.78 E20.43732
G1 X152.628 Y133.664 E20.48828
G1 X152.63 Y145.834 E21.18955
G1 X152.621 Y146.561 E21.23145
G1 X152.572 Y147.23 E21.2701
G1 X152.445 Y147.888 E21.30872
G1 X152.24 Y148.527 E21.34739
G1 X151.96 Y149.137 E21.38606
G1 X151.61 Y149.709 E21.4247
G1 X151.195 Y150.236 E21.46336
G1 X150.72 Y150.709 E21.50198
G1 X150.191 Y151.123 E21.54069
G1 X149.618 Y151.471 E21.57932
G1 X149.007 Y151.748 E21.61798
G1 X148.367 Y151.95 E21.65665
G1 X147.708 Y152.075 E21.6953
G1 X147.149 Y152.119 E21.72761
G1 X33.634 Y152.13 E28.26871
G1 X32.936 Y152.121 E28.30893
G1 X32.267 Y152.072 E28.34759
G1 X31.609 Y151.944 E28.38621
G1 X30.97 Y151.739 E28.42488
G1 X30.36 Y151.459 E28.46356
G1 X29.788 Y151.109 E28.5022
G1 X29.262 Y150.693 E28.54084
G1 X28.789 Y150.218 E28.57947
G1 X28.376 Y149.689 E28.61814
G1 X28.028 Y149.115 E28.65682
G1 X27.751 Y148.504 E28.69548
G1 X27.549 Y147.865 E28.7341
G1 X27.425 Y147.205 E28.77279
G1 X27.381 Y146.643 E28.80528
G1 X27.37 Y134.207 E29.52188
G1 X27.391 Y132.707 E29.60832
G1 X27.429 Y131.322 E29.68816
G1 X27.429 Y128.658 E29.84167
G1 X27.397 Y127.175 E29.92714
G1 X27.372 Y126.336 E29.97551
G1 X27.37 Y114.174 E30.67632
G1 X27.38 Y113.433 E30.71903
G1 X27.429 Y112.764 E30.75768
G1 X27.557 Y112.105 E30.79636
G1 X27.762 Y111.467 E30.83498
G1 X28.043 Y110.857 E30.87368
G1 X28.393 Y110.285 E30.91232
G1 X28.809 Y109.759 E30.95096
G1 X29.285 Y109.286 E30.98963
G1 X29.814 Y108.873 E31.0283
G1 X30.388 Y108.526 E31.06695
G1 X30.999 Y108.25 E31.10559
G1 X31.639 Y108.048 E31.14426
G1 X32.298 Y107.924 E31.1829
G1 X32.851 Y107.881 E31.21486
G1 X146.293 Y107.87 E37.75175
G1 X147.072 Y107.881 E37.79664
M204 S5000
G1 F2700 E24.79664
;MESH:ozonotapa3pita.stl
G0 F1200 X146.556 Y112.835
G0 X146.556 Y113.944
G0 X75.033 Y117.542
G0 X74.306 Y122.458
G0 X38.45 Y123.05
M204 S3000
;TYPE:WALL-INNER
G1 F2100 E37.79664
G1 F1200 X141.55 Y123.05 E43.73759
G1 X141.55 Y116.95 E44.08909
G1 X38.45 Y116.95 E50.03004
G1 X38.45 Y123.05 E50.38155
M204 S5000
G0 X34.05 Y125.45
M204 S3000
G1 X34.05 Y114.55 E51.00964
G1 X145.95 Y114.55 E57.45767
G1 X145.95 Y125.45 E58.08577
G1 X34.05 Y125.45 E64.5338
M204 S5000
G0 X33.63 Y125.87
M204 S3000
G1 X33.63 Y114.13 E65.2103
G1 X146.37 Y114.13 E71.70673
G1 X146.37 Y125.87 E72.38323
G1 X33.63 Y125.87 E78.87967
M204 S5000
G0 X38.87 Y117.37
M204 S3000
G1 X38.87 Y122.63 E79.18277
G1 X141.13 Y122.63 E85.07531
G1 X141.13 Y117.37 E85.37841
G1 X38.87 Y117.37 E91.27096
M204 S5000
G0 X38.97 Y122.21
G0 X39.29 Y122.21
M204 S3000
;TYPE:WALL-OUTER
G1 X40.21 Y122.21 E91.32397
G1 X40.21 Y117.79 E91.57867
G1 X39.29 Y117.79 E91.63168
G1 X39.29 Y122.21 E91.88637
M204 S5000
G0 X39.49 Y122.21
G0 X39.49 Y122.53
G0 X40.893 Y122.21
G0 X40.993 Y122.21
M204 S3000
G1 X41.913 Y122.21 E91.93939
G1 X41.913 Y117.79 E92.19408
G1 X40.993 Y117.79 E92.24709
G1 X40.993 Y122.21 E92.50179
M204 S5000
G0 X41.193 Y122.21
G0 X40.893 Y122.21
G0 X41.843 Y122.458
G0 X42.697 Y122.21
M204 S3000
G1 X43.617 Y122.21 E92.5548
G1 X43.617 Y117.79 E92.8095
G1 X42.697 Y117.79 E92.86251
G1 X42.697 Y122.21 E93.1172
M204 S5000
G0 X42.897 Y122.21
G0 X42.597 Y122.21
G0 X43.547 Y122.458
G0 X44.4 Y122.21
M204 S3000
G1 X45.32 Y122.21 E93.17022
G1 X45.32 Y117.79 E93.42491
G1 X44.4 Y117.79 E93.47793
G1 X44.4 Y122.21 E93.73262
M204 S5000
G0 X44.6 Y122.21
G0 X44.3 Y122.21
G0 X45.25 Y122.458
G0 X46.104 Y122.21
M204 S3000
G1 X47.024 Y122.21 E93.78563
G1 X47.024 Y117.79 E94.04033
G1 X46.104 Y117.79 E94.09334
G1 X46.104 Y122.21 E94.34804
M204 S5000
G0 X46.304 Y122.21
G0 X46.004 Y122.21
G0 X46.954 Y122.458
G0 X47.807 Y122.21
M204 S3000
G1 X48.727 Y122.21 E94.40105
G1 X48.727 Y117.79 E94.65574
G1 X47.807 Y117.79 E94.70876
G1 X47.807 Y122.21 E94.96345
M204 S5000
G0 X48.007 Y122.21
G0 X47.707 Y122.21
G0 X48.657 Y122.458
G0 X49.51 Y122.21
M204 S3000
G1 X50.43 Y122.21 E95.01646
G1 X50.43 Y117.79 E95.27116
G1 X49.51 Y117.79 E95.32417
G1 X49.51 Y122.21 E95.57887
M204 S5000
G0 X49.71 Y122.21
G0 X49.41 Y122.21
G0 X50.36 Y122.458
G0 X51.214 Y122.21
M204 S3000
G1 X52.134 Y122.21 E95.63188
G1 X52.134 Y117.79 E95.88657
G1 X51.214 Y117.79 E95.93959
G1 X51.214 Y122.21 E96.19428
M204 S5000
G0 X51.414 Y122.21
G0 X51.114 Y122.21
G0 X52.064 Y122.458
G0 X52.917 Y122.21
M204 S3000
G1 X53.837 Y122.21 E96.2473
G1 X53.837 Y117.79 E96.50199
G1 X52.917 Y117.79 E96.555
G1 X52.917 Y122.21 E96.8097
M204 S5000
G0 X53.117 Y122.21
G0 X52.817 Y122.21
G0 X53.767 Y122.458
G0 X54.621 Y122.21
M204 S3000
G1 X55.541 Y122.21 E96.86271
G1 X55.541 Y117.79 E97.11741
G1 X54.621 Y117.79 E97.17042
G1 X54.621 Y122.21 E97.42511
M204 S5000
G0 X54.821 Y122.21
G0 X54.521 Y122.21
G0 X55.471 Y122.458
G0 X56.324 Y122.21
M204 S3000
G1 X57.244 Y122.21 E97.47813
G1 X57.244 Y117.79 E97.73282
G1 X56.324 Y117.79 E97.78583
G1 X56.324 Y122.21 E98.04053
M204 S5000
G0 X56.524 Y122.21
G0 X56.224 Y122.21
G0 X57.174 Y122.458
G0 X58.027 Y122.21
M204 S3000
G1 X58.947 Y122.21 E98.09354
G1 X58.947 Y117.79 E98.34824
G1 X58.027 Y117.79 E98.40125
G1 X58.027 Y122.21 E98.65594
M204 S5000
G0 X58.227 Y122.21
G0 X57.927 Y122.21
G0 X58.877 Y122.458
G0 X59.731 Y122.21
M204 S3000
G1 X60.651 Y122.21 E98.70896
G1 X60.651 Y117.79 E98.96365
G1 X59.731 Y117.79 E99.01667
G1 X59.731 Y122.21 E99.27136
M204 S5000
G0 X59.931 Y122.21
G0 X59.631 Y122.21
G0 X60.581 Y122.458
G0 X61.434 Y122.21
M204 S3000
G1 X62.354 Y122.21 E99.32437
G1 X62.354 Y117.79 E99.57907
G1 X61.434 Y117.79 E99.63208
G1 X61.434 Y122.21 E99.88678
M204 S5000
G0 X61.634 Y122.21
G0 X61.334 Y122.21
G0 X62.284 Y122.458
G0 X63.137 Y122.21
M204 S3000
G1 X64.057 Y122.21 E99.93979
G1 X64.057 Y117.79 E100.19448
G1 X63.137 Y117.79 E100.2475
G1 X63.137 Y122.21 E100.50219
M204 S5000
G0 X63.337 Y122.21
G0 X63.037 Y122.21
G0 X63.987 Y122.458
G0 X64.841 Y122.21
M204 S3000
G1 X65.761 Y122.21 E100.5552
G1 X65.761 Y117.79 E100.8099
G1 X64.841 Y117.79 E100.86291
G1 X64.841 Y122.21 E101.11761
M204 S5000
G0 X65.041 Y122.21
G0 X64.741 Y122.21
G0 X65.691 Y122.458
G0 X66.544 Y122.21
M204 S3000
G1 X67.464 Y122.21 E101.17062
G1 X67.464 Y117.79 E101.42531
G1 X66.544 Y117.79 E101.47833
G1 X66.544 Y122.21 E101.73302
M204 S5000
G0 X66.744 Y122.21
G0 X66.444 Y122.21
G0 X67.394 Y122.458
G0 X68.248 Y122.21
M204 S3000
G1 X69.168 Y122.21 E101.78604
G1 X69.168 Y117.79 E102.04073
G1 X68.248 Y117.79 E102.09374
G1 X68.248 Y122.21 E102.34844
M204 S5000
G0 X68.448 Y122.21
G0 X68.148 Y122.21
G0 X69.098 Y122.458
G0 X69.951 Y122.21
M204 S3000
G1 X70.871 Y122.21 E102.40145
G1 X70.871 Y117.79 E102.65615
G1 X69.951 Y117.79 E102.70916
G1 X69.951 Y122.21 E102.96385
M204 S5000
G0 X70.151 Y122.21
G0 X69.851 Y122.21
G0 X70.801 Y122.458
G0 X71.654 Y122.21
M204 S3000
G1 X72.574 Y122.21 E103.01687
G1 X72.574 Y117.79 E103.27156
G1 X71.654 Y117.79 E103.32458
G1 X71.654 Y122.21 E103.57927
M204 S5000
G0 X71.854 Y122.21
G0 X71.554 Y122.21
G0 X72.504 Y122.458
G0 X73.358 Y122.21
M204 S3000
G1 X74.278 Y122.21 E103.63228
G1 X74.278 Y117.79 E103.88698
G1 X73.358 Y117.79 E103.93999
G1 X73.358 Y122.21 E104.19469
M204 S5000
G0 X73.558 Y122.21
G0 X73.258 Y122.21
G0 X74.208 Y122.458
G0 X75.061 Y122.21
M204 S3000
G1 X75.981 Y122.21 E104.2477
G1 X75.981 Y117.79 E104.50239
G1 X75.061 Y117.79 E104.55541
G1 X75.061 Y122.21 E104.8101
M204 S5000
G0 X75.261 Y122.21
G0 X74.961 Y122.21
G0 X75.911 Y122.458
G0 X76.765 Y122.21
M204 S3000
G1 X77.685 Y122.21 E104.86311
G1 X77.685 Y117.79 E105.11781
G1 X76.765 Y117.79 E105.17082
G1 X76.765 Y122.21 E105.42552
M204 S5000
G0 X76.965 Y122.21
G0 X76.665 Y122.21
G0 X77.615 Y122.458
G0 X78.468 Y122.21
M204 S3000
G1 X79.388 Y122.21 E105.47853
G1 X79.388 Y117.79 E105.73322
G1 X78.468 Y117.79 E105.78624
G1 X78.468 Y122.21 E106.04093
M204 S5000
G0 X78.668 Y122.21
G0 X78.368 Y122.21
G0 X79.318 Y122.458
G0 X80.171 Y122.21
M204 S3000
G1 X81.091 Y122.21 E106.09395
G1 X81.091 Y117.79 E106.34864
G1 X80.171 Y117.79 E106.40165
G1 X80.171 Y122.21 E106.65635
M204 S5000
G0 X80.371 Y122.21
G0 X80.071 Y122.21
G0 X81.021 Y122.458
G0 X81.875 Y122.21
M204 S3000
G1 X82.795 Y122.21 E106.70936
G1 X82.795 Y117.79 E106.96406
G1 X81.875 Y117.79 E107.01707
G1 X81.875 Y122.21 E107.27176
M204 S5000
G0 X82.075 Y122.21
G0 X81.775 Y122.21
G0 X82.725 Y122.458
G0 X83.578 Y122.21
M204 S3000
G1 X84.498 Y122.21 E107.32478
G1 X84.498 Y117.79 E107.57947
G1 X83.578 Y117.79 E107.63248
G1 X83.578 Y122.21 E107.88718
M204 S5000
G0 X83.778 Y122.21
G0 X83.478 Y122.21
G0 X84.428 Y122.458
G0 X85.282 Y122.21
M204 S3000
G1 X86.202 Y122.21 E107.94019
G1 X86.202 Y117.79 E108.19489
G1 X85.282 Y117.79 E108.2479
G1 X85.282 Y122.21 E108.50259
M204 S5000
G0 X85.482 Y122.21
G0 X85.182 Y122.21
G0 X86.132 Y122.458
G0 X86.985 Y122.21
M204 S3000
G1 X87.905 Y122.21 E108.55561
G1 X87.905 Y117.79 E108.8103
G1 X86.985 Y117.79 E108.86332
G1 X86.985 Y122.21 E109.11801
M204 S5000
G0 X87.185 Y122.21
G0 X86.885 Y122.21
G0 X87.835 Y122.458
G0 X88.688 Y122.21
M204 S3000
G1 X89.608 Y122.21 E109.17102
G1 X89.608 Y117.79 E109.42572
G1 X88.688 Y117.79 E109.47873
G1 X88.688 Y122.21 E109.73343
M204 S5000
G0 X88.888 Y122.21
G0 X88.588 Y122.21
G0 X89.538 Y122.458
G0 X90.392 Y122.21
M204 S3000
G1 X91.312 Y122.21 E109.78644
G1 X91.312 Y117.79 E110.04113
G1 X90.392 Y117.79 E110.09415
G1 X90.392 Y122.21 E110.34884
M204 S5000
G0 X90.592 Y122.21
G0 X90.292 Y122.21
G0 X91.242 Y122.458
G0 X92.095 Y122.21
M204 S3000
G1 X93.015 Y122.21 E110.40185
G1 X93.015 Y117.79 E110.65655
G1 X92.095 Y117.79 E110.70956
G1 X92.095 Y122.21 E110.96426
M204 S5000
G0 X92.295 Y122.21
G0 X91.995 Y122.21
G0 X92.945 Y122.458
G0 X93.798 Y122.21
M204 S3000
G1 X94.718 Y122.21 E111.01727
G1 X94.718 Y117.79 E111.27196
G1 X93.798 Y117.79 E111.32498
G1 X93.798 Y122.21 E111.57967
M204 S5000
G0 X93.998 Y122.21
G0 X93.698 Y122.21
G0 X94.648 Y122.458
G0 X95.502 Y122.21
M204 S3000
G1 X96.422 Y122.21 E111.63269
G1 X96.422 Y117.79 E111.88738
G1 X95.502 Y117.79 E111.94039
G1 X95.502 Y122.21 E112.19509
M204 S5000
G0 X95.702 Y122.21
G0 X95.402 Y122.21
G0 X96.352 Y122.458
G0 X97.205 Y122.21
M204 S3000
G1 X98.125 Y122.21 E112.2481
G1 X98.125 Y117.79 E112.5028
G1 X97.205 Y117.79 E112.55581
G1 X97.205 Y122.21 E112.8105
M204 S5000
G0 X97.405 Y122.21
G0 X97.105 Y122.21
G0 X98.055 Y122.458
G0 X98.909 Y122.21
M204 S3000
G1 X99.829 Y122.21 E112.86352
G1 X99.829 Y117.79 E113.11821
G1 X98.909 Y117.79 E113.17122
G1 X98.909 Y122.21 E113.42592
M204 S5000
G0 X99.109 Y122.21
G0 X98.809 Y122.21
G0 X99.759 Y122.458
G0 X100.612 Y122.21
M204 S3000
G1 X101.532 Y122.21 E113.47893
G1 X101.532 Y117.79 E113.73363
G1 X100.612 Y117.79 E113.78664
G1 X100.612 Y122.21 E114.04133
M204 S5000
G0 X100.812 Y122.21
G0 X100.512 Y122.21
G0 X101.462 Y122.458
G0 X102.315 Y122.21
M204 S3000
G1 X103.235 Y122.21 E114.09435
G1 X103.235 Y117.79 E114.34904
G1 X102.315 Y117.79 E114.40206
G1 X102.315 Y122.21 E114.65675
M204 S5000
G0 X102.515 Y122.21
G0 X102.215 Y122.21
G0 X103.165 Y122.458
G0 X104.019 Y122.21
M204 S3000
G1 X104.939 Y122.21 E114.70976
G1 X104.939 Y117.79 E114.96446
G1 X104.019 Y117.79 E115.01747
G1 X104.019 Y122.21 E115.27217
M204 S5000
G0 X104.219 Y122.21
G0 X103.919 Y122.21
G0 X104.869 Y122.458
G0 X105.722 Y122.21
M204 S3000
G1 X106.642 Y122.21 E115.32518
G1 X106.642 Y117.79 E115.57987
G1 X105.722 Y117.79 E115.63289
G1 X105.722 Y122.21 E115.88758
M204 S5000
G0 X105.922 Y122.21
G0 X105.622 Y122.21
G0 X106.572 Y122.458
G0 X107.426 Y122.21
M204 S3000
G1 X108.346 Y122.21 E115.94059
G1 X108.346 Y117.79 E116.19529
G1 X107.426 Y117.79 E116.2483
G1 X107.426 Y122.21 E116.503
M204 S5000
G0 X107.626 Y122.21
G0 X107.326 Y122.21
G0 X108.276 Y122.458
G0 X109.129 Y122.21
M204 S3000
G1 X110.049 Y122.21 E116.55601
G1 X110.049 Y117.79 E116.81071
G1 X109.129 Y117.79 E116.86372
G1 X109.129 Y122.21 E117.11841
M204 S5000
G0 X109.329 Y122.21
G0 X109.029 Y122.21
G0 X109.979 Y122.458
G0 X110.832 Y122.21
M204 S3000
G1 X111.752 Y122.21 E117.17143
G1 X111.752 Y117.79 E117.42612
G1 X110.832 Y117.79 E117.47913
G1 X110.832 Y122.21 E117.73383
M204 S5000
G0 X111.032 Y122.21
G0 X110.732 Y122.21
G0 X111.682 Y122.458
G0 X112.536 Y122.21
M204 S3000
G1 X113.456 Y122.21 E117.78684
G1 X113.456 Y117.79 E118.04154
G1 X112.536 Y117.79 E118.09455
G1 X112.536 Y122.21 E118.34924
M204 S5000
G0 X112.736 Y122.21
G0 X112.436 Y122.21
G0 X113.386 Y122.458
G0 X114.239 Y122.21
M204 S3000
G1 X115.159 Y122.21 E118.40226
G1 X115.159 Y117.79 E118.65695
G1 X114.239 Y117.79 E118.70997
G1 X114.239 Y122.21 E118.96466
M204 S5000
G0 X114.439 Y122.21
G0 X114.139 Y122.21
G0 X115.089 Y122.458
G0 X115.943 Y122.21
M204 S3000
G1 X116.863 Y122.21 E119.01767
G1 X116.863 Y117.79 E119.27237
G1 X115.943 Y117.79 E119.32538
G1 X115.943 Y122.21 E119.58008
M204 S5000
G0 X116.143 Y122.21
G0 X115.843 Y122.21
G0 X116.793 Y122.458
G0 X117.646 Y122.21
M204 S3000
G1 X118.566 Y122.21 E119.63309
G1 X118.566 Y117.79 E119.88778
G1 X117.646 Y117.79 E119.9408
G1 X117.646 Y122.21 E120.19549
M204 S5000
G0 X117.846 Y122.21
G0 X117.546 Y122.21
G0 X118.496 Y122.458
G0 X119.349 Y122.21
M204 S3000
G1 X120.269 Y122.21 E120.2485
G1 X120.269 Y117.79 E120.5032
G1 X119.349 Y117.79 E120.55621
G1 X119.349 Y122.21 E120.81091
M204 S5000
G0 X119.549 Y122.21
