;FLAVOR:Marlin
;TIME:9634
;Filament used: 6.52237m
;Layer height: 0.2
;MINX:49.612
;MINY:73.598
;MINZ:0.3
;MAXX:130.388
;MAXY:167.018
;MAXZ:4.3
;Generated with Cura_SteamEngine 4.6.2
M140 S70
M105
M190 S70
M104 S237
M105
M109 S237
M82 ;absolute extrusion mode
G28 ;Home
G1 Z15.0 F6000 ;Move the platform down 15mm
G92 E0
G1 F200 E3
G92 E0
G92 E0
G92 E0
G1 F2700 E-13
;LAYER_COUNT:21
;LAYER:0
M107
G0 F1200 X118.338 Y74.045 Z0.3
;TYPE:SKIRT
G1 F2100 E0
G1 F1200 X119.136 Y74.103 E0.0461
G1 X119.826 Y74.203 E0.08628
G1 X120.377 Y74.31 E0.11862
G1 X121.318 Y74.555 E0.17465
G1 X122.185 Y74.855 E0.22752
G1 X123.092 Y75.249 E0.2845
G1 X123.952 Y75.709 E0.3407
G1 X124.713 Y76.197 E0.3928
G1 X125.452 Y76.75 E0.44598
G1 X126.164 Y77.375 E0.50057
G1 X126.815 Y78.044 E0.55436
G1 X127.26 Y78.564 E0.5938
G1 X127.674 Y79.111 E0.63333
G1 X127.972 Y79.545 E0.66367
G1 X128.465 Y80.371 E0.7191
G1 X128.897 Y81.244 E0.77522
G1 X129.258 Y82.149 E0.83137
G1 X129.534 Y83.037 E0.88495
G1 X129.74 Y83.929 E0.93771
G1 X129.884 Y84.905 E0.99456
G1 X129.954 Y86.005 E1.05807
G1 X129.965 Y86.605 E1.09265
G1 X129.968 Y148.692 E4.6703
G1 X129.967 Y159.718 E5.30565
G1 X129.956 Y160.511 E5.35135
G1 X129.908 Y161.155 E5.38856
G1 X129.78 Y161.787 E5.42572
G1 X129.574 Y162.399 E5.46293
G1 X129.295 Y162.981 E5.50012
G1 X128.946 Y163.523 E5.53727
G1 X128.431 Y164.123 E5.58283
G1 X127.804 Y164.693 E5.63166
G1 X127.272 Y165.057 E5.6688
G1 X126.698 Y165.353 E5.70602
G1 X126.092 Y165.575 E5.74321
G1 X125.463 Y165.721 E5.78042
G1 X124.807 Y165.788 E5.81841
G1 X124.011 Y165.819 E5.86432
G1 X122.343 Y165.86 E5.96046
G1 X120.519 Y165.948 E6.06569
G1 X119.02 Y165.981 E6.15209
G1 X117.886 Y165.982 E6.21743
G1 X117.113 Y165.971 E6.26198
G1 X112.868 Y165.608 E6.50748
G1 X110.154 Y165.455 E6.66412
G1 X107.484 Y165.38 E6.81803
G1 X104.808 Y165.38 E6.97223
G1 X102.132 Y165.457 E7.1265
G1 X99.426 Y165.61 E7.28267
G1 X96.797 Y165.834 E7.43471
G1 X94.113 Y166.14 E7.59038
G1 X91.324 Y166.538 E7.75272
G1 X90.67 Y166.589 E7.79052
G1 X90.103 Y166.598 E7.82319
G1 X89.524 Y166.592 E7.85656
G1 X88.963 Y166.561 E7.88893
G1 X88.261 Y166.481 E7.92965
G1 X86.049 Y166.161 E8.05844
G1 X83.403 Y165.855 E8.21192
G1 X80.734 Y165.622 E8.36631
G1 X78.063 Y165.465 E8.52048
G1 X75.356 Y165.383 E8.67654
G1 X72.68 Y165.377 E8.83074
G1 X70.008 Y165.447 E8.98476
G1 X67.335 Y165.593 E9.13902
G1 X64.658 Y165.815 E9.2938
G1 X64.129 Y165.873 E9.32447
G1 X63.31 Y165.95 E9.37187
G1 X62.338 Y165.981 E9.42791
G1 X60.729 Y165.983 E9.52063
G1 X59.986 Y165.974 E9.56344
G1 X59.037 Y165.935 E9.61817
G1 X57.788 Y165.866 E9.69025
G1 X55.386 Y165.798 E9.82872
G1 X54.525 Y165.72 E9.87854
G1 X53.897 Y165.573 E9.9157
G1 X53.292 Y165.349 E9.95288
G1 X52.719 Y165.052 E9.99007
G1 X52.187 Y164.687 E10.02724
G1 X51.74 Y164.294 E10.06154
G1 X51.166 Y163.672 E10.11031
G1 X50.799 Y163.142 E10.14746
G1 X50.499 Y162.57 E10.18468
G1 X50.273 Y161.966 E10.22184
G1 X50.123 Y161.339 E10.25899
G1 X50.046 Y160.547 E10.30484
G1 X50.034 Y159.947 E10.33942
G1 X50.032 Y97.956 E13.91154
G1 X50.033 Y87.136 E14.53502
G1 X50.06 Y85.653 E14.62049
G1 X50.113 Y84.896 E14.66422
G1 X50.227 Y84.098 E14.71067
G1 X50.333 Y83.568 E14.74182
G1 X50.571 Y82.665 E14.79563
G1 X50.89 Y81.747 E14.85163
G1 X51.266 Y80.888 E14.90566
G1 X51.728 Y80.028 E14.96191
G1 X52.233 Y79.242 E15.01575
G1 X52.789 Y78.504 E15.06899
G1 X53.408 Y77.803 E15.12288
G1 X54.065 Y77.166 E15.17561
G1 X54.579 Y76.726 E15.2146
G1 X55.157 Y76.288 E15.25639
G1 X55.575 Y76.003 E15.28554
G1 X56.38 Y75.523 E15.33955
G1 X56.867 Y75.27 E15.37117
G1 X57.335 Y75.054 E15.40087
G1 X58.115 Y74.745 E15.44922
G1 X58.803 Y74.519 E15.49095
G1 X59.448 Y74.351 E15.52935
G1 X59.993 Y74.237 E15.56144
G1 X60.917 Y74.101 E15.61526
G1 X62.036 Y74.031 E15.67986
G1 X62.627 Y74.02 E15.71392
G1 X116.846 Y74.018 E18.83819
G1 X118.338 Y74.045 E18.92418
G0 X118.346 Y73.625
G1 X119.19 Y73.686 E18.97294
G1 X119.906 Y73.79 E19.01463
G1 X120.457 Y73.897 E19.04698
G1 X121.432 Y74.151 E19.10504
G1 X122.329 Y74.46 E19.1597
G1 X123.266 Y74.867 E19.21857
G1 X124.157 Y75.343 E19.27678
G1 X124.946 Y75.847 E19.33073
G1 X125.709 Y76.418 E19.38564
G1 X126.447 Y77.065 E19.4422
G1 X127.121 Y77.757 E19.49786
G1 X127.591 Y78.306 E19.53951
G1 X128.02 Y78.873 E19.58048
G1 X128.318 Y79.307 E19.61081
G1 X128.83 Y80.162 E19.66824
G1 X129.277 Y81.064 E19.72625
G1 X129.651 Y82 E19.78433
G1 X129.938 Y82.919 E19.83981
G1 X130.151 Y83.841 E19.89434
G1 X130.301 Y84.851 E19.95317
G1 X130.373 Y85.985 E20.01865
G1 X130.385 Y86.6 E20.05409
G1 X130.388 Y148.692 E23.63203
G1 X130.387 Y159.718 E24.26739
G1 X130.376 Y160.517 E24.31343
G1 X130.327 Y161.186 E24.35209
G1 X130.199 Y161.844 E24.39071
G1 X129.993 Y162.483 E24.4294
G1 X129.713 Y163.092 E24.46802
G1 X129.362 Y163.664 E24.50669
G1 X128.728 Y164.42 E24.56355
G1 X128.083 Y165.008 E24.61384
G1 X127.532 Y165.391 E24.65251
G1 X126.939 Y165.705 E24.69117
G1 X126.313 Y165.946 E24.72983
G1 X125.663 Y166.111 E24.76847
G1 X124.823 Y166.208 E24.8172
G1 X124.027 Y166.239 E24.8631
G1 X122.332 Y166.281 E24.9608
G1 X120.539 Y166.367 E25.06424
G1 X119.028 Y166.401 E25.15133
G1 X117.886 Y166.402 E25.21713
G1 X117.107 Y166.391 E25.26203
G1 X112.806 Y166.025 E25.51076
G1 X110.154 Y165.875 E25.66382
G1 X107.473 Y165.8 E25.81837
G1 X104.82 Y165.8 E25.97124
G1 X102.131 Y165.877 E26.12626
G1 X99.488 Y166.027 E26.2788
G1 X96.811 Y166.255 E26.43361
G1 X94.146 Y166.558 E26.58817
G1 X91.383 Y166.953 E26.749
G1 X90.676 Y167.009 E26.78987
G1 X90.109 Y167.018 E26.82254
G1 X89.518 Y167.012 E26.8566
G1 X88.934 Y166.98 E26.8903
G1 X88.208 Y166.898 E26.9324
G1 X86.01 Y166.58 E27.06038
G1 X83.354 Y166.273 E27.21444
G1 X80.673 Y166.039 E27.36952
G1 X78.027 Y165.883 E27.52226
G1 X75.377 Y165.803 E27.67503
G1 X72.69 Y165.797 E27.82986
G1 X70.04 Y165.867 E27.98262
G1 X67.36 Y166.013 E28.13727
G1 X64.697 Y166.234 E28.29125
G1 X64.174 Y166.291 E28.32157
G1 X63.349 Y166.368 E28.36931
G1 X62.345 Y166.401 E28.4272
G1 X60.73 Y166.403 E28.52026
G1 X59.98 Y166.393 E28.56348
G1 X59.019 Y166.355 E28.6189
G1 X57.787 Y166.286 E28.69
G1 X55.374 Y166.218 E28.8291
G1 X54.481 Y166.139 E28.88076
G1 X53.827 Y165.99 E28.91941
G1 X53.195 Y165.765 E28.95807
G1 X52.594 Y165.466 E28.99675
G1 X52.033 Y165.098 E29.03541
G1 X51.445 Y164.593 E29.08008
G1 X50.853 Y163.953 E29.13031
G1 X50.467 Y163.405 E29.16894
G1 X50.149 Y162.814 E29.20761
G1 X49.903 Y162.19 E29.24626
G1 X49.733 Y161.541 E29.28492
G1 X49.626 Y160.556 E29.34201
G1 X49.614 Y159.956 E29.37659
G1 X49.612 Y97.956 E32.94923
G1 X49.613 Y87.136 E33.57271
G1 X49.64 Y85.645 E33.65864
G1 X49.696 Y84.843 E33.70497
G1 X49.815 Y84.016 E33.75311
G1 X49.921 Y83.486 E33.78426
G1 X50.166 Y82.552 E33.8399
G1 X50.496 Y81.603 E33.8978
G1 X50.885 Y80.713 E33.95377
G1 X51.361 Y79.824 E34.01187
G1 X51.883 Y79.009 E34.06764
G1 X52.458 Y78.246 E34.1227
G1 X53.098 Y77.52 E34.17847
G1 X53.777 Y76.859 E34.23307
G1 X54.32 Y76.395 E34.27423
G1 X54.92 Y75.941 E34.31758
G1 X55.338 Y75.656 E34.34674
G1 X56.17 Y75.159 E34.40258
G1 X56.68 Y74.894 E34.4357
G1 X57.161 Y74.671 E34.46625
G1 X57.963 Y74.353 E34.51596
G1 X58.457 Y74.184 E34.54605
G1 X59.017 Y74.024 E34.57961
G1 X59.907 Y73.826 E34.63215
G1 X60.862 Y73.685 E34.68777
G1 X62.016 Y73.611 E34.75441
G1 X62.622 Y73.6 E34.78933
G1 X116.846 Y73.598 E37.91389
G1 X118.346 Y73.625 E38.00034
G1 F2700 E25.00034
;MESH:BASKET-OPTO.stl
G0 F1200 X119.587 Y82.479
G0 X119.063 Y83.744
G0 X120.529 Y86.284
G0 X120.628 Y86.277
;TYPE:WALL-INNER
G1 F2100 E38.00034
G1 F1200 X120.631 Y86.305 E38.00196
G1 X120.631 Y147.188 E41.51024
G1 X120.625 Y147.265 E41.51469
G1 X120.59 Y147.707 E41.54024
G1 X120.515 Y148.013 E41.55839
G1 X120.477 Y148.168 E41.56759
G1 X120.27 Y148.651 E41.59787
G1 X120.241 Y148.695 E41.6009
G1 X120.025 Y149.03 E41.62387
G1 X119.955 Y149.111 E41.63004
G1 X119.734 Y149.368 E41.64957
G1 X119.444 Y149.612 E41.67141
G1 X119.356 Y149.686 E41.67804
G1 X118.929 Y149.939 E41.70664
G1 X118.812 Y149.984 E41.71386
G1 X118.475 Y150.115 E41.73469
G1 X118.332 Y150.145 E41.74311
G1 X117.973 Y150.22 E41.76425
G1 X117.659 Y150.238 E41.78237
G1 X117.595 Y150.242 E41.78607
G1 X62.404 Y150.242 E44.96635
G1 X62.337 Y150.237 E44.97022
G1 X61.924 Y150.201 E44.99411
G1 X61.59 Y150.122 E45.01388
G1 X61.439 Y150.086 E45.02283
G1 X61.006 Y149.906 E45.04985
G1 X60.908 Y149.844 E45.05653
G1 X60.594 Y149.646 E45.07792
G1 X60.492 Y149.556 E45.08576
G1 X60.202 Y149.3 E45.10805
G1 X59.991 Y149.043 E45.12721
G1 X59.922 Y148.959 E45.13348
G1 X59.683 Y148.553 E45.16062
G1 X59.628 Y148.413 E45.16929
G1 X59.505 Y148.107 E45.1883
G1 X59.465 Y147.935 E45.19847
G1 X59.407 Y147.686 E45.2132
G1 X59.372 Y147.264 E45.2376
G1 X59.369 Y147.236 E45.23923
G1 X59.369 Y86.355 E48.74738
G1 X59.375 Y86.276 E48.75195
G1 X59.412 Y85.83 E48.77774
G1 X59.485 Y85.528 E48.79564
G1 X59.523 Y85.373 E48.80484
G1 X59.73 Y84.888 E48.83522
G1 X59.758 Y84.845 E48.83818
G1 X59.971 Y84.516 E48.86076
G1 X60.045 Y84.43 E48.8673
G1 X60.266 Y84.173 E48.88683
G1 X60.557 Y83.928 E48.90875
G1 X60.641 Y83.857 E48.91509
G1 X61.079 Y83.598 E48.94441
G1 X61.188 Y83.556 E48.95114
G1 X61.526 Y83.426 E48.97201
G1 X61.668 Y83.397 E48.98036
G1 X62.031 Y83.32 E49.00175
G1 X62.341 Y83.302 E49.01964
G1 X62.405 Y83.298 E49.02333
G1 X117.596 Y83.298 E52.20361
G1 X117.663 Y83.303 E52.20749
G1 X118.077 Y83.34 E52.23144
G1 X118.41 Y83.419 E52.25116
G1 X118.562 Y83.455 E52.26016
G1 X118.996 Y83.636 E52.28726
G1 X119.092 Y83.697 E52.29381
G1 X119.404 Y83.894 E52.31507
G1 X119.508 Y83.985 E52.32304
G1 X119.798 Y84.241 E52.34533
G1 X120.008 Y84.497 E52.36441
G1 X120.081 Y84.586 E52.37104
G1 X120.315 Y84.981 E52.39749
G1 X120.373 Y85.128 E52.4066
G1 X120.495 Y85.433 E52.42553
G1 X120.535 Y85.605 E52.4357
G1 X120.593 Y85.855 E52.45049
G1 X120.628 Y86.277 E52.47489
G0 X120.529 Y86.284
G0 X120.562 Y148.026
G0 X120.466 Y148.001
G1 X120.507 Y147.696 E52.47753
G1 X120.567 Y147.261 E52.48168
G1 X120.567 Y147.188 E52.48219
G1 X120.567 Y86.305 E53.01679
G1 X120.568 Y86.283 E53.01683
G1 X120.515 Y85.866 E53.02074
G1 X120.483 Y85.618 E53.02284
G1 X120.429 Y85.456 E53.02412
G1 X120.326 Y85.147 E53.0267
G1 X120.251 Y85.019 E53.02774
G1 X120.02 Y84.622 E53.03228
G1 X119.967 Y84.532 E53.03291
G1 X119.739 Y84.3 E53.03583
G1 X119.472 Y84.027 E53.0393
G1 X119.364 Y83.953 E53.04023
G1 X119.063 Y83.744 E53.04333
G1 X118.968 Y83.706 E53.04367
G1 X118.533 Y83.527 E53.0486
G1 X118.398 Y83.471 E53.04968
G1 X118.066 Y83.426 E53.05273
G1 X117.658 Y83.37 E53.05694
G1 X117.596 Y83.37 E53.05741
G1 X62.405 Y83.37 E53.6026
G1 X62.345 Y83.369 E53.60308
G1 X62.043 Y83.407 E53.60615
G1 X61.681 Y83.454 E53.60966
G1 X61.55 Y83.497 E53.61072
G1 X61.21 Y83.611 E53.61389
G1 X61.118 Y83.664 E53.61446
G1 X60.678 Y83.92 E53.61968
G1 X60.593 Y83.97 E53.62028
G1 X60.326 Y84.233 E53.62371
G1 X60.089 Y84.467 E53.62681
G1 X60.029 Y84.555 E53.62727
G1 X59.807 Y84.876 E53.63059
G1 X59.792 Y84.913
G1 X59.591 Y85.4 E53.63562
G1 X59.534 Y85.539 E53.63669
G1 X59.493 Y85.841 E53.63928
G1 X59.433 Y86.28 E53.64341
G1 X59.433 Y86.355 E53.64394
G1 X59.433 Y147.236 E54.17852
G1 X59.432 Y147.258 E54.17856
G1 X59.485 Y147.675 E54.18246
G1 X59.517 Y147.922 E54.18456
G1 X59.571 Y148.084 E54.18584
G1 X59.674 Y148.394 E54.18838
G1 X59.745 Y148.516 E54.18935
G1 X59.982 Y148.923 E54.19389
G1 X60.032 Y149.009 E54.1945
G1 X60.26 Y149.242 E54.19735
G1 X60.528 Y149.515 E54.20082
G1 X60.633 Y149.587 E54.2017
G1 X60.938 Y149.796 E54.20485
G1 X61.034 Y149.835 E54.20529
G1 X61.468 Y150.014 E54.21026
G1 X61.602 Y150.07 E54.21134
G1 X61.935 Y150.115 E54.2144
G1 X62.342 Y150.171 E54.21856
G1 X62.404 Y150.171
G1 X117.595 Y150.171 E54.75618
G1 X117.655 Y150.172 E54.75665
G1 X117.961 Y150.133 E54.75975
G1 X118.319 Y150.087 E54.7632
G1 X118.451 Y150.043 E54.76433
G1 X118.79 Y149.93 E54.76749
G1 X118.889 Y149.872 E54.7683
G1 X119.318 Y149.622 E54.77347
G1 X119.407 Y149.57 E54.77412
G1 X119.674 Y149.308 E54.77759
G1 X119.911 Y149.074 E54.78069
G1 X119.968 Y148.991 E54.78077
G1 X120.193 Y148.665 E54.78412
G1 X120.208 Y148.627
G1 X120.408 Y148.14 E54.78925
G1 X120.466 Y148.001 E54.79031
G0 X120.562 Y148.026
G0 X119.993 Y149.007
G0 X119.333 Y149.654
G0 X118.464 Y150.077
G0 X117.594 Y150.203
G0 X62.405 Y150.203
G0 X61.712 Y149.661
;TYPE:WALL-OUTER
G1 X62.371 Y149.751 E54.82864
G1 X117.628 Y149.752 E58.01272
G1 X118.225 Y149.676 E58.0474
G1 X118.616 Y149.545 E58.07116
G1 X119.15 Y149.234 E58.10677
G1 X119.588 Y148.803 E58.14218
G1 X119.822 Y148.464 E58.16591
G1 X120.057 Y147.891 E58.2016
G1 X120.147 Y147.232 E58.23993
G1 X120.148 Y86.31 E61.75045
G1 X120.072 Y85.712 E61.78518
G1 X119.941 Y85.321 E61.80895
G1 X119.631 Y84.789 E61.84443
G1 X119.2 Y84.35 E61.87988
G1 X118.861 Y84.115 E61.90364
G1 X118.288 Y83.88 E61.93933
G1 X117.629 Y83.79 E61.97766
G1 X62.372 Y83.789 E65.16174
G1 X61.775 Y83.865 E65.19642
G1 X61.384 Y83.996 E65.22018
G1 X60.85 Y84.306 E65.25576
G1 X60.412 Y84.738 E65.29121
G1 X60.178 Y85.077 E65.31495
G1 X59.943 Y85.649 E65.35058
G1 X59.853 Y86.309 E65.38897
G1 X59.852 Y147.231 E68.89948
G1 X59.928 Y147.828 E68.93416
G1 X60.059 Y148.22 E68.95798
G1 X60.369 Y148.752 E68.99346
G1 X60.8 Y149.192 E69.02895
G1 X61.139 Y149.425 E69.05265
G1 X61.712 Y149.661 E69.08836
G0 X61.91 Y149.688
G0 X61.84 Y150.203
G0 X118.532 Y83.55
G0 X118.69 Y83.053
G1 X119.192 Y83.262 E69.1197
G1 X119.656 Y83.556 E69.15135
G1 X120.101 Y83.948 E69.18552
G1 X120.425 Y84.343 E69.21496
G1 X120.693 Y84.796 E69.24529
G1 X120.897 Y85.309 E69.2771
G1 X121.008 Y85.787 E69.30538
G1 X121.051 Y86.294 E69.3347
G1 X121.051 Y147.208 E72.84476
G1 X121.006 Y147.773 E72.87742
G1 X120.877 Y148.3 E72.90868
G1 X120.641 Y148.851 E72.94322
G1 X120.361 Y149.284 E72.97294
G1 X120.032 Y149.667 E73.00203
G1 X119.602 Y150.028 E73.03438
G1 X119.109 Y150.32 E73.0674
G1 X118.598 Y150.518 E73.09898
G1 X118.03 Y150.637 E73.13242
G1 X117.603 Y150.662 E73.15707
G1 X62.391 Y150.662 E76.33856
G1 X61.852 Y150.616 E76.36973
G1 X61.311 Y150.488 E76.40176
G1 X60.814 Y150.281 E76.43279
G1 X60.34 Y149.982 E76.46508
G1 X59.899 Y149.593 E76.49897
G1 X59.575 Y149.198 E76.5284
G1 X59.307 Y148.744 E76.55878
G1 X59.103 Y148.232 E76.59054
G1 X58.992 Y147.754 E76.61882
G1 X58.949 Y147.247 E76.64814
G1 X58.949 Y86.333 E80.1582
G1 X58.995 Y85.766 E80.19098
G1 X59.123 Y85.24 E80.22217
G1 X59.357 Y84.692 E80.25651
G1 X59.639 Y84.257 E80.28638
G1 X59.968 Y83.874 E80.31547
G1 X60.399 Y83.512 E80.34791
G1 X60.893 Y83.22 E80.38097
G1 X61.405 Y83.022 E80.41261
G1 X61.974 Y82.903 E80.4461
G1 X62.397 Y82.878 E80.47052
G1 X117.609 Y82.878 E83.65201
G1 X118.149 Y82.925 E83.68325
G1 X118.69 Y83.053 E83.71528
G0 X118.874 Y83.129
G1 F2700 E70.71528
G0 F1200 X118.673 Y83.609
G0 X117.658 Y83.37
G0 X117.566 Y84.927
G0 X117.076 Y85.118
;TYPE:WALL-INNER
G1 F2100 E83.71528
G1 F1200 X116.336 Y84.93 E83.75928
G1 X117.072 Y84.917 E83.76912
G1 X117.485 Y84.91 E83.79292
G1 X117.567 Y84.908 E83.79765
G1 X118.014 Y84.973 E83.82368
G1 X118.374 Y85.137 E83.84647
G1 X118.679 Y85.401 E83.86972
G1 X118.896 Y85.738 E83.89281
G1 X119.008 Y86.123 E83.91592
G1 X119.008 Y86.411 E83.93251
G1 X119.008 Y86.576 E83.94202
G1 X119.01 Y87.287 E83.98299
G1 X119.012 Y87.808 E84.01301
G1 X118.95 Y87.288 E84.01528
G1 X118.69 Y86.577 E84.036
G1 X118.597 Y86.441 E84.04439
G1 X118.262 Y85.949 E84.07868
G1 X117.741 Y85.481 E84.11904
G1 X117.438 Y85.316 E84.13892
G1 X117.076 Y85.118 E84.15669
G0 X117.112 Y85.025
G0 X64.03 Y85.291
G0 X62.935 Y85.545
G0 X61.254 Y86.523
G0 X61.34 Y86.57
G1 X61.34 Y86.571 E84.15675
G1 X61.181 Y86.862 E84.17586
G1 X60.992 Y87.601 E84.21981
G1 X60.98 Y86.866 E84.22964
G1 X60.971 Y86.371 E84.25213
G1 X60.971 Y86.37 E84.25219
G1 X61.036 Y85.923 E84.27822
G1 X61.201 Y85.56 E84.3012
G1 X61.462 Y85.259 E84.32415
G1 X61.801 Y85.041 E84.34738
G1 X62.184 Y84.929 E84.37037
G1 X62.476 Y84.928 E84.3872
G1 X62.639 Y84.928 E84.39659
G1 X63.35 Y84.927 E84.43756
G1 X63.881 Y84.925 E84.46816
G1 X63.351 Y84.987 E84.47046
G1 X62.64 Y85.248 E84.49129
G1 X62.506 Y85.339 E84.49956
G1 X62.013 Y85.674 E84.5339
G1 X61.544 Y86.196 E84.57434
G1 X61.34 Y86.57 E84.59889
G0 X61.254 Y86.523
G0 X61.353 Y145.573
G0 X61.607 Y146.669
G0 X62.888 Y148.516
