;FLAVOR:Marlin
;TIME:7089
;Filament used: 7.62244m
;Layer height: 0.2
;MINX:12.87
;MINY:76.37
;MINZ:0.3
;MAXX:129.13
;MAXY:163.63
;MAXZ:36.1
;Generated with Cura_SteamEngine 4.6.2
M140 S70
M105
M190 S70
M104 S237
M105
M109 S237
M82 ;absolute extrusion mode
G28 ;Home
G1 Z15.0 F6000 ;Move the platform down 15mm
G92 E0
G1 F200 E3
G92 E0
G92 E0
G92 E0
G1 F2700 E-13
;LAYER_COUNT:180
;LAYER:0
M107
G0 F1200 X33.569 Y76.801 Z0.3
;TYPE:SKIRT
G1 F2100 E0
G1 F1200 X34.213 Y76.85 E0.03722
G1 X34.845 Y76.978 E0.07437
G1 X35.457 Y77.183 E0.11157
G1 X35.962 Y77.421 E0.14373
G1 X36.559 Y77.742 E0.18279
G1 X37.803 Y78.435 E0.26485
G1 X40.19 Y79.68 E0.41998
G1 X42.624 Y80.862 E0.5759
G1 X45.029 Y81.946 E0.72791
G1 X47.523 Y82.99 E0.8837
G1 X50.06 Y83.967 E1.04036
G1 X52.532 Y84.838 E1.19139
G1 X55.121 Y85.669 E1.34807
G1 X57.674 Y86.411 E1.50127
G1 X60.291 Y87.09 E1.65706
G1 X62.867 Y87.683 E1.80938
G1 X65.544 Y88.221 E1.96672
G1 X68.162 Y88.667 E2.11976
G1 X70.799 Y89.042 E2.27324
G1 X73.496 Y89.348 E2.42964
G1 X76.124 Y89.571 E2.58162
G1 X78.855 Y89.725 E2.73924
G1 X80.612 Y89.782 E2.84054
G1 X82.109 Y89.817 E2.92682
G1 X82.928 Y89.856 E2.97407
G1 X83.774 Y89.937 E3.02304
G1 X84.571 Y90.039 E3.06934
G1 X85.536 Y90.215 E3.12587
G1 X86.261 Y90.373 E3.16862
G1 X87.113 Y90.602 E3.21946
G1 X87.88 Y90.838 E3.2657
G1 X88.733 Y91.147 E3.31798
G1 X89.459 Y91.44 E3.36309
G1 X90.243 Y91.798 E3.41276
G1 X90.986 Y92.171 E3.46066
G1 X91.768 Y92.61 E3.51234
G1 X93.264 Y93.494 E3.61247
G1 X95.623 Y94.819 E3.76838
G1 X97.995 Y96.066 E3.9228
G1 X100.411 Y97.248 E4.07778
G1 X102.837 Y98.352 E4.23137
G1 X105.318 Y99.398 E4.38652
G1 X107.856 Y100.385 E4.54344
G1 X110.311 Y101.257 E4.69356
G1 X112.898 Y102.096 E4.85028
G1 X115.479 Y102.854 E5.00528
G1 X118.037 Y103.528 E5.15771
G1 X120.663 Y104.14 E5.31309
G1 X123.594 Y104.731 E5.48538
G1 X124.445 Y104.89 E5.53527
G1 X125.071 Y105.047 E5.57245
G1 X125.672 Y105.281 E5.60962
G1 X126.24 Y105.587 E5.6468
G1 X126.766 Y105.96 E5.68395
G1 X127.242 Y106.396 E5.72115
G1 X127.66 Y106.888 E5.75835
G1 X128.015 Y107.427 E5.79554
G1 X128.299 Y108.006 E5.8327
G1 X128.51 Y108.616 E5.8699
G1 X128.645 Y109.247 E5.90708
G1 X128.699 Y109.866 E5.94288
G1 X128.71 Y114.293 E6.19798
G1 X128.699 Y115.073 E6.24293
G1 X128.666 Y115.909 E6.29114
G1 X128.588 Y118.665 E6.45002
G1 X128.588 Y121.343 E6.60433
G1 X128.665 Y124.056 E6.76072
G1 X128.691 Y124.588 E6.79142
G1 X128.708 Y125.181 E6.8256
G1 X128.71 Y129.333 E7.06485
G1 X128.7 Y130.06 E7.10675
G1 X128.651 Y130.703 E7.14391
G1 X128.523 Y131.336 E7.18112
G1 X128.318 Y131.947 E7.21826
G1 X128.038 Y132.529 E7.25547
G1 X127.689 Y133.072 E7.29267
G1 X127.276 Y133.567 E7.32982
G1 X126.804 Y134.008 E7.36704
G1 X126.282 Y134.387 E7.40421
G1 X125.717 Y134.698 E7.44137
G1 X125.117 Y134.937 E7.47859
G1 X124.53 Y135.093 E7.51359
G1 X122.093 Y135.558 E7.65655
G1 X119.478 Y136.124 E7.81072
G1 X116.916 Y136.757 E7.96279
G1 X114.275 Y137.487 E8.12068
G1 X111.733 Y138.269 E8.27394
G1 X109.204 Y139.126 E8.4278
G1 X106.693 Y140.057 E8.58212
G1 X104.185 Y141.068 E8.73794
G1 X101.743 Y142.134 E8.89148
G1 X99.296 Y143.286 E9.04733
G1 X96.935 Y144.481 E9.19981
G1 X94.551 Y145.771 E9.35601
G1 X91.245 Y147.688 E9.57622
G1 X90.484 Y148.085 E9.62568
G1 X89.741 Y148.438 E9.67308
G1 X88.953 Y148.769 E9.72233
G1 X88.202 Y149.051 E9.76855
G1 X87.397 Y149.313 E9.81734
G1 X86.576 Y149.546 E9.86651
G1 X85.829 Y149.724 E9.91076
G1 X85.035 Y149.884 E9.95743
G1 X84.127 Y150.02 E10.01034
G1 X83.363 Y150.108 E10.05465
G1 X82.531 Y150.165 E10.10271
G1 X80.788 Y150.222 E10.2032
G1 X79.736 Y150.242 E10.26383
G1 X77.067 Y150.366 E10.41779
G1 X74.425 Y150.563 E10.57046
G1 X71.702 Y150.844 E10.7282
G1 X69.094 Y151.188 E10.87978
G1 X66.393 Y151.623 E11.03743
G1 X63.812 Y152.114 E11.18882
G1 X61.193 Y152.688 E11.34332
G1 X58.555 Y153.345 E11.49997
G1 X55.988 Y154.064 E11.65358
G1 X53.446 Y154.852 E11.80694
G1 X50.878 Y155.73 E11.96332
G1 X48.388 Y156.659 E12.11646
G1 X45.873 Y157.68 E12.27287
G1 X43.446 Y158.747 E12.42564
G1 X41.013 Y159.9 E12.58079
G1 X38.632 Y161.111 E12.73471
G1 X36.035 Y162.529 E12.90522
G1 X35.451 Y162.803 E12.94239
G1 X34.837 Y163.002 E12.97958
G1 X34.174 Y163.133 E13.01852
G1 X33.359 Y163.206 E13.06567
G1 X19.141 Y163.21 E13.88496
G1 X18.442 Y163.201 E13.92524
G1 X17.798 Y163.152 E13.96246
G1 X17.166 Y163.025 E13.9996
G1 X16.554 Y162.82 E14.0368
G1 X15.972 Y162.542 E14.07396
G1 X15.429 Y162.193 E14.11116
G1 X14.933 Y161.78 E14.14835
G1 X14.492 Y161.309 E14.18553
G1 X14.113 Y160.787 E14.2227
G1 X13.801 Y160.222 E14.25989
G1 X13.561 Y159.623 E14.29708
G1 X13.397 Y158.999 E14.33425
G1 X13.301 Y158.132 E14.38452
G1 X13.29 Y133.707 E15.79196
G1 X13.301 Y132.934 E15.83651
G1 X13.339 Y132.374 E15.86886
G1 X13.682 Y129.377 E16.04268
G1 X13.906 Y126.747 E16.19478
G1 X14.059 Y124.039 E16.35107
G1 X14.135 Y121.367 E16.5051
G1 X14.135 Y118.691 E16.6593
G1 X14.059 Y116.013 E16.81368
G1 X13.907 Y113.315 E16.96939
G1 X13.682 Y110.669 E17.12241
G1 X13.333 Y107.584 E17.30131
G1 X13.292 Y106.829 E17.34488
G1 X13.29 Y82.603 E18.74086
G1 X13.299 Y81.938 E18.77919
G1 X13.348 Y81.295 E18.81634
G1 X13.476 Y80.663 E18.8535
G1 X13.681 Y80.051 E18.89069
G1 X13.96 Y79.469 E18.92788
G1 X14.309 Y78.926 E18.96508
G1 X14.722 Y78.431 E19.00223
G1 X15.194 Y77.99 E19.03945
G1 X15.716 Y77.611 E19.07662
G1 X16.281 Y77.299 E19.11381
G1 X16.88 Y77.06 E19.15097
G1 X17.505 Y76.897 E19.18819
G1 X18.363 Y76.801 E19.23794
G1 X32.793 Y76.79 E20.06945
G1 X33.569 Y76.801 E20.11417
G0 X33.575 Y76.381
G1 X34.244 Y76.43 E20.15282
G1 X34.903 Y76.559 E20.19151
G1 X35.541 Y76.765 E20.23015
G1 X36.161 Y77.051 E20.26949
G1 X36.758 Y77.372 E20.30855
G1 X38.013 Y78.071 E20.39133
G1 X40.38 Y79.306 E20.54517
G1 X42.791 Y80.477 E20.69962
G1 X45.206 Y81.566 E20.85227
G1 X47.662 Y82.593 E21.00567
G1 X50.207 Y83.573 E21.16282
G1 X52.699 Y84.451 E21.31507
G1 X55.223 Y85.262 E21.46783
G1 X57.786 Y86.007 E21.62163
G1 X60.347 Y86.671 E21.77408
G1 X62.983 Y87.278 E21.92995
G1 X65.628 Y87.809 E22.08541
G1 X68.216 Y88.25 E22.23669
G1 X70.867 Y88.627 E22.39098
G1 X73.509 Y88.927 E22.5442
G1 X76.186 Y89.154 E22.69901
G1 X78.848 Y89.304 E22.85265
G1 X80.675 Y89.364 E22.95798
G1 X82.119 Y89.398 E23.04121
G1 X82.949 Y89.437 E23.08909
G1 X83.818 Y89.519 E23.13939
G1 X84.626 Y89.623 E23.18633
G1 X85.615 Y89.802 E23.24425
G1 X86.352 Y89.963 E23.28772
G1 X87.225 Y90.198 E23.33982
G1 X88.005 Y90.437 E23.38682
G1 X88.88 Y90.754 E23.44045
G1 X89.617 Y91.05 E23.48622
G1 X90.421 Y91.418 E23.53717
G1 X91.176 Y91.796 E23.58582
G1 X91.976 Y92.245 E23.63868
G1 X93.474 Y93.131 E23.73897
G1 X95.822 Y94.45 E23.89416
G1 X98.187 Y95.692 E24.04809
G1 X100.568 Y96.857 E24.20083
G1 X103.03 Y97.977 E24.35669
G1 X105.478 Y99.009 E24.50977
G1 X107.987 Y99.985 E24.6649
G1 X110.481 Y100.871 E24.81741
G1 X112.992 Y101.686 E24.96954
G1 X115.57 Y102.443 E25.12436
G1 X118.171 Y103.128 E25.27935
G1 X120.739 Y103.726 E25.43128
G1 X123.684 Y104.321 E25.60441
G1 X124.522 Y104.477 E25.65353
G1 X125.173 Y104.639 E25.69219
G1 X125.8 Y104.877 E25.73083
G1 X126.394 Y105.188 E25.76947
G1 X126.947 Y105.568 E25.80813
G1 X127.451 Y106.01 E25.84676
G1 X127.899 Y106.51 E25.88545
G1 X128.284 Y107.059 E25.92408
G1 X128.602 Y107.65 E25.96276
G1 X128.846 Y108.275 E26.00142
G1 X129.015 Y108.924 E26.04006
G1 X129.119 Y109.854 E26.09399
G1 X129.13 Y114.293 E26.34978
G1 X129.119 Y115.079 E26.39507
G1 X129.086 Y115.921 E26.44363
G1 X129.008 Y118.677 E26.6025
G1 X129.008 Y121.331 E26.75543
G1 X129.084 Y124.021 E26.9105
G1 X129.111 Y124.576 E26.94252
G1 X129.128 Y125.169 E26.97671
G1 X129.13 Y129.261 E27.2125
G1 X129.119 Y130.065 E27.25883
G1 X129.07 Y130.734 E27.29749
G1 X128.942 Y131.393 E27.33617
G1 X128.736 Y132.031 E27.3748
G1 X128.456 Y132.641 E27.41348
G1 X128.105 Y133.213 E27.45215
G1 X127.689 Y133.739 E27.49079
G1 X127.213 Y134.211 E27.52942
G1 X126.684 Y134.624 E27.56809
G1 X126.11 Y134.971 E27.60674
G1 X125.499 Y135.247 E27.64538
G1 X124.614 Y135.505 E27.6985
G1 X122.184 Y135.967 E27.84103
G1 X119.59 Y136.529 E27.99397
G1 X117.027 Y137.162 E28.1461
G1 X114.399 Y137.888 E28.3032
G1 X111.858 Y138.67 E28.4564
G1 X109.342 Y139.523 E28.60949
G1 X106.822 Y140.457 E28.76435
G1 X104.38 Y141.442 E28.91608
G1 X101.904 Y142.523 E29.07176
G1 X99.491 Y143.659 E29.22544
G1 X97.108 Y144.864 E29.37932
G1 X94.787 Y146.121 E29.53141
G1 X91.456 Y148.052 E29.75328
G1 X90.675 Y148.459 E29.80403
G1 X89.92 Y148.818 E29.8522
G1 X89.113 Y149.158 E29.90266
G1 X88.348 Y149.445 E29.94974
G1 X87.524 Y149.713 E29.99967
G1 X86.689 Y149.951 E30.0497
G1 X85.923 Y150.133 E30.09507
G1 X85.117 Y150.296 E30.14246
G1 X84.185 Y150.436 E30.19676
G1 X83.41 Y150.525 E30.24171
G1 X82.557 Y150.584 E30.29098
G1 X80.801 Y150.642 E30.39223
G1 X79.764 Y150.661 E30.45199
G1 X77.081 Y150.786 E30.60676
G1 X74.433 Y150.984 E30.75977
G1 X71.797 Y151.256 E30.91247
G1 X69.112 Y151.61 E31.06853
G1 X66.504 Y152.03 E31.22075
G1 X63.871 Y152.531 E31.37519
G1 X61.283 Y153.098 E31.52786
G1 X58.692 Y153.743 E31.68172
G1 X56.091 Y154.471 E31.83736
G1 X53.564 Y155.255 E31.98982
G1 X51.049 Y156.115 E32.14298
G1 X48.518 Y157.059 E32.29864
G1 X46.055 Y158.059 E32.45181
G1 X43.621 Y159.129 E32.60502
G1 X41.21 Y160.272 E32.75877
G1 X38.809 Y161.494 E32.91402
G1 X36.236 Y162.898 E33.08292
G1 X35.63 Y163.183 E33.1215
G1 X34.993 Y163.395 E33.16019
G1 X34.48 Y163.507 E33.19045
G1 X33.364 Y163.626 E33.25512
G1 X19.136 Y163.63 E34.07498
G1 X18.437 Y163.621 E34.11526
G1 X17.767 Y163.572 E34.15397
G1 X17.109 Y163.444 E34.1926
G1 X16.47 Y163.239 E34.23127
G1 X15.861 Y162.959 E34.2699
G1 X15.288 Y162.609 E34.30859
G1 X14.762 Y162.193 E34.34723
G1 X14.289 Y161.718 E34.38586
G1 X13.876 Y161.189 E34.42453
G1 X13.528 Y160.615 E34.46321
G1 X13.251 Y160.004 E34.50186
G1 X13.049 Y159.365 E34.54048
G1 X12.925 Y158.706 E34.57912
G1 X12.881 Y158.143 E34.61166
G1 X12.87 Y133.707 E36.01974
G1 X12.881 Y132.928 E36.06464
G1 X12.922 Y132.323 E36.09958
G1 X13.261 Y129.363 E36.27126
G1 X13.489 Y126.685 E36.42613
G1 X13.639 Y124.04 E36.57879
G1 X13.715 Y121.355 E36.73357
G1 X13.715 Y118.703 E36.88639
G1 X13.638 Y115.998 E37.04232
G1 X13.49 Y113.375 E37.19371
G1 X13.261 Y110.678 E37.34967
G1 X12.916 Y107.631 E37.52637
G1 X12.873 Y106.842 E37.57191
G1 X12.87 Y82.674 E38.96454
G1 X12.88 Y81.933 E39.00725
G1 X12.929 Y81.264 E39.0459
G1 X13.057 Y80.605 E39.08458
G1 X13.262 Y79.967 E39.1232
G1 X13.543 Y79.357 E39.1619
G1 X13.893 Y78.785 E39.20054
G1 X14.309 Y78.259 E39.23918
G1 X14.785 Y77.786 E39.27785
G1 X15.314 Y77.373 E39.31652
G1 X15.888 Y77.026 E39.35517
G1 X16.499 Y76.75 E39.39381
G1 X17.139 Y76.548 E39.43248
G1 X17.798 Y76.424 E39.47112
G1 X18.351 Y76.381 E39.50308
G1 X32.793 Y76.37 E40.33527
G1 X33.575 Y76.381 E40.38034
G1 F2700 E27.38034
;MESH:CELUPIRAGUA.stl
G0 F1200 X32.856 Y81.335
G0 X32.856 Y82.644
G0 X21.462 Y100.861
;TYPE:WALL-INNER
G1 F2100 E40.38034
G1 F1200 X21.462 Y101.087 E40.39336
G1 X21.462 Y101.088 E40.39342
G1 X21.452 Y105.95 E40.67359
G1 X19.55 Y105.95 E40.78318
G1 X19.55 Y83.05 E42.10276
G1 X32.45 Y83.05 E42.84609
G1 X32.45 Y101.527 E43.9108
G1 X32.511 Y102.7 E43.97848
G1 X32.7 Y103.898 E44.04837
G1 X33.012 Y105.067 E44.11809
G1 X33.446 Y106.195 E44.18773
G1 X33.994 Y107.271 E44.25731
G1 X34.651 Y108.285 E44.32693
G1 X35.41 Y109.223 E44.39646
G1 X36.263 Y110.077 E44.46602
G1 X37.202 Y110.838 E44.53566
G1 X38.213 Y111.496 E44.60517
G1 X39.288 Y112.046 E44.67475
G1 X40.415 Y112.481 E44.74436
G1 X41.583 Y112.795 E44.81406
G1 X42.777 Y112.984 E44.88372
G1 X43.955 Y113.048 E44.9517
G1 X52.45 Y113.05 E45.44121
G1 X52.45 Y126.95 E46.24217
G1 X43.982 Y126.95 E46.73012
G1 X42.794 Y127.012 E46.79867
G1 X41.602 Y127.2 E46.86821
G1 X40.434 Y127.512 E46.93787
G1 X39.305 Y127.946 E47.00757
G1 X38.23 Y128.494 E47.0771
G1 X37.215 Y129.151 E47.14677
G1 X36.277 Y129.91 E47.2163
G1 X35.423 Y130.763 E47.28585
G1 X34.661 Y131.702 E47.35553
G1 X34.003 Y132.716 E47.42519
G1 X33.454 Y133.79 E47.49469
G1 X33.019 Y134.917 E47.5643
G1 X32.705 Y136.085 E47.634
G1 X32.516 Y137.279 E47.70365
G1 X32.451 Y138.464 E47.77204
G1 X32.447 Y156.95 E48.83726
G1 X19.55 Y156.95 E49.58043
G1 X19.55 Y134.05 E50.9
G1 X21.45 Y134.05 E51.00948
G1 X21.45 Y138.906 E51.2893
G1 X21.45 Y138.907 E51.28936
G1 X21.45 Y139.132 E51.30233
G1 X21.675 Y139.115 E51.31056
G1 X23.27 Y138.994 E51.40273
G1 X24.048 Y138.811 E51.44879
G1 X24.782 Y138.509 E51.49452
G1 X25.462 Y138.094 E51.54043
G1 X26.068 Y137.578 E51.58629
G1 X26.583 Y136.976 E51.63194
G1 X26.999 Y136.299 E51.67773
G1 X27.304 Y135.566 E51.72348
G1 X27.49 Y134.794 E51.76924
G1 X27.55 Y134.042 E51.81271
G1 X27.55 Y105.96 E53.43088
G1 X27.494 Y105.241 E53.47244
G1 X27.315 Y104.469 E53.5181
G1 X27.016 Y103.734 E53.56383
G1 X26.604 Y103.053 E53.60969
G1 X26.091 Y102.448 E53.6554
G1 X25.491 Y101.927 E53.70119
G1 X24.815 Y101.509 E53.74698
G1 X24.083 Y101.203 E53.7927
G1 X23.312 Y101.013 E53.83846
G1 X21.688 Y100.879 E53.93236
G1 X21.462 Y100.861 E53.94062
G0 X21.881 Y101.317
G1 X21.881 Y101.543 E53.95365
G1 X21.881 Y101.544 E53.9537
G1 X21.871 Y106.37 E54.23179
G1 X19.13 Y106.37 E54.38974
G1 X19.13 Y82.63 E55.75771
G1 X32.87 Y82.63 E56.54946
G1 X32.87 Y101.516 E57.63773
G1 X32.929 Y102.656 E57.70351
G1 X33.111 Y103.811 E57.77088
G1 X33.412 Y104.937 E57.83804
G1 X33.83 Y106.024 E57.90515
G1 X34.358 Y107.061 E57.97221
G1 X34.991 Y108.038 E58.03929
G1 X35.723 Y108.942 E58.10632
G1 X36.545 Y109.765 E58.17334
G1 X37.449 Y110.498 E58.24041
G1 X38.424 Y111.132 E58.30742
G1 X39.46 Y111.662 E58.37448
G1 X40.546 Y112.081 E58.44155
G1 X41.671 Y112.384 E58.50869
G1 X42.821 Y112.566 E58.57578
G1 X43.966 Y112.628 E58.64186
G1 X52.87 Y112.63 E59.15493
G1 X52.87 Y127.37 E60.0043
G1 X43.993 Y127.37 E60.51582
G1 X42.838 Y127.43 E60.58246
G1 X41.689 Y127.611 E60.64949
G1 X40.564 Y127.912 E60.7166
G1 X39.476 Y128.33 E60.78376
G1 X38.44 Y128.858 E60.85076
G1 X37.462 Y129.491 E60.91789
G1 X36.558 Y130.223 E60.98492
G1 X35.735 Y131.045 E61.05194
G1 X35.001 Y131.949 E61.11904
G1 X34.367 Y132.926 E61.18616
G1 X33.838 Y133.962 E61.25319
G1 X33.419 Y135.048 E61.32026
G1 X33.116 Y136.173 E61.3874
G1 X32.934 Y137.323 E61.45449
G1 X32.871 Y138.476 E61.52103
G1 X32.867 Y157.37 E62.60976
G1 X19.13 Y157.37 E63.40133
G1 X19.13 Y133.63 E64.7693
G1 X21.87 Y133.63 E64.92719
G1 X21.87 Y138.453 E65.20511
G1 X21.87 Y138.454 E65.20517
G1 X21.87 Y138.679 E65.21813
G1 X22.095 Y138.662 E65.22637
G1 X23.206 Y138.578 E65.29057
G1 X23.919 Y138.41 E65.33278
G1 X24.592 Y138.133 E65.37472
G1 X25.215 Y137.753 E65.41677
G1 X25.77 Y137.28 E65.45879
G1 X26.242 Y136.728 E65.50064
G1 X26.624 Y136.107 E65.54265
G1 X26.903 Y135.435 E65.58458
G1 X27.074 Y134.728 E65.62649
G1 X27.13 Y134.025 E65.66713
G1 X27.13 Y105.976 E67.2834
G1 X27.078 Y105.305 E67.32218
G1 X26.913 Y104.597 E67.36407
G1 X26.639 Y103.923 E67.406
G1 X26.262 Y103.299 E67.44801
G1 X25.792 Y102.744 E67.48991
G1 X25.241 Y102.267 E67.53191
G1 X24.622 Y101.884 E67.57385
G1 X23.951 Y101.603 E67.61577
G1 X23.244 Y101.429 E67.65773
G1 X22.107 Y101.335 E67.72347
G1 X21.881 Y101.317 E67.73174
G0 X22.3 Y101.773
;TYPE:WALL-OUTER
G1 X22.3 Y101.999 E67.74476
G1 X22.3 Y102 E67.74482
G1 X22.29 Y106.79 E68.02083
G1 X18.71 Y106.79 E68.22712
G1 X18.71 Y82.21 E69.6435
G1 X33.29 Y82.21 E70.48365
G1 X33.29 Y101.505 E71.59549
G1 X33.347 Y102.612 E71.65936
G1 X33.522 Y103.724 E71.72422
G1 X33.812 Y104.807 E71.78883
G1 X34.214 Y105.853 E71.8534
G1 X34.722 Y106.851 E71.91793
G1 X35.331 Y107.791 E71.98247
G1 X36.036 Y108.661 E72.047
G1 X36.827 Y109.453 E72.1115
G1 X37.696 Y110.158 E72.17598
G1 X38.635 Y110.768 E72.2405
G1 X39.632 Y111.278 E72.30503
G1 X40.677 Y111.681 E72.36957
G1 X41.759 Y111.973 E72.43415
G1 X42.865 Y112.148 E72.49867
G1 X43.977 Y112.208 E72.56284
G1 X53.29 Y112.21 E73.09949
G1 X53.29 Y127.79 E73.99726
G1 X44.004 Y127.79 E74.53235
G1 X42.882 Y127.848 E74.59709
G1 X41.776 Y128.022 E74.6616
G1 X40.694 Y128.312 E74.72615
G1 X39.647 Y128.714 E74.79078
G1 X38.65 Y129.222 E74.85525
G1 X37.709 Y129.831 E74.91984
G1 X36.839 Y130.536 E74.98437
G1 X36.047 Y131.327 E75.04887
G1 X35.341 Y132.196 E75.11339
G1 X34.731 Y133.136 E75.17796
G1 X34.222 Y134.133 E75.24246
