;FLAVOR:Marlin
;TIME:4259
;Filament used: 3.1272m
;Layer height: 0.2
;MINX:20.004
;MINY:85.376
;MINZ:0.3
;MAXX:160.005
;MAXY:154.623
;MAXZ:9.9
;Generated with Cura_SteamEngine 4.6.2
M140 S70
M105
M190 S70
M104 S237
M105
M109 S237
M82 ;absolute extrusion mode
G28 ;Home
G1 Z15.0 F6000 ;Move the platform down 15mm
G92 E0
G1 F200 E3
G92 E0
G92 E0
G92 E0
G1 F2700 E-13
;LAYER_COUNT:49
;LAYER:0
M107
G0 F1200 X60.216 Y85.854 Z0.3
;TYPE:SKIRT
G1 F2100 E0
G1 F1200 X61.379 Y86.012 E0.06763
G1 X61.98 Y86.157 E0.10326
G1 X63.032 Y86.491 E0.16686
G1 X65.517 Y87.542 E0.32233
G1 X68.016 Y88.517 E0.4769
G1 X70.566 Y89.428 E0.63294
G1 X73.099 Y90.253 E0.78645
G1 X75.632 Y91.002 E0.93865
G1 X78.271 Y91.7 E1.09595
G1 X80.882 Y92.313 E1.25049
G1 X83.503 Y92.852 E1.40468
G1 X86.122 Y93.309 E1.55788
G1 X88.789 Y93.7 E1.7132
G1 X91.452 Y94.014 E1.86772
G1 X94.123 Y94.253 E2.02224
G1 X96.759 Y94.413 E2.17442
G1 X100.599 Y94.527 E2.39579
G1 X101.272 Y94.575 E2.43467
G1 X101.796 Y94.63 E2.46503
G1 X102.307 Y94.701 E2.49476
G1 X102.999 Y94.824 E2.53526
G1 X104.265 Y95.104 E2.60997
G1 X105.355 Y95.384 E2.67482
G1 X106.53 Y95.721 E2.74526
G1 X107.631 Y96.057 E2.81159
G1 X110.238 Y96.823 E2.96816
G1 X112.848 Y97.508 E3.12365
G1 X115.455 Y98.117 E3.27792
G1 X118.057 Y98.645 E3.43091
G1 X120.714 Y99.107 E3.58631
G1 X123.365 Y99.492 E3.74067
G1 X126.021 Y99.801 E3.89475
G1 X128.697 Y100.037 E4.04955
G1 X131.393 Y100.196 E4.20517
G1 X134.039 Y100.278 E4.35772
G1 X135.692 Y100.292 E4.45297
G1 X153.668 Y100.292 E5.48881
G1 X154.448 Y100.304 E5.53376
G1 X155.091 Y100.354 E5.57092
G1 X155.724 Y100.483 E5.60815
G1 X156.335 Y100.689 E5.6453
G1 X156.916 Y100.97 E5.68249
G1 X157.458 Y101.32 E5.71967
G1 X157.953 Y101.734 E5.75685
G1 X158.393 Y102.207 E5.79408
G1 X158.77 Y102.73 E5.83123
G1 X159.081 Y103.296 E5.86844
G1 X159.319 Y103.895 E5.90558
G1 X159.481 Y104.52 E5.94279
G1 X159.574 Y105.366 E5.99183
G1 X159.585 Y108.795 E6.18942
G1 X159.574 Y109.567 E6.23391
G1 X159.489 Y110.635 E6.29565
G1 X159.262 Y113.303 E6.44994
G1 X159.11 Y116.001 E6.60566
G1 X159.035 Y118.676 E6.75986
G1 X159.035 Y121.351 E6.914
G1 X159.112 Y124.028 E7.06832
G1 X159.265 Y126.726 E7.22404
G1 X159.494 Y129.406 E7.37903
G1 X159.555 Y130.04 E7.41573
G1 X159.583 Y130.676 E7.45242
G1 X159.585 Y133.838 E7.63462
G1 X159.575 Y134.565 E7.67652
G1 X159.526 Y135.208 E7.71368
G1 X159.398 Y135.841 E7.75089
G1 X159.193 Y136.452 E7.78803
G1 X158.913 Y137.034 E7.82524
G1 X158.564 Y137.577 E7.86244
G1 X158.151 Y138.072 E7.89959
G1 X157.679 Y138.513 E7.93681
G1 X157.157 Y138.892 E7.97398
G1 X156.592 Y139.203 E8.01114
G1 X155.992 Y139.442 E8.04836
G1 X155.368 Y139.606 E8.08554
G1 X154.511 Y139.701 E8.13522
G1 X135.646 Y139.712 E9.22228
G1 X132.968 Y139.75 E9.37662
G1 X130.298 Y139.863 E9.53061
G1 X127.622 Y140.053 E9.68519
G1 X124.93 Y140.32 E9.84108
G1 X122.286 Y140.658 E9.99467
G1 X119.618 Y141.077 E10.1503
G1 X116.993 Y141.565 E10.30415
G1 X114.389 Y142.126 E10.45764
G1 X111.81 Y142.758 E10.61065
G1 X109.166 Y143.485 E10.76866
G1 X106.556 Y144.274 E10.92578
G1 X105.518 Y144.573 E10.98802
G1 X104.587 Y144.82 E11.04353
G1 X103.272 Y145.124 E11.1213
G1 X102.698 Y145.239 E11.15503
G1 X102.191 Y145.32 E11.18462
G1 X101.207 Y145.433 E11.24169
G1 X100.455 Y145.482 E11.28512
G1 X99.334 Y145.508 E11.34973
G1 X96.628 Y145.601 E11.50575
G1 X93.916 Y145.772 E11.66233
G1 X91.296 Y146.011 E11.81393
G1 X88.594 Y146.335 E11.97075
G1 X85.989 Y146.723 E12.12251
G1 X83.303 Y147.2 E12.27971
G1 X80.707 Y147.737 E12.43246
G1 X78.092 Y148.356 E12.58731
G1 X75.505 Y149.046 E12.7416
G1 X72.94 Y149.809 E12.8958
G1 X70.364 Y150.655 E13.05204
G1 X67.853 Y151.559 E13.20582
G1 X65.355 Y152.539 E13.36044
G1 X63.705 Y153.243 E13.46381
G1 X63.091 Y153.496 E13.50208
G1 X62.517 Y153.694 E13.53707
G1 X61.882 Y153.872 E13.57507
G1 X60.729 Y154.099 E13.64279
G1 X60.075 Y154.16 E13.68063
G1 X59.304 Y154.201 E13.72513
G1 X57.754 Y154.203 E13.81444
G1 X56.8 Y154.116 E13.86964
G1 X56.285 Y154.013 E13.89991
G1 X55.304 Y153.735 E13.95866
G1 X54.595 Y153.42 E14.00337
G1 X53.657 Y152.912 E14.06483
G1 X53.149 Y152.578 E14.09987
G1 X52.551 Y152.151 E14.14221
G1 X52.115 Y151.799 E14.1745
G1 X50.279 Y150.116 E14.31802
G1 X48.315 Y148.245 E14.47432
G1 X47.858 Y147.827 E14.51001
G1 X44.941 Y144.755 E14.75412
G1 X43.04 Y142.863 E14.90867
G1 X41.104 Y141.043 E15.06178
G1 X39.078 Y139.245 E15.21787
G1 X37.057 Y137.549 E15.3699
G1 X34.935 Y135.869 E15.52586
G1 X32.764 Y134.248 E15.68198
G1 X30.62 Y132.741 E15.83299
G1 X27.984 Y131.009 E16.01474
G1 X26.653 Y130.107 E16.10739
G1 X25.968 Y129.614 E16.15602
G1 X25.513 Y129.268 E16.18896
G1 X25.085 Y128.922 E16.22068
G1 X24.389 Y128.324 E16.27355
G1 X24.015 Y127.987 E16.30256
G1 X23.448 Y127.416 E16.34893
G1 X23.041 Y126.977 E16.38343
G1 X22.468 Y126.268 E16.43595
G1 X22.143 Y125.824 E16.46766
G1 X21.849 Y125.374 E16.49863
G1 X21.587 Y124.916 E16.52904
G1 X21.081 Y123.856 E16.59672
G1 X20.883 Y123.302 E16.63062
G1 X20.583 Y122.17 E16.6981
G1 X20.47 Y121.355 E16.74552
G1 X20.429 Y120.754 E16.78023
G1 X20.424 Y120.204 E16.81192
G1 X20.427 Y119.347 E16.86131
G1 X20.464 Y118.748 E16.89589
G1 X20.527 Y118.22 E16.92653
G1 X20.765 Y117.056 E16.99499
G1 X21.047 Y116.227 E17.04545
G1 X21.333 Y115.572 E17.08663
G1 X21.613 Y115.042 E17.12117
G1 X22.135 Y114.189 E17.1788
G1 X22.456 Y113.752 E17.21004
G1 X23.012 Y113.061 E17.26115
G1 X23.365 Y112.676 E17.29125
G1 X23.771 Y112.257 E17.32487
G1 X24.353 Y111.71 E17.37089
G1 X24.84 Y111.29 E17.40795
G1 X25.525 Y110.734 E17.45879
G1 X26.149 Y110.257 E17.50405
G1 X26.574 Y109.952 E17.53419
G1 X27.793 Y109.125 E17.61907
G1 X30.088 Y107.627 E17.777
G1 X32.266 Y106.115 E17.92978
G1 X34.455 Y104.505 E18.08636
G1 X36.561 Y102.86 E18.24034
G1 X38.622 Y101.155 E18.39448
G1 X40.651 Y99.377 E18.54993
G1 X42.586 Y97.582 E18.70202
G1 X44.509 Y95.695 E18.85727
G1 X46.391 Y93.741 E19.0136
G1 X47.413 Y92.632 E19.1005
G1 X48.821 Y91.281 E19.21294
G1 X50.198 Y89.98 E19.3221
G1 X50.885 Y89.317 E19.37712
G1 X51.946 Y88.352 E19.45976
G1 X52.451 Y87.931 E19.49765
G1 X53.225 Y87.367 E19.55283
G1 X53.767 Y87.03 E19.58961
G1 X54.442 Y86.665 E19.63383
G1 X55.128 Y86.356 E19.67718
G1 X55.663 Y86.16 E19.71001
G1 X56.281 Y85.976 E19.74717
G1 X56.794 Y85.884 E19.7772
G1 X57.779 Y85.799 E19.83417
G1 X59.05 Y85.796 E19.90741
G1 X60.216 Y85.854 E19.97468
G0 X60.24 Y85.434
G1 X61.477 Y85.604 E20.04663
G1 X62.078 Y85.749 E20.08226
G1 X63.196 Y86.104 E20.14985
G1 X65.66 Y87.146 E20.30401
G1 X68.207 Y88.14 E20.46155
G1 X70.661 Y89.016 E20.6117
G1 X73.237 Y89.856 E20.76783
G1 X75.756 Y90.6 E20.91918
G1 X78.364 Y91.291 E21.07465
G1 X80.952 Y91.898 E21.22782
G1 X83.597 Y92.441 E21.38342
G1 X86.181 Y92.893 E21.53458
G1 X88.865 Y93.286 E21.69089
G1 X91.465 Y93.593 E21.84175
G1 X94.153 Y93.833 E21.99725
G1 X96.829 Y93.995 E22.15174
G1 X100.629 Y94.108 E22.3708
G1 X101.302 Y94.156 E22.40968
G1 X101.851 Y94.214 E22.44149
G1 X102.377 Y94.287 E22.47209
G1 X103.09 Y94.414 E22.51382
G1 X104.356 Y94.694 E22.58854
G1 X105.461 Y94.977 E22.65427
G1 X106.646 Y95.317 E22.7253
G1 X107.714 Y95.643 E22.78965
G1 X110.362 Y96.421 E22.94868
G1 X112.94 Y97.098 E23.10227
G1 X115.539 Y97.706 E23.25608
G1 X118.137 Y98.232 E23.40882
G1 X120.777 Y98.692 E23.56324
G1 X123.435 Y99.077 E23.718
G1 X126.072 Y99.384 E23.87098
G1 X128.724 Y99.618 E24.02439
G1 X131.396 Y99.776 E24.17863
G1 X134.055 Y99.858 E24.33192
G1 X135.696 Y99.872 E24.42648
G1 X153.668 Y99.872 E25.46209
G1 X154.455 Y99.884 E25.50744
G1 X155.124 Y99.934 E25.5461
G1 X155.782 Y100.064 E25.58475
G1 X156.42 Y100.271 E25.6234
G1 X157.029 Y100.552 E25.66205
G1 X157.6 Y100.904 E25.7007
G1 X158.125 Y101.322 E25.73937
G1 X158.597 Y101.799 E25.77804
G1 X159.009 Y102.328 E25.81667
G1 X159.354 Y102.903 E25.85531
G1 X159.629 Y103.515 E25.89398
G1 X159.83 Y104.155 E25.93263
G1 X159.953 Y104.815 E25.97132
G1 X159.994 Y105.354 E26.00247
G1 X160.005 Y108.795 E26.20075
G1 X159.994 Y109.573 E26.24558
G1 X159.913 Y110.611 E26.30558
G1 X159.679 Y113.364 E26.46479
G1 X159.53 Y116.001 E26.61698
G1 X159.455 Y118.687 E26.77182
G1 X159.455 Y121.339 E26.92463
G1 X159.532 Y124.027 E27.07959
G1 X159.682 Y126.666 E27.2319
G1 X159.913 Y129.372 E27.3884
G1 X159.973 Y130.003 E27.42492
G1 X160.002 Y130.664 E27.46305
G1 X160.005 Y133.766 E27.64179
G1 X159.994 Y134.57 E27.68813
G1 X159.945 Y135.239 E27.72678
G1 X159.817 Y135.898 E27.76546
G1 X159.611 Y136.536 E27.8041
G1 X159.331 Y137.146 E27.84277
G1 X158.98 Y137.718 E27.88144
G1 X158.564 Y138.244 E27.92009
G1 X158.088 Y138.716 E27.95872
G1 X157.559 Y139.129 E27.99739
G1 X156.985 Y139.476 E28.03604
G1 X156.374 Y139.752 E28.07467
G1 X155.734 Y139.954 E28.11334
G1 X155.075 Y140.078 E28.15198
G1 X154.523 Y140.121 E28.18389
G1 X135.652 Y140.132 E29.27129
G1 X132.992 Y140.17 E29.42459
G1 X130.308 Y140.284 E29.57939
G1 X127.658 Y140.472 E29.73247
G1 X124.959 Y140.739 E29.88876
G1 X122.365 Y141.071 E30.03945
G1 X119.691 Y141.491 E30.19542
G1 X117.082 Y141.976 E30.34834
G1 X114.475 Y142.537 E30.502
G1 X111.911 Y143.166 E30.65413
G1 X109.278 Y143.89 E30.81148
G1 X106.677 Y144.676 E30.96805
G1 X105.634 Y144.977 E31.03061
G1 X104.693 Y145.226 E31.0867
G1 X103.366 Y145.533 E31.16518
G1 X102.779 Y145.651 E31.19968
G1 X102.253 Y145.736 E31.23039
G1 X101.253 Y145.85 E31.28838
G1 X100.478 Y145.901 E31.33314
G1 X99.356 Y145.928 E31.39781
G1 X96.634 Y146.021 E31.55475
G1 X93.984 Y146.189 E31.70776
G1 X91.311 Y146.432 E31.86242
G1 X88.672 Y146.749 E32.01558
G1 X86.021 Y147.143 E32.17002
G1 X83.387 Y147.612 E32.32419
G1 X80.779 Y148.151 E32.47764
G1 X78.229 Y148.755 E32.62865
G1 X75.622 Y149.45 E32.78412
G1 X73.057 Y150.212 E32.93831
G1 X70.493 Y151.055 E33.09383
G1 X68.005 Y151.951 E33.24621
G1 X65.54 Y152.918 E33.39879
G1 X63.87 Y153.63 E33.5034
G1 X63.251 Y153.885 E33.54198
G1 X62.631 Y154.098 E33.57976
G1 X61.996 Y154.276 E33.61776
G1 X60.768 Y154.518 E33.68988
G1 X60.114 Y154.579 E33.72773
G1 X59.304 Y154.621 E33.77447
G1 X57.754 Y154.623 E33.86378
G1 X57.085 Y154.584 E33.9024
G1 X56.486 Y154.485 E33.93738
G1 X55.822 Y154.333 E33.97663
G1 X55.181 Y154.137 E34.01526
G1 X54.417 Y153.801 E34.06335
G1 X53.426 Y153.263 E34.12833
G1 X52.918 Y152.929 E34.16336
G1 X52.291 Y152.48 E34.2078
G1 X51.839 Y152.115 E34.24128
G1 X49.994 Y150.424 E34.38549
G1 X48.014 Y148.539 E34.54302
G1 X47.575 Y148.137 E34.57732
G1 X44.655 Y145.063 E34.82163
G1 X42.77 Y143.187 E34.97488
G1 X40.797 Y141.332 E35.13093
G1 X38.808 Y139.567 E35.28416
G1 X36.784 Y137.869 E35.43639
G1 X34.663 Y136.19 E35.59227
G1 X32.551 Y134.613 E35.74415
G1 X30.373 Y133.081 E35.8976
G1 X27.753 Y131.36 E36.07823
G1 X26.418 Y130.455 E36.17116
G1 X25.721 Y129.954 E36.22063
G1 X25.252 Y129.596 E36.25462
G1 X24.811 Y129.24 E36.28728
G1 X24.115 Y128.642 E36.34016
G1 X23.733 Y128.298 E36.36978
G1 X23.146 Y127.708 E36.41774
G1 X22.732 Y127.262 E36.4528
G1 X22.136 Y126.524 E36.50747
G1 X21.803 Y126.071 E36.53986
G1 X21.486 Y125.585 E36.5733
G1 X21.217 Y125.114 E36.60455
G1 X20.686 Y123.999 E36.67572
G1 X20.484 Y123.434 E36.71029
G1 X20.168 Y122.234 E36.7818
G1 X20.054 Y121.408 E36.82985
G1 X20.009 Y120.758 E36.86739
G1 X20.004 Y120.202 E36.89943
G1 X20.007 Y119.345 E36.94881
G1 X20.047 Y118.698 E36.98617
G1 X20.11 Y118.17 E37.01681
G1 X20.365 Y116.929 E37.08981
G1 X20.652 Y116.085 E37.14118
G1 X20.96 Y115.378 E37.18562
G1 X21.247 Y114.835 E37.22101
G1 X21.796 Y113.941 E37.28146
G1 X22.123 Y113.496 E37.31328
G1 X22.702 Y112.777 E37.36648
G1 X23.055 Y112.392 E37.39658
G1 X23.47 Y111.963 E37.43097
G1 X24.068 Y111.401 E37.47826
G1 X24.45 Y111.068 E37.50746
G1 X25.26 Y110.408 E37.56767
G1 X25.896 Y109.922 E37.61379
G1 X26.338 Y109.604 E37.64517
G1 X27.557 Y108.777 E37.73005
G1 X29.835 Y107.29 E37.88681
G1 X32.035 Y105.764 E38.04109
G1 X34.188 Y104.18 E38.19511
G1 X36.314 Y102.519 E38.35057
G1 X38.354 Y100.832 E38.50311
G1 X40.35 Y99.083 E38.65604
G1 X42.303 Y97.272 E38.80951
G1 X44.209 Y95.401 E38.96342
G1 X46.098 Y93.44 E39.12032
G1 X47.104 Y92.348 E39.20587
G1 X48.532 Y90.976 E39.31998
G1 X48.938 Y90.6 E39.35187
G1 X49.909 Y89.676 E39.42911
G1 X50.594 Y89.015 E39.48396
G1 X51.664 Y88.041 E39.56734
G1 X52.196 Y87.597 E39.60726
G1 X52.982 Y87.025 E39.66328
G1 X53.567 Y86.661 E39.70298
G1 X54.242 Y86.296 E39.7472
G1 X54.983 Y85.962 E39.79404
G1 X55.518 Y85.766 E39.82687
G1 X56.161 Y85.573 E39.86555
G1 X56.74 Y85.468 E39.89946
G1 X57.778 Y85.379 E39.95949
G1 X59.049 Y85.376 E40.03273
G1 X60.24 Y85.434 E40.10144
G1 F2700 E27.10144
;MESH:TapaCafetera.stl
G0 F1200 X76.209 Y102.427
G0 X76.394 Y103.525
G0 X81.299 Y103.486
G0 X81.865 Y108.09
G0 X83.864 Y106.87
;TYPE:WALL-INNER
G1 F2100 E40.10144
G1 F1200 X83.937 Y106.896 E40.10591
G1 X83.904 Y106.936 E40.10608
G1 X83.794 Y107.068 E40.11177
G1 X83.794 Y106.896 E40.11367
G1 X83.794 Y106.845
G1 X83.864 Y106.87 E40.11378
G0 X84.262 Y106.703
G1 X84.375 Y106.591 E40.12295
G1 X84.375 Y106.755 E40.12508
G1 X84.375 Y106.816
G1 X84.303 Y106.79 E40.12551
G1 X84.209 Y106.755 E40.12709
G1 X84.262 Y106.703 E40.12743
G0 X86.036 Y105.051
G1 X86.056 Y105.035 E40.12891
G1 X86.056 Y105.062 E40.12915
G1 X86.056 Y105.076
G1 X86.042 Y105.071
G1 X86.022 Y105.062 E40.12928
G1 X86.036 Y105.051
G0 X90.415 Y102.117
G1 X90.375 Y102.14 E40.13194
G1 X89.995 Y102.356 E40.15713
G1 X88.483 Y103.217 E40.25739
G1 X87.736 Y103.661 E40.30747
G1 X87.736 Y103.705 E40.31
G1 X87.736 Y103.741 E40.31208
G1 X87.705 Y103.727 E40.3124
G1 X87.661 Y103.705 E40.31343
G1 X87.489 Y103.83 E40.32568
G1 X87.156 Y104.072 E40.3494
G1 X87.156 Y103.661 E40.36252
G1 X87.156 Y103.66 E40.36258
G1 X87.156 Y102.339 E40.4387
G1 X87.618 Y102.269 E40.46563
G1 X89.949 Y101.948 E40.60121
G1 X90.383 Y101.889 E40.62255
G1 X91.497 Y101.735 E40.68735
G1 X90.455 Y102.204 E40.71338
G1 X90.42 Y102.22 E40.7156
G1 X90.415 Y102.117 E40.71819
G0 X92.868 Y101.744
G0 X99.501 Y100.811
G1 X99.501 Y100.85 E40.72044
G1 X99.08 Y100.828 E40.74473
G1 X98.92 Y100.819 E40.75397
G1 X98.92 Y100.796 E40.75529
G1 X98.835 Y100.795 E40.76019
G1 X98.917 Y100.789
G1 X99.082 Y100.777 E40.76124
G1 X99.499 Y100.764 E40.76507
G1 X99.774 Y100.754 E40.77637
G1 X100.421 Y100.775 E40.81367
G1 X100.979 Y100.826 E40.84596
G1 X101.63 Y100.924 E40.88389
G1 X101.683 Y100.935 E40.88701
G1 X102.294 Y101.061 E40.92296
G1 X102.338 Y101.07 E40.92555
G1 X102.862 Y101.198 E40.95663
G1 X102.862 Y101.21 E40.95732
G1 X102.329 Y101.131 E40.96015
G1 X102.282 Y101.123 E40.96061
G1 X102.282 Y101.105
G1 X101.663 Y101.034 E40.96687
G1 X101.62 Y101.03 E40.96724
G1 X100.965 Y100.963 E40.97836
G1 X100.408 Y100.906 E40.98862
G1 X99.766 Y100.839 E40.99814
G1 X99.501 Y100.811 E41.00036
G0 X104.815 Y102.231
G0 X105.76 Y102.627
G0 X110.835 Y105.002
G1 X110.734 Y105.047 E41.00673
G1 X110.657 Y105.081 E41.01158
G1 X110.655 Y105.01 E41.01234
G1 X110.648 Y104.855 E41.01742
G1 X109.802 Y104.22 E41.07837
G1 X109.039 Y103.682 E41.13217
G1 X109.001 Y103.702 E41.13465
G1 X108.966 Y103.72 E41.13691
G1 X108.965 Y103.686 E41.13717
G1 X108.962 Y103.628 E41.13848
G1 X108.484 Y103.347 E41.17043
G1 X108.025 Y103.077 E41.20112
G1 X107.075 Y102.542 E41.26394
G1 X106.685 Y102.323 E41.28972
G1 X107.119 Y102.462 E41.29287
G1 X108.119 Y102.787 E41.32092
G1 X108.625 Y102.952 E41.34738
G1 X111.158 Y103.777 E41.50088
G1 X111.262 Y104.897 E41.5657
G1 X111.311 Y105.432 E41.59666
G1 X110.912 Y105.072 E41.61321
G1 X110.835 Y105.002 E41.6192
G0 X112.437 Y106.777
G1 X112.366 Y106.804 E41.62358
G1 X112.366 Y106.746 E41.62404
G1 X112.366 Y106.587 E41.62925
G1 X112.474 Y106.696 E41.63095
G1 X112.523 Y106.746 E41.63109
G1 X112.437 Y106.777 E41.63227
G0 X112.961 Y106.912
G1 X112.989 Y107.112 E41.6439
G1 X112.862 Y106.962 E41.64564
G1 X112.835 Y106.93
G1 X112.902 Y106.903
G1 X112.957 Y106.88
G1 X112.961 Y106.912
G0 X114.478 Y108.992
G1 X114.336 Y109.031 E41.65412
G1 X114.046 Y109.113 E41.67149
G1 X114.046 Y108.918 E41.67545
G1 X114.046 Y108.584 E41.6947
G1 X114.304 Y108.918 E41.70472
G1 X114.437 Y108.873 E41.70691
G1 X114.589 Y108.821 E41.71604
G1 X114.627 Y108.808 E41.71835
G1 X114.627 Y108.918 E41.72009
G1 X114.627 Y108.931
G1 X114.63 Y108.981
G1 X114.651 Y109.274 E41.73701
G1 X114.492 Y109.015 E41.7406
G1 X114.478 Y108.992
