;FLAVOR:Marlin
;TIME:1719
;Filament used: 1.64793m
;Layer height: 0.2
;MINX:58.061
;MINY:106.519
;MINZ:0.3
;MAXX:113.443
;MAXY:161.629
;MAXZ:7.1
;Generated with Cura_SteamEngine 4.6.2
M140 S70
M105
M190 S70
M104 S237
M105
M109 S237
M82 ;absolute extrusion mode
G28 ;Home
G1 Z15.0 F6000 ;Move the platform down 15mm
G92 E0
G1 F200 E3
G92 E0
G92 E0
G92 E0
G1 F2700 E-13
;LAYER_COUNT:35
;LAYER:0
M107
M204 S5000
G0 F1200 X107.707 Y106.95 Z0.3
M204 S3000
;TYPE:SKIRT
G1 F2100 E0
G1 F1200 X108.35 Y106.999 E0.03716
G1 X108.983 Y107.127 E0.07437
G1 X109.594 Y107.333 E0.11153
G1 X110.176 Y107.612 E0.14872
G1 X110.718 Y107.962 E0.1859
G1 X111.214 Y108.375 E0.22309
G1 X111.654 Y108.847 E0.26027
G1 X112.032 Y109.37 E0.29746
G1 X112.343 Y109.935 E0.33462
G1 X112.582 Y110.534 E0.37178
G1 X112.745 Y111.159 E0.409
G1 X112.84 Y112.021 E0.45897
G1 X112.861 Y112.812 E0.50457
G1 X113.023 Y126.89 E1.31584
G1 X113.022 Y127.706 E1.36286
G1 X112.899 Y130.596 E1.52954
G1 X112.855 Y133.242 E1.68204
G1 X112.886 Y135.969 E1.83918
G1 X112.968 Y138.092 E1.96161
G1 X112.994 Y139.454 E2.04011
G1 X112.996 Y140.715 E2.11277
G1 X112.989 Y142.859 E2.23631
G1 X112.995 Y143.65 E2.2819
G1 X112.996 Y144.596 E2.33641
G1 X112.984 Y145.427 E2.3843
G1 X112.963 Y145.972 E2.41573
G1 X112.799 Y147.262 E2.49066
G1 X112.524 Y148.221 E2.54815
G1 X112.16 Y149.097 E2.60281
G1 X111.599 Y150.059 E2.66698
G1 X111.203 Y150.584 E2.70487
G1 X110.607 Y151.23 E2.75552
G1 X110.104 Y151.676 E2.79426
G1 X109.432 Y152.166 E2.84218
G1 X108.841 Y152.513 E2.88167
G1 X108.11 Y152.855 E2.92818
G1 X105.689 Y153.764 E3.07719
G1 X103.233 Y154.763 E3.22997
G1 X100.754 Y155.854 E3.38604
G1 X98.322 Y157.007 E3.54113
G1 X95.966 Y158.208 E3.69352
G1 X93.597 Y159.5 E3.84901
G1 X91.883 Y160.49 E3.96306
G1 X91.305 Y160.777 E4.00025
G1 X90.696 Y160.991 E4.03745
G1 X90.066 Y161.128 E4.0746
G1 X89.372 Y161.187 E4.11473
G1 X88.162 Y161.209 E4.18447
G1 X87.293 Y161.199 E4.23455
G1 X86.649 Y161.15 E4.27176
G1 X86.004 Y161.018 E4.3097
G1 X82.952 Y160.22 E4.49148
G1 X80.289 Y159.606 E4.64895
G1 X77.702 Y159.089 E4.80097
G1 X75.054 Y158.635 E4.95579
G1 X72.415 Y158.26 E5.10938
G1 X69.717 Y157.954 E5.26584
G1 X67.089 Y157.731 E5.41782
G1 X64.335 Y157.576 E5.57677
G1 X63.635 Y157.545 E5.61714
G1 X62.993 Y157.477 E5.65435
G1 X62.365 Y157.33 E5.69151
G1 X61.759 Y157.106 E5.72874
G1 X61.186 Y156.809 E5.76593
G1 X60.442 Y156.269 E5.8189
G1 X59.828 Y155.681 E5.86789
G1 X59.428 Y155.174 E5.9051
G1 X59.094 Y154.622 E5.94228
G1 X58.83 Y154.033 E5.97947
G1 X58.642 Y153.416 E6.01664
G1 X58.511 Y152.552 E6.067
G1 X58.483 Y152 E6.09885
G1 X58.481 Y137.507 E6.93398
G1 X58.492 Y136.734 E6.97853
G1 X58.541 Y136.091 E7.01569
G1 X58.669 Y135.459 E7.05284
G1 X58.98 Y134.605 E7.10521
G1 X59.468 Y133.559 E7.17172
G1 X60.6 Y131.055 E7.33007
G1 X61.657 Y128.531 E7.48775
G1 X62.591 Y126.101 E7.63776
G1 X63.49 Y123.554 E7.7934
G1 X64.314 Y120.993 E7.94843
G1 X65.063 Y118.42 E8.10285
G1 X65.743 Y115.808 E8.25837
G1 X66.341 Y113.219 E8.41149
G1 X66.639 Y111.722 E8.49944
G1 X66.784 Y111.053 E8.53889
G1 X66.96 Y110.432 E8.57608
G1 X67.211 Y109.838 E8.61324
G1 X67.533 Y109.279 E8.65041
G1 X67.923 Y108.764 E8.68764
G1 X68.373 Y108.302 E8.7248
G1 X68.876 Y107.898 E8.76198
G1 X69.426 Y107.56 E8.79918
G1 X70.013 Y107.293 E8.83634
G1 X70.629 Y107.1 E8.87353
G1 X71.264 Y106.985 E8.91072
G1 X72.05 Y106.942 E8.95608
G1 X106.935 Y106.939 E10.96626
G1 X107.707 Y106.95 E11.01075
M204 S5000
G0 X107.713 Y106.53
M204 S3000
G1 X108.382 Y106.579 E11.04941
G1 X109.04 Y106.708 E11.08804
G1 X109.678 Y106.914 E11.12668
G1 X110.288 Y107.195 E11.16538
G1 X110.859 Y107.546 E11.204
G1 X111.385 Y107.962 E11.24264
G1 X111.858 Y108.439 E11.28135
G1 X112.27 Y108.968 E11.31999
G1 X112.617 Y109.542 E11.35864
G1 X112.893 Y110.153 E11.39727
G1 X113.094 Y110.793 E11.43593
G1 X113.218 Y111.453 E11.47462
G1 X113.26 Y112.01 E11.50681
G1 X113.281 Y112.801 E11.55241
G1 X113.443 Y126.886 E12.36408
G1 X113.442 Y127.707 E12.41139
G1 X113.319 Y130.586 E12.57744
G1 X113.275 Y133.244 E12.73062
G1 X113.306 Y135.948 E12.88645
G1 X113.388 Y138.076 E13.00916
G1 X113.414 Y139.446 E13.08812
G1 X113.416 Y140.714 E13.16118
G1 X113.409 Y142.861 E13.2849
G1 X113.415 Y143.647 E13.33019
G1 X113.416 Y144.596 E13.38488
G1 X113.404 Y145.433 E13.43311
G1 X113.382 Y146.001 E13.46587
G1 X113.207 Y147.362 E13.54494
G1 X112.916 Y148.371 E13.60545
G1 X112.535 Y149.287 E13.66262
G1 X111.938 Y150.306 E13.73067
G1 X111.534 Y150.842 E13.76935
G1 X110.89 Y151.54 E13.82407
G1 X110.378 Y151.994 E13.8635
G1 X109.652 Y152.524 E13.9153
G1 X109.048 Y152.879 E13.95567
G1 X108.257 Y153.248 E14.00597
G1 X105.864 Y154.146 E14.15325
G1 X103.382 Y155.156 E14.30766
G1 X100.929 Y156.236 E14.4621
G1 X98.519 Y157.378 E14.61577
G1 X96.142 Y158.589 E14.7695
G1 X93.804 Y159.865 E14.92298
G1 X92.093 Y160.853 E15.03683
G1 X91.493 Y161.154 E15.07551
G1 X90.862 Y161.38 E15.11413
G1 X90.208 Y161.53 E15.15279
G1 X89.379 Y161.607 E15.20077
G1 X88.169 Y161.629 E15.27051
G1 X87.287 Y161.619 E15.32133
G1 X86.618 Y161.57 E15.35999
G1 X85.894 Y161.424 E15.40254
G1 X82.829 Y160.622 E15.58511
G1 X80.221 Y160.021 E15.73933
G1 X77.617 Y159.501 E15.89234
G1 X74.998 Y159.052 E16.04546
G1 X72.342 Y158.674 E16.20005
G1 X69.704 Y158.375 E16.35303
G1 X67.03 Y158.148 E16.50767
G1 X64.365 Y157.998 E16.66148
G1 X63.616 Y157.965 E16.70468
G1 X62.949 Y157.895 E16.74332
G1 X62.295 Y157.747 E16.78196
G1 X61.663 Y157.522 E16.82062
G1 X61.062 Y157.223 E16.8593
G1 X60.501 Y156.855 E16.89796
G1 X60.011 Y156.45 E16.93459
G1 X59.533 Y155.981 E16.97318
G1 X59.113 Y155.457 E17.01188
G1 X58.759 Y154.887 E17.05054
G1 X58.475 Y154.28 E17.08916
G1 X58.266 Y153.642 E17.12784
G1 X58.133 Y152.985 E17.16647
G1 X58.075 Y152.34 E17.20379
G1 X58.061 Y151.703 E17.2405
G1 X58.061 Y137.507 E18.05852
G1 X58.072 Y136.728 E18.10341
G1 X58.121 Y136.059 E18.14207
G1 X58.25 Y135.401 E18.1807
G1 X58.456 Y134.763 E18.21934
G1 X59.112 Y133.329 E18.3102
G1 X60.207 Y130.908 E18.46332
G1 X61.261 Y128.391 E18.62056
G1 X62.198 Y125.953 E18.77106
G1 X63.093 Y123.419 E18.92592
G1 X63.916 Y120.859 E19.08087
G1 X64.658 Y118.308 E19.23396
G1 X65.324 Y115.751 E19.38621
G1 X65.935 Y113.105 E19.5427
G1 X66.227 Y111.64 E19.62878
G1 X66.373 Y110.964 E19.66863
G1 X66.555 Y110.318 E19.7073
G1 X66.811 Y109.698 E19.74595
G1 X67.14 Y109.113 E19.78463
G1 X67.536 Y108.572 E19.82326
G1 X67.993 Y108.081 E19.86191
G1 X68.506 Y107.648 E19.9006
G1 X69.066 Y107.28 E19.93921
G1 X69.666 Y106.98 E19.97786
G1 X70.298 Y106.754 E20.01654
G1 X70.952 Y106.605 E20.05519
G1 X71.717 Y106.531 E20.09948
G1 X106.935 Y106.519 E22.12885
G1 X107.713 Y106.53 E22.17369
M204 S5000
G1 F2700 E9.17369
;MESH:quick_release_female.stl
G0 F1200 X107.177 Y111.485
G0 X107.178 Y112.793
G0 X106.531 Y126.8
M204 S3000
;TYPE:WALL-INNER
G1 F2100 E22.17369
G1 F1200 X106.53 Y113.199 E22.95742
G1 X106.772 Y113.199 E22.97137
G1 X106.772 Y126.8 E23.42201
G1 X106.531 Y126.8 E23.4359
M204 S5000
G0 X99.532 Y126.8
M204 S3000
G1 X99.531 Y113.199 E24.21963
G1 X99.772 Y113.199 E24.23352
G1 X99.773 Y126.8 E24.68232
G1 X99.532 Y126.8 E24.69621
M204 S5000
G0 X94.531 Y126.8
M204 S3000
G1 X94.531 Y113.199 E25.47994
G1 X94.772 Y113.199 E25.49383
G1 X94.773 Y126.8 E25.94355
G1 X94.531 Y126.8 E25.95749
M204 S5000
G0 X88.458 Y126.8
M204 S3000
G1 X72.916 Y126.8 E26.85307
G1 X72.916 Y113.2 E27.63674
G1 X88.667 Y113.2 E28.54437
G1 X88.668 Y126.59 E29.31594
G1 X88.668 Y126.8 E29.32804
G1 X88.458 Y126.8 E29.33588
M204 S5000
G0 X94.181 Y126.7
G0 X94.111 Y126.63
M204 S3000
G1 X94.111 Y113.37 E30.09996
G1 X89.297 Y113.37 E30.37736
G1 X89.087 Y113.37 E30.38946
G1 X89.087 Y113.58 E30.3973
G1 X89.088 Y126.63 E31.14928
G1 X94.111 Y126.63 E31.43872
M204 S5000
G0 X94.181 Y126.7
G0 X99.182 Y126.7
G0 X99.112 Y126.63
M204 S3000
G1 X99.112 Y126.42 E31.45082
G1 X99.111 Y113.37 E32.20281
G1 X95.402 Y113.37 E32.41653
G1 X95.192 Y113.37 E32.42863
G1 X95.192 Y113.58 E32.43647
G1 X95.193 Y126.63 E33.18845
G1 X98.902 Y126.63 E33.40218
G1 X99.112 Y126.63 E33.41001
M204 S5000
G0 X99.182 Y126.7
G0 X106.181 Y126.7
G0 X106.111 Y126.63
M204 S3000
G1 X106.111 Y126.42 E33.42211
G1 X106.11 Y113.37 E34.1741
G1 X100.402 Y113.37 E34.50301
G1 X100.192 Y113.37 E34.51511
G1 X100.192 Y113.58 E34.52295
G1 X100.193 Y126.63 E35.27493
G1 X105.901 Y126.63 E35.60384
G1 X106.111 Y126.63 E35.61168
M204 S5000
G0 X106.181 Y126.7
G0 X72.566 Y127.15
G0 X72.496 Y127.22
M204 S3000
G1 X72.496 Y112.78 E36.44376
G1 X106.982 Y112.779 E38.43095
G1 X107.192 Y112.779 E38.44305
G1 X107.192 Y112.989 E38.45089
G1 X107.192 Y127.22 E39.27092
G1 X72.496 Y127.22 E41.27022
M204 S5000
G0 X72.566 Y127.15
G0 X94.139 Y126.658
G0 X93.691 Y126.21
M204 S3000
;TYPE:WALL-OUTER
G1 X93.691 Y113.79 E41.9859
G1 X89.717 Y113.79 E42.21489
G1 X89.507 Y113.79 E42.22699
G1 X89.507 Y114 E42.23483
G1 X89.508 Y126.21 E42.93841
G1 X93.691 Y126.21 E43.17945
M204 S5000
G0 X93.691 Y126.01
G0 X94.211 Y126.01
G0 X95.165 Y126.658
G0 X99.14 Y126.658
G0 X98.692 Y126.21
M204 S3000
G1 X98.692 Y126 E43.19155
G1 X98.691 Y113.79 E43.89513
G1 X95.822 Y113.79 E44.06045
G1 X95.612 Y113.79 E44.07255
G1 X95.612 Y114 E44.08038
G1 X95.613 Y126.21 E44.78396
G1 X98.482 Y126.21 E44.94928
G1 X98.692 Y126.21 E44.95712
M204 S5000
G0 X98.692 Y126.01
G0 X99.212 Y126.01
G0 X100.165 Y126.658
G0 X106.139 Y126.658
G0 X105.691 Y126.21
M204 S3000
G1 X105.691 Y126 E44.96922
G1 X105.69 Y113.79 E45.6728
G1 X100.822 Y113.79 E45.95331
G1 X100.612 Y113.79 E45.96541
G1 X100.612 Y114 E45.97325
G1 X100.613 Y126.21 E46.67683
G1 X105.481 Y126.21 E46.95734
G1 X105.691 Y126.21 E46.96517
M204 S5000
G0 X105.691 Y126.01
G0 X106.211 Y126.01
G0 X107.122 Y112.849
G0 X107.612 Y112.578
M204 S3000
G1 X107.612 Y127.603 E47.83096
G1 X107.568 Y127.64 E47.83428
G1 X72.076 Y127.64 E49.87944
G1 X72.076 Y112.36 E50.75992
G1 X107.386 Y112.359 E52.79459
G1 X107.567 Y112.359 E52.80502
G1 X107.612 Y112.397 E52.80842
G1 X107.612 Y112.578 E52.81885
M204 S5000
G0 X107.612 Y112.778
G0 X107.122 Y112.849
G0 X89.059 Y113.342
G0 X88.257 Y113.61
M204 S3000
;TYPE:SKIN
G1 X88.258 Y126.39 E53.55527
G1 X73.326 Y126.39 E54.4157
G1 X73.326 Y113.61 E55.15213
G1 X88.257 Y113.61 E56.0125
M204 S5000
G0 X79.606 Y120.11
M204 S3000
G1 X79.606 Y119.89 E56.02517
G1 X81.977 Y119.89 E56.1618
G1 X81.978 Y120.11 E56.17448
G1 X79.606 Y120.11 E56.31116
M204 S5000
G0 X79.186 Y120.53
M204 S3000
G1 X79.186 Y119.47 E56.37224
G1 X82.397 Y119.47 E56.55727
G1 X82.398 Y120.53 E56.61835
G1 X79.186 Y120.53 E56.80343
M204 S5000
G0 X78.766 Y120.95
M204 S3000
G1 X78.766 Y119.05 E56.91292
G1 X82.817 Y119.05 E57.14635
G1 X82.818 Y120.95 E57.25583
G1 X78.766 Y120.95 E57.48932
M204 S5000
G0 X78.346 Y121.37
M204 S3000
G1 X78.346 Y118.63 E57.64721
G1 X83.237 Y118.63 E57.92904
G1 X83.238 Y121.37 E58.08693
G1 X78.346 Y121.37 E58.36882
M204 S5000
G0 X77.926 Y121.79
M204 S3000
G1 X77.926 Y118.21 E58.57512
G1 X83.657 Y118.21 E58.90535
G1 X83.658 Y121.79 E59.11165
G1 X77.926 Y121.79 E59.44194
M204 S5000
G0 X77.506 Y122.21
M204 S3000
G1 X77.506 Y117.79 E59.69664
G1 X84.077 Y117.79 E60.07528
G1 X84.078 Y122.21 E60.32997
G1 X77.506 Y122.21 E60.70867
M204 S5000
G0 X77.086 Y122.63
M204 S3000
G1 X77.086 Y117.37 E61.01177
G1 X84.497 Y117.37 E61.43882
G1 X84.498 Y122.63 E61.74191
G1 X77.086 Y122.63 E62.16902
M204 S5000
G0 X76.666 Y123.05
M204 S3000
G1 X76.666 Y116.95 E62.52052
G1 X84.917 Y116.95 E62.99597
G1 X84.918 Y123.05 E63.34747
G1 X76.666 Y123.05 E63.82297
M204 S5000
G0 X76.246 Y123.47
M204 S3000
G1 X76.246 Y116.53 E64.22288
G1 X85.337 Y116.53 E64.74673
G1 X85.338 Y123.47 E65.14664
G1 X76.246 Y123.47 E65.67055
M204 S5000
G0 X75.826 Y123.89
M204 S3000
G1 X75.826 Y116.11 E66.11886
G1 X85.757 Y116.11 E66.69111
G1 X85.758 Y123.89 E67.13942
G1 X75.826 Y123.89 E67.71173
M204 S5000
G0 X75.406 Y124.31
M204 S3000
G1 X75.406 Y115.69 E68.20844
G1 X86.177 Y115.69 E68.8291
G1 X86.178 Y124.31 E69.32582
G1 X75.406 Y124.31 E69.94653
M204 S5000
G0 X74.986 Y124.73
M204 S3000
G1 X74.986 Y115.27 E70.49165
G1 X86.597 Y115.27 E71.16071
G1 X86.598 Y124.73 E71.70583
G1 X74.986 Y124.73 E72.37495
M204 S5000
G0 X74.566 Y125.15
M204 S3000
G1 X74.566 Y114.85 E72.96847
G1 X87.017 Y114.85 E73.68593
G1 X87.018 Y125.15 E74.27945
G1 X74.566 Y125.15 E74.99697
M204 S5000
G0 X74.146 Y125.57
M204 S3000
G1 X74.146 Y114.43 E75.6389
G1 X87.437 Y114.43 E76.40477
G1 X87.438 Y125.57 E77.04669
G1 X74.146 Y125.57 E77.81262
M204 S5000
G0 X73.726 Y125.99
M204 S3000
G1 X73.726 Y114.01 E78.50294
G1 X87.857 Y114.01 E79.31721
G1 X87.858 Y125.99 E80.00754
G1 X73.726 Y125.99 E80.82187
M204 S5000
G0 X88.914 Y126.834
G0 X89.004 Y126.924
M204 S3000
;TYPE:SKIN
G1 X89.287 Y126.924 E80.82848
G1 X94.095 Y126.924 E80.9407
G1 X94.314 Y126.86 E80.94603
G1 X94.998 Y126.978 E80.96223
G1 X96.075 Y126.924 E80.9874
G1 X105.975 Y126.924 E81.21849
G1 X106.254 Y126.92 E81.225
M204 S5000
G0 X106.34 Y127.006
G0 X106.138 Y113.342
G0 X105.984 Y113.073
M204 S3000
G1 X105.701 Y113.073 E81.23164
G1 X98.065 Y113.074 E81.41073
G1 X95.236 Y113.074 E81.47709
G1 X95.002 Y113.123 E81.48269
G1 X94.318 Y113.005 E81.49897
G1 X93.539 Y113.074 E81.51732
G1 X89.014 Y113.074 E81.62345
M204 S5000
G0 X88.924 Y112.984
G0 X106.176 Y112.983
M204 S3000
G1 X106.339 Y113.146 E81.62977
M204 S5000
G0 X106.405 Y113.2
G1 F2700 E68.62977
;MESH:quick_release_male.stl
G0 F1200 X100.164 Y113.342
G0 X99.14 Y126.658
G0 X92.681 Y127.2
G0 X92.681 Y128.515
G0 X92.876 Y137.963
G0 X92.681 Y139.046
G0 X92.681 Y139.813
M204 S3000
;TYPE:WALL-INNER
G1 F2100 E81.62977
G1 F1200 X92.456 Y139.764 E81.64304
G1 X92.015 Y139.666 E81.66907
G1 X92.68 Y139.666 E81.70739
G1 X106.735 Y139.665 E82.51729
G1 X106.736 Y140.143 E82.54483
G1 X106.736 Y140.353 E82.55693
G1 X106.526 Y140.353 E82.56477
G1 X96.16 Y140.353 E83.16209
G1 X96.16 Y143.475 E83.34199
G1 X94.191 Y143.475 E83.45545
G1 X92.891 Y143.432 E83.5304
G1 X92.037 Y143.307 E83.58014
G1 X91.965 Y143.297 E83.58432
G1 X91.733 Y143.251 E83.59795
G1 X91.754 Y143.107 E83.60634
G1 X91.769 Y143.036 E83.61052
G1 X91.991 Y142.021 E83.67039
G1 X92.312 Y140.95 E83.73482
G1 X92.61 Y140.032 E83.79043
G1 X92.681 Y139.813 E83.79878
M204 S5000
G0 X94.175 Y143.915
G0 X106.176 Y143.943
G0 X107.04 Y144.963
G0 X106.741 Y146.094
G0 X106.173 Y146.922
G0 X105.547 Y147.554
G0 X89.06 Y147.735
M204 S3000
G1 X89.284 Y147.72 E83.81172
G1 X91.93 Y147.532 E83.96457
G1 X92.048 Y147.531 E83.97137
G1 X93.712 Y147.502 E84.06727
G1 X94.415 Y147.531 E84.10782
G1 X95.04 Y147.555 E84.14386
G1 X95.188 Y147.561 E84.15239
G1 X95.526 Y147.575 E84.17189
G1 X97.287 Y147.747 E84.27384
G1 X98.889 Y147.996 E84.36726
G1 X99.165 Y148.039 E84.38336
G1 X100.847 Y148.042 E84.48028
G1 X99.227 Y148.355 E84.51641
G1 X98.953 Y148.408 E84.53064
G1 X96.271 Y148.927 E84.68805
G1 X96.265 Y148.884 E84.69055
G1 X95.961 Y148.38 E84.72447
G1 X95.481 Y148.047 E84.75813
G1 X95.169 Y147.98 E84.77652
G1 X95.025 Y147.95 E84.78475
G1 X94.399 Y147.95 E84.81974
G1 X92.048 Y147.95 E84.95522
G1 X91.93 Y147.95 E84.962
G1 X89.06 Y147.95 E85.12738
G1 X88.409 Y147.95 E85.16489
G1 X88.409 Y144.111 E85.38611
G1 X88.847 Y144.102 E85.41135
G1 X88.848 Y144.101 E85.41143
G1 X89.06 Y144.099 E85.42365
G1 X89.06 Y144.311 E85.43153
G1 X89.06 Y144.312 E85.43159
G1 X89.06 Y147.51 E85.61587
G1 X89.06 Y147.511 E85.61592
G1 X89.06 Y147.735 E85.62412
M204 S5000
G0 X105.035 Y147.609
G0 X106.173 Y146.922
G0 X106.741 Y146.094
G0 X107.04 Y144.963
G0 X106.176 Y143.943
G0 X90.819 Y143.898
G0 X91.943 Y140.236
G0 X90.02 Y139.64
G0 X86.874 Y139.618
G0 X85.864 Y140.03
G0 X84.656 Y144.397
M204 S3000
G1 X84.015 Y151.3 E86.0236
G1 X82.815 Y151.3 E86.09275
G1 X82.814 Y137.91 E86.86433
G1 X82.814 Y137.7 E86.87643
G1 X83.024 Y137.7 E86.88426
G1 X91.16 Y137.7 E87.35309
G1 X91.16 Y138.273 E87.3861
G1 X91.209 Y139.217 E87.44057
G1 X91.223 Y139.491 E87.45638
G1 X90.955 Y139.432 E87.46591
G1 X90.329 Y139.293 E87.50286
G1 X90.184 Y139.176 E87.51359
G1 X86.837 Y139.176 E87.70646
G1 X86.153 Y139.286 E87.74638
G1 X85.523 Y139.717 E87.79036
G1 X85.136 Y140.407 E87.83595
G1 X85.058 Y141.039 E87.87264
G1 X85.151 Y141.801 E87.91688
G1 X85.373 Y142.487 E87.95843
G1 X85.861 Y143.467 E88.02151
G1 X85.862 Y144.187 E88.063
G1 X85.862 Y144.397 E88.0751
