;FLAVOR:Marlin
;TIME:874
;Filament used: 0.732655m
;Layer height: 0.2
;MINX:74.995
;MINY:104.98
;MINZ:0.3
;MAXX:105.019
;MAXY:135.019
;MAXZ:25.9
;Generated with Cura_SteamEngine 4.6.2
M140 S70
M105
M190 S70
M104 S237
M105
M109 S237
M82 ;absolute extrusion mode
G28 ;Home
G1 Z15.0 F6000 ;Move the platform down 15mm
G92 E0
G1 F200 E3
G92 E0
G92 E0
G92 E0
G1 F2700 E-13
;LAYER_COUNT:129
;LAYER:0
M107
M204 S5000
G0 F1200 X90.782 Y105.421 Z0.3
M204 S3000
;TYPE:SKIRT
G1 F2100 E0
G1 F1200 X91.434 Y105.475 E0.0377
G1 X92.331 Y105.597 E0.08986
G1 X93.457 Y105.82 E0.15601
G1 X94.02 Y105.963 E0.18948
G1 X95.363 Y106.426 E0.27134
G1 X95.973 Y106.676 E0.30932
G1 X96.605 Y106.978 E0.34969
G1 X97.241 Y107.326 E0.39146
G1 X98.031 Y107.818 E0.44509
G1 X98.986 Y108.498 E0.51265
G1 X99.434 Y108.854 E0.54562
G1 X100.403 Y109.767 E0.62234
G1 X101.218 Y110.66 E0.692
G1 X101.615 Y111.15 E0.72834
G1 X102.427 Y112.343 E0.8115
G1 X102.713 Y112.815 E0.8433
G1 X103.303 Y114.003 E0.91973
G1 X103.756 Y115.115 E0.98892
G1 X103.94 Y115.648 E1.02142
G1 X104.293 Y117.038 E1.10406
G1 X104.41 Y117.632 E1.13894
G1 X104.568 Y119.091 E1.2235
G1 X104.599 Y119.697 E1.25847
G1 X104.597 Y120.401 E1.29904
G1 X104.551 Y121.173 E1.3436
G1 X104.432 Y122.183 E1.4022
G1 X104.342 Y122.749 E1.43523
G1 X103.989 Y124.167 E1.51943
G1 X103.813 Y124.739 E1.55392
G1 X103.295 Y126.014 E1.63322
G1 X102.777 Y127.058 E1.70037
G1 X102.513 Y127.528 E1.73144
G1 X101.661 Y128.779 E1.81865
G1 X101.306 Y129.242 E1.85227
G1 X100.389 Y130.246 E1.93063
G1 X99.569 Y131.022 E1.99568
G1 X99.115 Y131.408 E2.03002
G1 X98.019 Y132.192 E2.10767
G1 X97.014 Y132.8 E2.17535
G1 X96.508 Y133.071 E2.20843
G1 X95.866 Y133.371 E2.24926
G1 X95.266 Y133.616 E2.28661
G1 X94.204 Y133.978 E2.35126
G1 X93.657 Y134.136 E2.38407
G1 X92.324 Y134.405 E2.46243
G1 X91.124 Y134.552 E2.53209
G1 X90.522 Y134.591 E2.56686
G1 X89.857 Y134.599 E2.60518
G1 X89.123 Y134.569 E2.64751
G1 X88.086 Y134.468 E2.70755
G1 X87.495 Y134.384 E2.74195
G1 X86.799 Y134.244 E2.78285
G1 X86.068 Y134.055 E2.82636
G1 X85.088 Y133.742 E2.88564
G1 X84.509 Y133.527 E2.92123
G1 X83.861 Y133.244 E2.96198
G1 X83.181 Y132.904 E3.00579
G1 X82.286 Y132.388 E3.06532
G1 X81.777 Y132.063 E3.10012
G1 X80.739 Y131.272 E3.17532
G1 X79.944 Y130.568 E3.23651
G1 X79.225 Y129.836 E3.29563
G1 X78.449 Y128.918 E3.3649
G1 X78.114 Y128.476 E3.39686
G1 X77.343 Y127.261 E3.47977
G1 X77.044 Y126.726 E3.51509
G1 X76.45 Y125.414 E3.59808
G1 X76.231 Y124.847 E3.6331
G1 X75.853 Y123.558 E3.71051
G1 X75.607 Y122.402 E3.77861
G1 X75.518 Y121.836 E3.81163
G1 X75.445 Y121.106 E3.8539
G1 X75.414 Y120.555 E3.8857
G1 X75.423 Y119.338 E3.95583
G1 X75.457 Y118.733 E3.99075
G1 X75.534 Y118.051 E4.0303
G1 X75.632 Y117.438 E4.06607
G1 X75.859 Y116.417 E4.12634
G1 X76.188 Y115.292 E4.19388
G1 X76.383 Y114.739 E4.22767
G1 X76.987 Y113.4 E4.31231
G1 X77.239 Y112.911 E4.34401
G1 X78.006 Y111.689 E4.42715
G1 X78.372 Y111.174 E4.46356
G1 X79.243 Y110.145 E4.54124
G1 X79.977 Y109.399 E4.60155
G1 X80.766 Y108.706 E4.66206
G1 X81.684 Y108.009 E4.72848
G1 X82.129 Y107.705 E4.75953
G1 X83.409 Y106.98 E4.8443
G1 X83.948 Y106.714 E4.87893
G1 X84.622 Y106.429 E4.9211
G1 X85.13 Y106.238 E4.95237
G1 X86.333 Y105.874 E5.0248
G1 X86.866 Y105.739 E5.05648
G1 X87.602 Y105.599 E5.09965
G1 X88.33 Y105.501 E5.14198
G1 X89.32 Y105.422 E5.19921
G1 X89.96 Y105.4 E5.23611
G1 X90.782 Y105.421 E5.28349
M204 S5000
G0 X90.806 Y105.002
M204 S3000
G1 X91.491 Y105.058 E5.32309
G1 X92.388 Y105.18 E5.37526
G1 X93.544 Y105.409 E5.44316
G1 X94.129 Y105.557 E5.47794
G1 X95.505 Y106.031 E5.5618
G1 X96.138 Y106.29 E5.60121
G1 X96.79 Y106.601 E5.64283
G1 X97.463 Y106.969 E5.68703
G1 X98.253 Y107.461 E5.74066
G1 X99.234 Y108.159 E5.81004
G1 X99.699 Y108.529 E5.84428
G1 X100.695 Y109.465 E5.92304
G1 X101.531 Y110.38 E5.99446
G1 X101.946 Y110.891 E6.03239
G1 X102.777 Y112.11 E6.1174
G1 X103.076 Y112.604 E6.15068
G1 X103.681 Y113.821 E6.22899
G1 X104.147 Y114.962 E6.30001
G1 X104.339 Y115.517 E6.33385
G1 X104.701 Y116.939 E6.41841
G1 X104.823 Y117.557 E6.4547
G1 X104.986 Y119.051 E6.5413
G1 X105.019 Y119.682 E6.57771
G1 X105.016 Y120.407 E6.61949
G1 X104.968 Y121.222 E6.66654
G1 X104.849 Y122.232 E6.72514
G1 X104.755 Y122.821 E6.75951
G1 X104.395 Y124.273 E6.84571
G1 X104.212 Y124.869 E6.88164
G1 X103.682 Y126.178 E6.96301
G1 X103.151 Y127.249 E7.0319
G1 X102.876 Y127.739 E7.06427
G1 X102.005 Y129.02 E7.15354
G1 X101.635 Y129.503 E7.1886
G1 X100.696 Y130.533 E7.26891
G1 X99.854 Y131.331 E7.33576
G1 X99.382 Y131.732 E7.37145
G1 X98.258 Y132.537 E7.45111
G1 X97.227 Y133.162 E7.52058
G1 X96.701 Y133.444 E7.55498
G1 X96.04 Y133.753 E7.59702
G1 X95.421 Y134.006 E7.63555
G1 X94.336 Y134.376 E7.70161
G1 X93.769 Y134.54 E7.73562
G1 X92.401 Y134.817 E7.81605
G1 X91.17 Y134.969 E7.88752
G1 X90.543 Y135.011 E7.92373
G1 X89.858 Y135.019 E7.96321
G1 X89.082 Y134.987 E8.00796
G1 X88.045 Y134.886 E8.068
G1 X87.429 Y134.799 E8.10385
G1 X86.712 Y134.655 E8.14599
G1 X85.94 Y134.455 E8.19194
G1 X84.96 Y134.142 E8.25122
G1 X84.357 Y133.919 E8.28827
G1 X83.69 Y133.628 E8.3302
G1 X82.971 Y133.267 E8.37656
G1 X82.076 Y132.751 E8.43609
G1 X81.545 Y132.413 E8.47236
G1 X80.48 Y131.603 E8.54947
G1 X79.661 Y130.879 E8.61246
G1 X78.922 Y130.126 E8.67325
G1 X78.125 Y129.186 E8.74427
G1 X77.775 Y128.724 E8.77766
G1 X76.986 Y127.482 E8.86245
G1 X76.675 Y126.926 E8.89916
G1 X76.065 Y125.582 E8.98421
G1 X75.837 Y124.993 E9.02061
G1 X75.448 Y123.67 E9.10007
G1 X75.196 Y122.484 E9.16994
G1 X75.103 Y121.895 E9.2043
G1 X75.027 Y121.144 E9.24779
G1 X74.995 Y120.574 E9.28069
G1 X75.003 Y119.332 E9.35226
G1 X75.038 Y118.703 E9.38856
G1 X75.117 Y118.001 E9.42927
G1 X75.218 Y117.367 E9.46626
G1 X75.449 Y116.322 E9.52793
G1 X75.786 Y115.17 E9.59709
G1 X75.989 Y114.593 E9.63234
G1 X76.606 Y113.223 E9.71892
G1 X76.869 Y112.713 E9.75199
G1 X77.653 Y111.462 E9.83706
G1 X78.033 Y110.926 E9.87492
G1 X78.926 Y109.87 E9.95461
G1 X79.681 Y109.101 E10.01671
G1 X80.493 Y108.387 E10.07902
G1 X81.433 Y107.672 E10.14707
G1 X81.897 Y107.354 E10.17948
G1 X83.206 Y106.612 E10.26619
G1 X83.769 Y106.335 E10.30234
G1 X84.461 Y106.041 E10.34567
G1 X84.987 Y105.843 E10.37805
G1 X86.215 Y105.471 E10.45199
G1 X86.769 Y105.331 E10.48492
G1 X87.528 Y105.186 E10.52945
G1 X88.296 Y105.082 E10.5741
G1 X89.286 Y105.003 E10.63133
G1 X89.952 Y104.98 E10.66973
G1 X90.806 Y105.002 E10.71896
M204 S5000
G1 F2700 E-2.28104
;MESH:acoplefiltropeq.stl
G0 F1200 X90.588 Y109.954
G0 X90.474 Y111.262
G0 X91.079 Y111.297
M204 S3000
;TYPE:WALL-INNER
G1 F2100 E10.71896
G1 F1200 X91.693 Y111.395 E10.75479
G1 X92.296 Y111.535 E10.79046
G1 X92.884 Y111.718 E10.82594
G1 X93.471 Y111.946 E10.86223
G1 X94.03 Y112.209 E10.89783
G1 X94.563 Y112.509 E10.93307
G1 X95.075 Y112.847 E10.96842
G1 X95.58 Y113.232 E11.00502
G1 X96.033 Y113.633 E11.03988
G1 X96.473 Y114.081 E11.07606
G1 X96.87 Y114.545 E11.11125
G1 X97.241 Y115.049 E11.14731
G1 X97.569 Y115.565 E11.18254
G1 X97.867 Y116.119 E11.21879
G1 X98.119 Y116.679 E11.25418
G1 X98.335 Y117.263 E11.29006
G1 X98.504 Y117.848 E11.32515
G1 X98.636 Y118.458 E11.36111
G1 X98.724 Y119.081 E11.39737
G1 X98.767 Y119.681 E11.43203
G1 X98.767 Y120.316 E11.46862
G1 X98.724 Y120.919 E11.50345
G1 X98.635 Y121.542 E11.53972
G1 X98.505 Y122.148 E11.57543
G1 X98.335 Y122.737 E11.61076
G1 X98.119 Y123.321 E11.64664
G1 X97.867 Y123.881 E11.68202
G1 X97.57 Y124.432 E11.71809
G1 X97.241 Y124.951 E11.7535
G1 X96.875 Y125.448 E11.78907
G1 X96.473 Y125.919 E11.82475
G1 X96.037 Y126.363 E11.86061
G1 X95.58 Y126.768 E11.89579
G1 X95.076 Y127.152 E11.9323
G1 X94.563 Y127.491 E11.96774
G1 X94.03 Y127.791 E12.00298
G1 X93.471 Y128.054 E12.03858
G1 X92.884 Y128.282 E12.07487
G1 X92.296 Y128.465 E12.11035
G1 X91.693 Y128.605 E12.14602
G1 X91.079 Y128.703 E12.18185
G1 X90.475 Y128.757 E12.21679
G1 X89.845 Y128.769 E12.2531
G1 X89.229 Y128.735 E12.28865
G1 X88.618 Y128.661 E12.32412
G1 X88.01 Y128.54 E12.35984
G1 X87.413 Y128.378 E12.39548
G1 X86.829 Y128.175 E12.43111
G1 X86.257 Y127.93 E12.46697
G1 X85.701 Y127.642 E12.50305
G1 X85.179 Y127.324 E12.53827
G1 X84.673 Y126.964 E12.57406
G1 X84.194 Y126.57 E12.60979
G1 X83.756 Y126.154 E12.6446
G1 X83.321 Y125.679 E12.68172
G1 X82.942 Y125.202 E12.71682
G1 X82.6 Y124.7 E12.75183
G1 X82.276 Y124.147 E12.78876
G1 X82.01 Y123.609 E12.82334
G1 X81.776 Y123.041 E12.85874
G1 X81.577 Y122.432 E12.89566
G1 X81.427 Y121.837 E12.93102
G1 X81.32 Y121.237 E12.96614
G1 X81.254 Y120.611 E13.00241
G1 X81.233 Y120.006 E13.03729
G1 X81.254 Y119.389 E13.07287
G1 X81.321 Y118.758 E13.10943
G1 X81.427 Y118.163 E13.14426
G1 X81.577 Y117.568 E13.17961
G1 X81.771 Y116.975 E13.21557
G1 X82.017 Y116.376 E13.25288
G1 X82.28 Y115.846 E13.28697
G1 X82.601 Y115.298 E13.32357
G1 X82.942 Y114.798 E13.35844
G1 X83.321 Y114.321 E13.39355
G1 X83.756 Y113.846 E13.43067
G1 X84.194 Y113.43 E13.46547
G1 X84.673 Y113.036 E13.50121
G1 X85.18 Y112.675 E13.53708
G1 X85.701 Y112.358 E13.57222
G1 X86.257 Y112.07 E13.6083
G1 X86.831 Y111.824 E13.64429
G1 X87.413 Y111.622 E13.67978
G1 X88.01 Y111.46 E13.71543
G1 X88.618 Y111.339 E13.75115
G1 X89.229 Y111.265 E13.78662
G1 X89.845 Y111.231 E13.82217
G1 X90.475 Y111.243 E13.85848
G1 X91.079 Y111.297 E13.89342
M204 S5000
G0 X91.067 Y111.396
G0 X94.402 Y113.236
G0 X95.418 Y114.017
G0 X96.298 Y114.95
G0 X97.019 Y116.012
G0 X97.562 Y117.173
G0 X97.914 Y118.407
G0 X98.066 Y119.68
G0 X98.015 Y120.96
G0 X97.762 Y122.216
G0 X97.313 Y123.418
G0 X96.68 Y124.533
G0 X95.877 Y125.533
G0 X94.925 Y126.394
G0 X93.852 Y127.093
G0 X92.903 Y127.514
G0 X91.449 Y128.001
G0 X91.432 Y127.903
M204 S3000
G1 X92.056 Y127.763 E13.93027
G1 X92.666 Y127.576 E13.96703
G1 X93.259 Y127.34 E14.00381
G1 X93.833 Y127.058 E14.04066
G1 X94.381 Y126.731 E14.07744
G1 X94.901 Y126.363 E14.11414
G1 X95.392 Y125.954 E14.15097
G1 X95.848 Y125.506 E14.1878
G1 X96.267 Y125.025 E14.22456
G1 X96.647 Y124.511 E14.26139
G1 X96.985 Y123.969 E14.2982
G1 X97.277 Y123.402 E14.33495
G1 X97.525 Y122.813 E14.37178
G1 X97.724 Y122.206 E14.40859
G1 X97.875 Y121.586 E14.44536
G1 X97.976 Y120.956 E14.48212
G1 X98.027 Y120.319 E14.51895
G1 X98.027 Y119.681 E14.55571
G1 X97.976 Y119.044 E14.59253
G1 X97.875 Y118.414 E14.6293
G1 X97.724 Y117.794 E14.66607
G1 X97.525 Y117.187 E14.70288
G1 X97.277 Y116.598 E14.73971
G1 X96.985 Y116.031 E14.77646
G1 X96.647 Y115.489 E14.81326
G1 X96.267 Y114.975 E14.8501
G1 X95.848 Y114.494 E14.88686
G1 X95.392 Y114.046 E14.92369
G1 X94.901 Y113.637 E14.96051
G1 X94.381 Y113.269 E14.99722
G1 X93.833 Y112.942 E15.03399
G1 X93.259 Y112.66 E15.07085
G1 X92.666 Y112.424 E15.10762
G1 X92.056 Y112.237 E15.14439
G1 X91.432 Y112.097 E15.18124
G1 X90.8 Y112.01 E15.218
G1 X90.163 Y111.971 E15.25478
G1 X89.524 Y111.983 E15.2916
G1 X88.889 Y112.048 E15.32838
G1 X88.26 Y112.161 E15.36521
G1 X87.642 Y112.324 E15.40204
G1 X87.041 Y112.536 E15.43876
G1 X86.457 Y112.794 E15.47555
G1 X85.895 Y113.099 E15.5124
G1 X85.36 Y113.448 E15.54921
G1 X84.854 Y113.838 E15.58602
G1 X84.382 Y114.266 E15.62273
G1 X83.943 Y114.73 E15.65954
G1 X83.544 Y115.228 E15.69631
G1 X83.185 Y115.757 E15.73315
G1 X82.87 Y116.311 E15.76987
G1 X82.599 Y116.89 E15.80671
G1 X82.375 Y117.488 E15.84351
G1 X82.201 Y118.102 E15.88028
G1 X82.074 Y118.728 E15.91709
G1 X81.997 Y119.362 E15.95389
G1 X81.973 Y120 E15.99068
G1 X81.997 Y120.638 E16.02747
G1 X82.074 Y121.272 E16.06427
G1 X82.201 Y121.898 E16.10108
G1 X82.375 Y122.512 E16.13785
G1 X82.599 Y123.11 E16.17465
G1 X82.87 Y123.689 E16.21149
G1 X83.185 Y124.243 E16.24821
G1 X83.544 Y124.772 E16.28505
G1 X83.943 Y125.27 E16.32182
G1 X84.382 Y125.734 E16.35863
G1 X84.854 Y126.162 E16.39534
G1 X85.36 Y126.552 E16.43215
G1 X85.895 Y126.901 E16.46896
G1 X86.457 Y127.206 E16.50581
G1 X87.041 Y127.464 E16.5426
G1 X87.642 Y127.676 E16.57932
G1 X88.26 Y127.839 E16.61615
G1 X88.889 Y127.952 E16.65298
G1 X89.524 Y128.017 E16.68976
G1 X90.163 Y128.029 E16.72658
G1 X90.8 Y127.99 E16.76336
G1 X91.432 Y127.903 E16.80012
M204 S5000
G0 X91.449 Y128.001
G0 X89.522 Y128.056
G0 X88.252 Y127.878
G0 X87.027 Y127.501
G0 X85.875 Y126.935
G0 X84.829 Y126.192
G0 X83.913 Y125.296
G0 X83.152 Y124.264
G0 X82.563 Y123.125
G0 X82.163 Y121.907
G0 X81.998 Y120.882
G0 X81.901 Y119.332
G0 X82.416 Y119.395
M204 S3000
;TYPE:WALL-OUTER
G1 X82.393 Y120 E16.83501
G1 X82.416 Y120.605 E16.8699
G1 X82.489 Y121.205 E16.90472
G1 X82.609 Y121.799 E16.93964
G1 X82.774 Y122.381 E16.9745
G1 X82.986 Y122.947 E17.00933
G1 X83.243 Y123.496 E17.04426
G1 X83.542 Y124.021 E17.07907
G1 X83.882 Y124.522 E17.11396
G1 X84.26 Y124.994 E17.14881
G1 X84.676 Y125.434 E17.1837
G1 X85.124 Y125.84 E17.21854
G1 X85.603 Y126.209 E17.25338
G1 X86.11 Y126.54 E17.28827
G1 X86.642 Y126.829 E17.32316
G1 X87.196 Y127.073 E17.35804
G1 X87.766 Y127.274 E17.39287
G1 X88.351 Y127.429 E17.42774
G1 X88.947 Y127.536 E17.46263
G1 X89.549 Y127.597 E17.4975
G1 X90.154 Y127.609 E17.53237
G1 X90.758 Y127.572 E17.56724
G1 X91.357 Y127.489 E17.60208
G1 X91.948 Y127.357 E17.63698
G1 X92.527 Y127.179 E17.67188
G1 X93.089 Y126.956 E17.70672
G1 X93.632 Y126.689 E17.74159
G1 X94.152 Y126.379 E17.77648
G1 X94.645 Y126.03 E17.81128
G1 X95.11 Y125.642 E17.84618
G1 X95.542 Y125.218 E17.88106
G1 X95.939 Y124.762 E17.9159
G1 X96.299 Y124.275 E17.9508
G1 X96.619 Y123.761 E17.98569
G1 X96.896 Y123.224 E18.0205
G1 X97.131 Y122.666 E18.05539
G1 X97.32 Y122.091 E18.09027
G1 X97.463 Y121.503 E18.12514
G1 X97.559 Y120.906 E18.15998
G1 X97.607 Y120.302 E18.1949
G1 X97.607 Y119.698 E18.2297
G1 X97.559 Y119.094 E18.26461
G1 X97.463 Y118.497 E18.29946
G1 X97.32 Y117.909 E18.33433
G1 X97.131 Y117.334 E18.36921
G1 X96.896 Y116.776 E18.40409
G1 X96.619 Y116.239 E18.43891
G1 X96.299 Y115.725 E18.4738
G1 X95.939 Y115.238 E18.5087
G1 X95.542 Y114.782 E18.54354
G1 X95.11 Y114.358 E18.57842
G1 X94.645 Y113.97 E18.61332
G1 X94.152 Y113.621 E18.64812
G1 X93.632 Y113.311 E18.68301
G1 X93.089 Y113.044 E18.71787
G1 X92.527 Y112.821 E18.75271
G1 X91.948 Y112.643 E18.78762
G1 X91.357 Y112.511 E18.82251
G1 X90.758 Y112.428 E18.85736
G1 X90.154 Y112.391 E18.89223
G1 X89.549 Y112.403 E18.9271
G1 X88.947 Y112.464 E18.96196
G1 X88.351 Y112.571 E18.99686
G1 X87.766 Y112.726 E19.03173
G1 X87.196 Y112.927 E19.06656
G1 X86.642 Y113.171 E19.10144
G1 X86.11 Y113.46 E19.13633
G1 X85.603 Y113.791 E19.17122
G1 X85.124 Y114.16 E19.20606
G1 X84.676 Y114.566 E19.2409
G1 X84.26 Y115.006 E19.27579
G1 X83.882 Y115.478 E19.31063
G1 X83.542 Y115.979 E19.34552
G1 X83.243 Y116.504 E19.38034
G1 X82.986 Y117.053 E19.41527
G1 X82.774 Y117.619 E19.4501
G1 X82.609 Y118.201 E19.48495
G1 X82.489 Y118.795 E19.51987
G1 X82.416 Y119.395 E19.5547
M204 S5000
G0 X82.409 Y119.595
G0 X81.889 Y119.576
G0 X82.163 Y118.093
G0 X82.563 Y116.875
G0 X83.152 Y115.736
G0 X83.913 Y114.704
G0 X84.829 Y113.808
G0 X85.875 Y113.065
G0 X87.027 Y112.499
G0 X91.067 Y111.396
G0 X91.139 Y110.881
M204 S3000
G1 X91.769 Y110.982 E19.59147
G1 X92.408 Y111.13 E19.62926
G1 X93.028 Y111.323 E19.66668
G1 X93.632 Y111.557 E19.70401
G1 X94.222 Y111.835 E19.74159
G1 X94.784 Y112.152 E19.77877
G1 X95.319 Y112.504 E19.81567
G1 X95.846 Y112.907 E19.8539
G1 X96.321 Y113.327 E19.89044
G1 X96.781 Y113.795 E19.92825
G1 X97.198 Y114.283 E19.96524
G1 X97.592 Y114.817 E20.00348
G1 X97.931 Y115.351 E20.03993
G1 X98.245 Y115.935 E20.07813
G1 X98.506 Y116.514 E20.11473
G1 X98.733 Y117.129 E20.15251
G1 X98.915 Y117.759 E20.19029
G1 X99.049 Y118.379 E20.22685
G1 X99.142 Y119.035 E20.26502
G1 X99.187 Y119.668 E20.30159
G1 X99.187 Y120.332 E20.33985
G1 X99.142 Y120.965 E20.37642
G1 X99.049 Y121.618 E20.41443
G1 X98.915 Y122.241 E20.45115
G1 X98.733 Y122.871 E20.48894
G1 X98.506 Y123.486 E20.52671
G1 X98.245 Y124.065 E20.56331
G1 X97.932 Y124.646 E20.60134
G1 X97.592 Y125.183 E20.63796
G1 X97.2 Y125.714 E20.67599
G1 X96.781 Y126.205 E20.71319
G1 X96.323 Y126.671 E20.75084
G1 X95.846 Y127.093 E20.78754
G1 X95.32 Y127.495 E20.82569
G1 X94.784 Y127.848 E20.86267
G1 X94.222 Y128.165 E20.89985
G1 X93.632 Y128.443 E20.93743
G1 X93.028 Y128.677 E20.97476
G1 X92.408 Y128.87 E21.01217
G1 X91.769 Y129.018 E21.04997
G1 X91.139 Y129.119 E21.08674
G1 X90.491 Y129.177 E21.12422
