;FLAVOR:Marlin
;TIME:8476
;Filament used: 9.12452m
;Layer height: 0.2
;MINX:27.37
;MINY:105.87
;MINZ:0.3
;MAXX:152.63
;MAXY:158.13
;MAXZ:15.9
;Generated with Cura_SteamEngine 4.6.2
M140 S70
M105
M190 S70
M104 S237
M105
M109 S237
M82 ;absolute extrusion mode
G28 ;Home
G1 Z15.0 F6000 ;Move the platform down 15mm
G92 E0
G1 F200 E3
G92 E0
G92 E0
G92 E0
G1 F2700 E-13
;LAYER_COUNT:79
;LAYER:0
M107
M204 S5000
G0 F1200 X147.066 Y106.301 Z0.3
M204 S3000
;TYPE:SKIRT
G1 F2100 E0
G1 F1200 X147.709 Y106.35 E0.03716
G1 X148.341 Y106.478 E0.07432
G1 X148.953 Y106.684 E0.11153
G1 X149.535 Y106.963 E0.14872
G1 X150.077 Y107.312 E0.18586
G1 X150.572 Y107.726 E0.22305
G1 X151.013 Y108.198 E0.26027
G1 X151.391 Y108.721 E0.29745
G1 X151.702 Y109.286 E0.33462
G1 X151.941 Y109.885 E0.37178
G1 X152.104 Y110.51 E0.409
G1 X152.199 Y111.364 E0.45851
G1 X152.21 Y127.834 E1.40757
G1 X152.19 Y129.286 E1.49124
G1 X152.151 Y130.666 E1.5708
G1 X152.151 Y133.351 E1.72551
G1 X152.182 Y134.793 E1.80863
G1 X152.208 Y135.677 E1.85959
G1 X152.21 Y151.828 E2.79026
G1 X152.201 Y152.555 E2.83215
G1 X152.153 Y153.199 E2.86937
G1 X152.026 Y153.832 E2.90657
G1 X151.821 Y154.444 E2.94376
G1 X151.543 Y155.026 E2.98093
G1 X151.195 Y155.569 E3.01809
G1 X150.782 Y156.065 E3.05528
G1 X150.311 Y156.506 E3.09246
G1 X149.789 Y156.886 E3.12967
G1 X149.224 Y157.198 E3.16686
G1 X148.625 Y157.438 E3.20404
G1 X148.001 Y157.602 E3.24122
G1 X147.137 Y157.699 E3.29132
G1 X33.64 Y157.71 E9.83138
G1 X32.942 Y157.701 E9.8716
G1 X32.298 Y157.652 E9.90882
G1 X31.666 Y157.525 E9.94597
G1 X31.054 Y157.32 E9.98316
G1 X30.472 Y157.041 E10.02035
G1 X29.929 Y156.693 E10.05751
G1 X29.433 Y156.28 E10.0947
G1 X28.992 Y155.809 E10.13188
G1 X28.613 Y155.287 E10.16905
G1 X28.301 Y154.722 E10.20625
G1 X28.061 Y154.123 E10.24343
G1 X27.897 Y153.499 E10.28061
G1 X27.801 Y152.632 E10.33087
G1 X27.79 Y136.207 E11.27733
G1 X27.811 Y134.713 E11.36343
G1 X27.849 Y133.334 E11.44292
G1 X27.849 Y130.649 E11.59764
G1 X27.817 Y129.166 E11.68312
G1 X27.792 Y128.323 E11.73171
G1 X27.79 Y112.103 E12.66636
G1 X27.799 Y111.438 E12.70469
G1 X27.848 Y110.795 E12.74184
G1 X27.976 Y110.163 E12.779
G1 X28.181 Y109.551 E12.81619
G1 X28.46 Y108.969 E12.85338
G1 X28.809 Y108.426 E12.89058
G1 X29.222 Y107.931 E12.92773
G1 X29.694 Y107.49 E12.96495
G1 X30.216 Y107.111 E13.00212
G1 X30.781 Y106.799 E13.03931
G1 X31.38 Y106.56 E13.07647
G1 X32.005 Y106.397 E13.11369
G1 X32.863 Y106.301 E13.16344
G1 X146.293 Y106.29 E19.69964
G1 X147.066 Y106.301 E19.74419
M204 S5000
G0 X147.072 Y105.881
M204 S3000
G1 X147.741 Y105.93 E19.78284
G1 X148.399 Y106.059 E19.82148
G1 X149.037 Y106.265 E19.86011
G1 X149.647 Y106.546 E19.89881
G1 X150.218 Y106.897 E19.93743
G1 X150.744 Y107.313 E19.97608
G1 X151.217 Y107.79 E20.01479
G1 X151.629 Y108.319 E20.05342
G1 X151.976 Y108.893 E20.09207
G1 X152.252 Y109.504 E20.13071
G1 X152.453 Y110.144 E20.16936
G1 X152.577 Y110.804 E20.20806
G1 X152.619 Y111.352 E20.23973
G1 X152.63 Y127.762 E21.18532
G1 X152.609 Y129.292 E21.2735
G1 X152.571 Y130.678 E21.35339
G1 X152.571 Y133.342 E21.5069
G1 X152.602 Y134.78 E21.58978
G1 X152.628 Y135.664 E21.64074
G1 X152.63 Y151.834 E22.57251
G1 X152.621 Y152.561 E22.6144
G1 X152.572 Y153.23 E22.65306
G1 X152.445 Y153.888 E22.69167
G1 X152.24 Y154.527 E22.73034
G1 X151.96 Y155.137 E22.76902
G1 X151.61 Y155.709 E22.80766
G1 X151.195 Y156.236 E22.84631
G1 X150.72 Y156.709 E22.88494
G1 X150.191 Y157.123 E22.92365
G1 X149.618 Y157.471 E22.96228
G1 X149.007 Y157.748 E23.00094
G1 X148.367 Y157.95 E23.03961
G1 X147.708 Y158.075 E23.07826
G1 X147.149 Y158.119 E23.11057
G1 X33.634 Y158.13 E29.65167
G1 X32.936 Y158.121 E29.69189
G1 X32.267 Y158.072 E29.73054
G1 X31.609 Y157.944 E29.76917
G1 X30.97 Y157.739 E29.80784
G1 X30.36 Y157.459 E29.84652
G1 X29.788 Y157.109 E29.88516
G1 X29.262 Y156.693 E29.9238
G1 X28.789 Y156.218 E29.96243
G1 X28.376 Y155.689 E30.0011
G1 X28.028 Y155.115 E30.03978
G1 X27.751 Y154.504 E30.07844
G1 X27.549 Y153.865 E30.11705
G1 X27.425 Y153.205 E30.15575
G1 X27.381 Y152.643 E30.18823
G1 X27.37 Y136.207 E31.13533
G1 X27.391 Y134.707 E31.22177
G1 X27.429 Y133.322 E31.30161
G1 X27.429 Y130.658 E31.45512
G1 X27.397 Y129.175 E31.54059
G1 X27.372 Y128.336 E31.58896
G1 X27.37 Y112.174 E32.52027
G1 X27.38 Y111.433 E32.56297
G1 X27.429 Y110.764 E32.60162
G1 X27.557 Y110.105 E32.64031
G1 X27.762 Y109.467 E32.67892
G1 X28.043 Y108.857 E32.71762
G1 X28.393 Y108.285 E32.75626
G1 X28.809 Y107.759 E32.7949
G1 X29.285 Y107.286 E32.83357
G1 X29.814 Y106.873 E32.87225
G1 X30.388 Y106.526 E32.91089
G1 X30.999 Y106.25 E32.94953
G1 X31.639 Y106.048 E32.9882
G1 X32.298 Y105.924 E33.02684
G1 X32.851 Y105.881 E33.0588
G1 X146.293 Y105.87 E39.59569
G1 X147.072 Y105.881 E39.64058
M204 S5000
G1 F2700 E26.64058
;MESH:ozonotapa2.stl(1)
G0 F1200 X146.556 Y110.835
G0 X146.556 Y111.944
G0 X68.22 Y117.542
G0 X67.492 Y122.458
G0 X38.45 Y123.05
M204 S3000
;TYPE:WALL-INNER
G1 F2100 E39.64058
G1 F1200 X141.55 Y123.05 E45.58153
G1 X141.55 Y116.95 E45.93304
G1 X38.45 Y116.95 E51.87399
G1 X38.45 Y123.05 E52.22549
M204 S5000
G0 X34.05 Y127.45
M204 S3000
G1 X34.05 Y112.55 E53.08407
G1 X145.95 Y112.55 E59.53211
G1 X145.95 Y127.45 E60.39069
G1 X34.05 Y127.45 E66.83873
M204 S5000
G0 X33.63 Y127.87
M204 S3000
G1 X33.63 Y112.13 E67.74572
G1 X146.37 Y112.13 E74.24215
G1 X146.37 Y127.87 E75.14914
G1 X33.63 Y127.87 E81.64558
M204 S5000
G0 X38.87 Y117.37
M204 S3000
G1 X38.87 Y122.63 E81.94868
G1 X141.13 Y122.63 E87.84123
G1 X141.13 Y117.37 E88.14432
G1 X38.87 Y117.37 E94.03687
M204 S5000
G0 X38.97 Y122.21
G0 X39.29 Y122.21
M204 S3000
;TYPE:WALL-OUTER
G1 X40.21 Y122.21 E94.08988
G1 X40.21 Y117.79 E94.34458
G1 X39.29 Y117.79 E94.39759
G1 X39.29 Y122.21 E94.65229
M204 S5000
G0 X39.49 Y122.21
G0 X39.49 Y122.53
G0 X40.893 Y122.21
G0 X40.993 Y122.21
M204 S3000
G1 X41.913 Y122.21 E94.7053
G1 X41.913 Y117.79 E94.95999
G1 X40.993 Y117.79 E95.01301
G1 X40.993 Y122.21 E95.2677
M204 S5000
G0 X41.193 Y122.21
G0 X40.893 Y122.21
G0 X41.843 Y122.458
G0 X42.697 Y122.21
M204 S3000
G1 X43.617 Y122.21 E95.32071
G1 X43.617 Y117.79 E95.57541
G1 X42.697 Y117.79 E95.62842
G1 X42.697 Y122.21 E95.88312
M204 S5000
G0 X42.897 Y122.21
G0 X42.597 Y122.21
G0 X43.547 Y122.458
G0 X44.4 Y122.21
M204 S3000
G1 X45.32 Y122.21 E95.93613
G1 X45.32 Y117.79 E96.19082
G1 X44.4 Y117.79 E96.24384
G1 X44.4 Y122.21 E96.49853
M204 S5000
G0 X44.6 Y122.21
G0 X44.3 Y122.21
G0 X45.25 Y122.458
G0 X46.104 Y122.21
M204 S3000
G1 X47.024 Y122.21 E96.55155
G1 X47.024 Y117.79 E96.80624
G1 X46.104 Y117.79 E96.85925
G1 X46.104 Y122.21 E97.11395
M204 S5000
G0 X46.304 Y122.21
G0 X46.004 Y122.21
G0 X46.954 Y122.458
G0 X47.807 Y122.21
M204 S3000
G1 X48.727 Y122.21 E97.16696
G1 X48.727 Y117.79 E97.42166
G1 X47.807 Y117.79 E97.47467
G1 X47.807 Y122.21 E97.72936
M204 S5000
G0 X48.007 Y122.21
G0 X47.707 Y122.21
G0 X48.657 Y122.458
G0 X49.51 Y122.21
M204 S3000
G1 X50.43 Y122.21 E97.78238
G1 X50.43 Y117.79 E98.03707
G1 X49.51 Y117.79 E98.09008
G1 X49.51 Y122.21 E98.34478
M204 S5000
G0 X49.71 Y122.21
G0 X49.41 Y122.21
G0 X50.36 Y122.458
G0 X51.214 Y122.21
M204 S3000
G1 X52.134 Y122.21 E98.39779
G1 X52.134 Y117.79 E98.65249
G1 X51.214 Y117.79 E98.7055
G1 X51.214 Y122.21 E98.96019
M204 S5000
G0 X51.414 Y122.21
G0 X51.114 Y122.21
G0 X52.064 Y122.458
G0 X52.917 Y122.21
M204 S3000
G1 X53.837 Y122.21 E99.01321
G1 X53.837 Y117.79 E99.2679
G1 X52.917 Y117.79 E99.32092
G1 X52.917 Y122.21 E99.57561
M204 S5000
G0 X53.117 Y122.21
G0 X52.817 Y122.21
G0 X53.767 Y122.458
G0 X54.621 Y122.21
M204 S3000
G1 X55.541 Y122.21 E99.62862
G1 X55.541 Y117.79 E99.88332
G1 X54.621 Y117.79 E99.93633
G1 X54.621 Y122.21 E100.19103
M204 S5000
G0 X54.821 Y122.21
G0 X54.521 Y122.21
G0 X55.471 Y122.458
G0 X56.324 Y122.21
M204 S3000
G1 X57.244 Y122.21 E100.24404
G1 X57.244 Y117.79 E100.49873
G1 X56.324 Y117.79 E100.55175
G1 X56.324 Y122.21 E100.80644
M204 S5000
G0 X56.524 Y122.21
G0 X56.224 Y122.21
G0 X57.174 Y122.458
G0 X58.027 Y122.21
M204 S3000
G1 X58.947 Y122.21 E100.85946
G1 X58.947 Y117.79 E101.11415
G1 X58.027 Y117.79 E101.16716
G1 X58.027 Y122.21 E101.42186
M204 S5000
G0 X58.227 Y122.21
G0 X57.927 Y122.21
G0 X58.877 Y122.458
G0 X59.731 Y122.21
M204 S3000
G1 X60.651 Y122.21 E101.47487
G1 X60.651 Y117.79 E101.72957
G1 X59.731 Y117.79 E101.78258
G1 X59.731 Y122.21 E102.03727
M204 S5000
G0 X59.931 Y122.21
G0 X59.631 Y122.21
G0 X60.581 Y122.458
G0 X61.434 Y122.21
M204 S3000
G1 X62.354 Y122.21 E102.09029
G1 X62.354 Y117.79 E102.34498
G1 X61.434 Y117.79 E102.39799
G1 X61.434 Y122.21 E102.65269
M204 S5000
G0 X61.634 Y122.21
G0 X61.334 Y122.21
G0 X62.284 Y122.458
G0 X63.137 Y122.21
M204 S3000
G1 X64.057 Y122.21 E102.7057
G1 X64.057 Y117.79 E102.9604
G1 X63.137 Y117.79 E103.01341
G1 X63.137 Y122.21 E103.2681
M204 S5000
G0 X63.337 Y122.21
G0 X63.037 Y122.21
G0 X63.987 Y122.458
G0 X64.841 Y122.21
M204 S3000
G1 X65.761 Y122.21 E103.32112
G1 X65.761 Y117.79 E103.57581
G1 X64.841 Y117.79 E103.62883
G1 X64.841 Y122.21 E103.88352
M204 S5000
G0 X65.041 Y122.21
G0 X64.741 Y122.21
G0 X65.691 Y122.458
G0 X66.544 Y122.21
M204 S3000
G1 X67.464 Y122.21 E103.93653
G1 X67.464 Y117.79 E104.19123
G1 X66.544 Y117.79 E104.24424
G1 X66.544 Y122.21 E104.49894
M204 S5000
G0 X66.744 Y122.21
G0 X66.444 Y122.21
G0 X67.394 Y122.458
G0 X68.248 Y122.21
M204 S3000
G1 X69.168 Y122.21 E104.55195
G1 X69.168 Y117.79 E104.80664
G1 X68.248 Y117.79 E104.85966
G1 X68.248 Y122.21 E105.11435
M204 S5000
G0 X68.448 Y122.21
G0 X68.148 Y122.21
G0 X69.098 Y122.458
G0 X69.951 Y122.21
M204 S3000
G1 X70.871 Y122.21 E105.16736
G1 X70.871 Y117.79 E105.42206
G1 X69.951 Y117.79 E105.47507
G1 X69.951 Y122.21 E105.72977
M204 S5000
G0 X70.151 Y122.21
G0 X69.851 Y122.21
G0 X70.801 Y122.458
G0 X71.654 Y122.21
M204 S3000
G1 X72.574 Y122.21 E105.78278
G1 X72.574 Y117.79 E106.03747
G1 X71.654 Y117.79 E106.09049
G1 X71.654 Y122.21 E106.34518
M204 S5000
G0 X71.854 Y122.21
G0 X71.554 Y122.21
G0 X72.504 Y122.458
G0 X73.358 Y122.21
M204 S3000
G1 X74.278 Y122.21 E106.3982
G1 X74.278 Y117.79 E106.65289
G1 X73.358 Y117.79 E106.7059
G1 X73.358 Y122.21 E106.9606
M204 S5000
G0 X73.558 Y122.21
G0 X73.258 Y122.21
G0 X74.208 Y122.458
G0 X75.061 Y122.21
M204 S3000
G1 X75.981 Y122.21 E107.01361
G1 X75.981 Y117.79 E107.26831
G1 X75.061 Y117.79 E107.32132
G1 X75.061 Y122.21 E107.57601
M204 S5000
G0 X75.261 Y122.21
G0 X74.961 Y122.21
G0 X75.911 Y122.458
G0 X76.765 Y122.21
M204 S3000
G1 X77.685 Y122.21 E107.62903
G1 X77.685 Y117.79 E107.88372
G1 X76.765 Y117.79 E107.93673
G1 X76.765 Y122.21 E108.19143
M204 S5000
G0 X76.965 Y122.21
G0 X76.665 Y122.21
G0 X77.615 Y122.458
G0 X78.468 Y122.21
M204 S3000
G1 X79.388 Y122.21 E108.24444
G1 X79.388 Y117.79 E108.49914
G1 X78.468 Y117.79 E108.55215
G1 X78.468 Y122.21 E108.80684
M204 S5000
G0 X78.668 Y122.21
G0 X78.368 Y122.21
G0 X79.318 Y122.458
G0 X80.171 Y122.21
M204 S3000
G1 X81.091 Y122.21 E108.85986
G1 X81.091 Y117.79 E109.11455
G1 X80.171 Y117.79 E109.16757
G1 X80.171 Y122.21 E109.42226
M204 S5000
G0 X80.371 Y122.21
G0 X80.071 Y122.21
G0 X81.021 Y122.458
G0 X81.875 Y122.21
M204 S3000
G1 X82.795 Y122.21 E109.47527
G1 X82.795 Y117.79 E109.72997
G1 X81.875 Y117.79 E109.78298
G1 X81.875 Y122.21 E110.03768
M204 S5000
G0 X82.075 Y122.21
G0 X81.775 Y122.21
G0 X82.725 Y122.458
G0 X83.578 Y122.21
M204 S3000
G1 X84.498 Y122.21 E110.09069
G1 X84.498 Y117.79 E110.34538
G1 X83.578 Y117.79 E110.3984
G1 X83.578 Y122.21 E110.65309
M204 S5000
G0 X83.778 Y122.21
G0 X83.478 Y122.21
G0 X84.428 Y122.458
G0 X85.282 Y122.21
M204 S3000
G1 X86.202 Y122.21 E110.7061
G1 X86.202 Y117.79 E110.9608
G1 X85.282 Y117.79 E111.01381
G1 X85.282 Y122.21 E111.26851
M204 S5000
G0 X85.482 Y122.21
G0 X85.182 Y122.21
G0 X86.132 Y122.458
G0 X86.985 Y122.21
M204 S3000
G1 X87.905 Y122.21 E111.32152
G1 X87.905 Y117.79 E111.57621
G1 X86.985 Y117.79 E111.62923
G1 X86.985 Y122.21 E111.88392
M204 S5000
G0 X87.185 Y122.21
G0 X86.885 Y122.21
G0 X87.835 Y122.458
G0 X88.688 Y122.21
M204 S3000
G1 X89.608 Y122.21 E111.93694
G1 X89.608 Y117.79 E112.19163
G1 X88.688 Y117.79 E112.24464
G1 X88.688 Y122.21 E112.49934
M204 S5000
G0 X88.888 Y122.21
G0 X88.588 Y122.21
G0 X89.538 Y122.458
G0 X90.392 Y122.21
M204 S3000
G1 X91.312 Y122.21 E112.55235
G1 X91.312 Y117.79 E112.80705
G1 X90.392 Y117.79 E112.86006
G1 X90.392 Y122.21 E113.11475
M204 S5000
G0 X90.592 Y122.21
G0 X90.292 Y122.21
G0 X91.242 Y122.458
G0 X92.095 Y122.21
M204 S3000
G1 X93.015 Y122.21 E113.16777
G1 X93.015 Y117.79 E113.42246
G1 X92.095 Y117.79 E113.47547
G1 X92.095 Y122.21 E113.73017
M204 S5000
G0 X92.295 Y122.21
G0 X91.995 Y122.21
G0 X92.945 Y122.458
G0 X93.798 Y122.21
M204 S3000
G1 X94.718 Y122.21 E113.78318
G1 X94.718 Y117.79 E114.03788
G1 X93.798 Y117.79 E114.09089
G1 X93.798 Y122.21 E114.34558
M204 S5000
G0 X93.998 Y122.21
G0 X93.698 Y122.21
G0 X94.648 Y122.458
G0 X95.502 Y122.21
M204 S3000
G1 X96.422 Y122.21 E114.3986
G1 X96.422 Y117.79 E114.65329
G1 X95.502 Y117.79 E114.70631
G1 X95.502 Y122.21 E114.961
M204 S5000
G0 X95.702 Y122.21
G0 X95.402 Y122.21
G0 X96.352 Y122.458
G0 X97.205 Y122.21
M204 S3000
G1 X98.125 Y122.21 E115.01401
G1 X98.125 Y117.79 E115.26871
G1 X97.205 Y117.79 E115.32172
G1 X97.205 Y122.21 E115.57642
M204 S5000
G0 X97.405 Y122.21
G0 X97.105 Y122.21
G0 X98.055 Y122.458
G0 X98.909 Y122.21
M204 S3000
G1 X99.829 Y122.21 E115.62943
G1 X99.829 Y117.79 E115.88412
G1 X98.909 Y117.79 E115.93714
G1 X98.909 Y122.21 E116.19183
M204 S5000
G0 X99.109 Y122.21
G0 X98.809 Y122.21
G0 X99.759 Y122.458
G0 X100.612 Y122.21
M204 S3000
G1 X101.532 Y122.21 E116.24485
G1 X101.532 Y117.79 E116.49954
G1 X100.612 Y117.79 E116.55255
G1 X100.612 Y122.21 E116.80725
M204 S5000
G0 X100.812 Y122.21
G0 X100.512 Y122.21
G0 X101.462 Y122.458
G0 X102.315 Y122.21
M204 S3000
G1 X103.235 Y122.21 E116.86026
G1 X103.235 Y117.79 E117.11496
G1 X102.315 Y117.79 E117.16797
G1 X102.315 Y122.21 E117.42266
M204 S5000
G0 X102.515 Y122.21
G0 X102.215 Y122.21
G0 X103.165 Y122.458
G0 X104.019 Y122.21
M204 S3000
G1 X104.939 Y122.21 E117.47568
G1 X104.939 Y117.79 E117.73037
G1 X104.019 Y117.79 E117.78338
G1 X104.019 Y122.21 E118.03808
M204 S5000
G0 X104.219 Y122.21
G0 X103.919 Y122.21
G0 X104.869 Y122.458
G0 X105.722 Y122.21
M204 S3000
G1 X106.642 Y122.21 E118.09109
G1 X106.642 Y117.79 E118.34579
G1 X105.722 Y117.79 E118.3988
G1 X105.722 Y122.21 E118.65349
M204 S5000
G0 X105.922 Y122.21
G0 X105.622 Y122.21
G0 X106.572 Y122.458
G0 X107.426 Y122.21
M204 S3000
G1 X108.346 Y122.21 E118.70651
G1 X108.346 Y117.79 E118.9612
G1 X107.426 Y117.79 E119.01422
G1 X107.426 Y122.21 E119.26891
M204 S5000
G0 X107.626 Y122.21
G0 X107.326 Y122.21
G0 X108.276 Y122.458
G0 X109.129 Y122.21
M204 S3000
G1 X110.049 Y122.21 E119.32192
G1 X110.049 Y117.79 E119.57662
G1 X109.129 Y117.79 E119.62963
G1 X109.129 Y122.21 E119.88433
M204 S5000
G0 X109.329 Y122.21
G0 X109.029 Y122.21
G0 X109.979 Y122.458
G0 X110.832 Y122.21
M204 S3000
G1 X111.752 Y122.21 E119.93734
G1 X111.752 Y117.79 E120.19203
G1 X110.832 Y117.79 E120.24505
G1 X110.832 Y122.21 E120.49974
M204 S5000
G0 X111.032 Y122.21
G0 X110.732 Y122.21
G0 X111.682 Y122.458
G0 X112.536 Y122.21
M204 S3000
G1 X113.456 Y122.21 E120.55275
G1 X113.456 Y117.79 E120.80745
G1 X112.536 Y117.79 E120.86046
G1 X112.536 Y122.21 E121.11516
M204 S5000
G0 X112.736 Y122.21
G0 X112.436 Y122.21
G0 X113.386 Y122.458
G0 X114.239 Y122.21
M204 S3000
G1 X115.159 Y122.21 E121.16817
G1 X115.159 Y117.79 E121.42286
G1 X114.239 Y117.79 E121.47588
G1 X114.239 Y122.21 E121.73057
M204 S5000
G0 X114.439 Y122.21
G0 X114.139 Y122.21
G0 X115.089 Y122.458
G0 X115.943 Y122.21
M204 S3000
G1 X116.863 Y122.21 E121.78359
G1 X116.863 Y117.79 E122.03828
G1 X115.943 Y117.79 E122.09129
G1 X115.943 Y122.21 E122.34599
M204 S5000
G0 X116.143 Y122.21
G0 X115.843 Y122.21
G0 X116.793 Y122.458
G0 X117.646 Y122.21
M204 S3000
G1 X118.566 Y122.21 E122.399
G1 X118.566 Y117.79 E122.6537
G1 X117.646 Y117.79 E122.70671
G1 X117.646 Y122.21 E122.9614
M204 S5000
G0 X117.846 Y122.21
G0 X117.546 Y122.21
G0 X118.496 Y122.458
G0 X119.349 Y122.21
M204 S3000
G1 X120.269 Y122.21 E123.01442
G1 X120.269 Y117.79 E123.26911
G1 X119.349 Y117.79 E123.32212
G1 X119.349 Y122.21 E123.57682
M204 S5000
