;FLAVOR:Marlin
;TIME:6001
;Filament used: 4.51936m
;Layer height: 0.2
;MINX:16.388
;MINY:83.957
;MINZ:0.3
;MAXX:163.614
;MAXY:156.038
;MAXZ:15.9
;Generated with Cura_SteamEngine 4.6.2
M140 S70
M105
M190 S70
M104 S237
M105
M109 S237
M82 ;absolute extrusion mode
G28 ;Home
G1 Z15.0 F6000 ;Move the platform down 15mm
G92 E0
G1 F200 E3
G92 E0
G92 E0
G92 E0
G1 F2700 E-13
;LAYER_COUNT:79
;LAYER:0
M107
G0 F1200 X59.172 Y84.465 Z0.3
;TYPE:SKIRT
G1 F2100 E0
G1 F1200 X60.078 Y84.613 E0.0529
G1 X61.791 Y85.02 E0.15435
G1 X62.411 Y85.184 E0.19131
G1 X65.012 Y85.796 E0.34528
G1 X67.646 Y86.34 E0.50026
G1 X70.286 Y86.803 E0.65471
G1 X72.917 Y87.191 E0.80796
G1 X75.601 Y87.509 E0.9637
G1 X78.269 Y87.75 E1.11806
G1 X80.94 Y87.914 E1.27227
G1 X83.612 Y88.003 E1.42632
G1 X86.287 Y88.017 E1.58046
G1 X88.996 Y87.953 E1.73661
G1 X91.668 Y87.815 E1.89078
G1 X94.297 Y87.604 E2.04276
G1 X97.226 Y87.272 E2.21262
G1 X98.368 Y87.152 E2.27879
G1 X99.39 Y87.057 E2.33793
G1 X100.145 Y86.998 E2.38157
G1 X101.069 Y86.967 E2.43485
G1 X102.088 Y86.955 E2.49357
G1 X102.874 Y86.958 E2.53886
G1 X103.781 Y87.002 E2.59119
G1 X104.809 Y87.077 E2.65058
G1 X105.572 Y87.142 E2.69471
G1 X106.518 Y87.268 E2.7497
G1 X107.488 Y87.418 E2.80626
G1 X108.261 Y87.548 E2.85143
G1 X109.167 Y87.745 E2.90485
G1 X110.119 Y87.974 E2.96127
G1 X110.905 Y88.173 E3.00799
G1 X111.814 Y88.451 E3.06277
G1 X112.759 Y88.762 E3.1201
G1 X114.481 Y89.357 E3.22508
G1 X115.166 Y89.603 E3.26702
G1 X117.693 Y90.436 E3.42034
G1 X120.245 Y91.198 E3.57381
G1 X122.875 Y91.902 E3.73069
G1 X125.465 Y92.519 E3.88412
G1 X128.1 Y93.068 E4.03921
G1 X130.696 Y93.531 E4.19116
G1 X133.402 Y93.936 E4.34883
G1 X136.025 Y94.254 E4.50108
G1 X138.722 Y94.503 E4.65715
G1 X141.355 Y94.671 E4.80918
G1 X144.071 Y94.768 E4.96579
G1 X146.147 Y94.79 E5.08542
G1 X157.275 Y94.79 E5.72665
G1 X158.048 Y94.801 E5.7712
G1 X158.691 Y94.85 E5.80836
G1 X159.323 Y94.978 E5.84551
G1 X159.935 Y95.184 E5.88272
G1 X160.517 Y95.463 E5.91991
G1 X161.059 Y95.812 E5.95706
G1 X161.554 Y96.226 E5.99424
G1 X161.995 Y96.698 E6.03147
G1 X162.373 Y97.221 E6.06865
G1 X162.684 Y97.786 E6.10581
G1 X162.923 Y98.385 E6.14298
G1 X163.086 Y99.01 E6.1802
G1 X163.181 Y99.864 E6.22971
G1 X163.192 Y110.676 E6.85273
G1 X163.181 Y111.449 E6.89728
G1 X163.064 Y113.159 E6.99605
G1 X162.907 Y115.819 E7.14959
G1 X162.825 Y118.521 E7.30536
G1 X162.819 Y121.197 E7.45956
G1 X162.889 Y123.871 E7.6137
G1 X163.035 Y126.546 E7.76807
G1 X163.135 Y127.784 E7.83964
G1 X163.171 Y128.32 E7.87059
G1 X163.191 Y129.138 E7.91774
G1 X163.194 Y130.511 E7.99686
G1 X163.192 Y139.265 E8.50129
G1 X163.182 Y140.063 E8.54728
G1 X163.133 Y140.706 E8.58444
G1 X163.005 Y141.339 E8.62165
G1 X162.8 Y141.95 E8.65879
G1 X162.52 Y142.532 E8.69601
G1 X162.171 Y143.075 E8.7332
G1 X161.758 Y143.57 E8.77035
G1 X161.286 Y144.011 E8.80757
G1 X160.764 Y144.39 E8.84474
G1 X160.199 Y144.701 E8.88191
G1 X159.599 Y144.94 E8.91912
G1 X158.975 Y145.104 E8.9563
G1 X158.118 Y145.199 E9.00598
G1 X146.086 Y145.21 E9.69931
G1 X143.408 Y145.248 E9.85364
G1 X140.738 Y145.361 E10.00763
G1 X138.062 Y145.551 E10.16222
G1 X135.37 Y145.818 E10.3181
G1 X132.726 Y146.156 E10.4717
G1 X130.058 Y146.575 E10.62732
G1 X127.433 Y147.063 E10.78117
G1 X124.829 Y147.624 E10.93466
G1 X122.25 Y148.256 E11.08767
G1 X119.622 Y148.979 E11.24473
G1 X117.067 Y149.761 E11.3987
G1 X114.492 Y150.63 E11.5553
G1 X113.895 Y150.847 E11.59191
G1 X112.824 Y151.216 E11.65718
G1 X111.929 Y151.512 E11.7115
G1 X111.167 Y151.752 E11.75754
G1 X110.261 Y151.993 E11.81156
G1 X109.27 Y152.231 E11.87029
G1 X108.535 Y152.398 E11.91372
G1 X107.574 Y152.569 E11.96996
G1 X106.62 Y152.717 E12.02559
G1 X105.861 Y152.825 E12.06977
G1 X104.956 Y152.912 E12.12216
G1 X103.959 Y152.985 E12.17976
G1 X103.133 Y153.033 E12.22744
G1 X102.207 Y153.045 E12.2808
G1 X101.204 Y153.036 E12.3386
G1 X100.445 Y153.017 E12.38235
G1 X99.533 Y152.955 E12.43503
G1 X98.513 Y152.862 E12.49405
G1 X97.16 Y152.717 E12.57246
G1 X95.516 Y152.518 E12.66788
G1 X92.819 Y152.268 E12.82396
G1 X90.18 Y152.098 E12.97634
G1 X87.475 Y152.001 E13.13231
G1 X84.798 Y151.981 E13.28657
G1 X82.128 Y152.035 E13.44046
G1 X79.451 Y152.167 E13.5949
G1 X76.751 Y152.376 E13.75095
G1 X74.119 Y152.655 E13.90346
G1 X71.437 Y153.015 E14.05939
G1 X68.8 Y153.446 E14.21336
G1 X66.172 Y153.952 E14.36758
G1 X63.528 Y154.54 E14.52366
G1 X61.653 Y155.005 E14.63497
G1 X60.765 Y155.235 E14.68783
G1 X60.136 Y155.38 E14.72503
G1 X59.099 Y155.549 E14.78557
G1 X58.317 Y155.608 E14.83076
G1 X57.702 Y155.618 E14.8662
G1 X56.79 Y155.579 E14.9188
G1 X55.953 Y155.496 E14.96727
G1 X55.315 Y155.389 E15.00455
G1 X54.581 Y155.235 E15.04776
G1 X53.8 Y155.031 E15.09428
G1 X53.277 Y154.878 E15.12568
G1 X52.482 Y154.602 E15.17417
G1 X51.822 Y154.346 E15.21496
G1 X51.12 Y154.04 E15.25909
G1 X50.412 Y153.7 E15.30435
G1 X49.743 Y153.343 E15.34804
G1 X49.052 Y152.942 E15.39408
G1 X48.485 Y152.587 E15.43263
G1 X47.833 Y152.143 E15.47808
G1 X47.321 Y151.767 E15.51469
G1 X46.899 Y151.434 E15.54566
G1 X45.903 Y150.582 E15.62119
G1 X44.89 Y149.599 E15.70253
G1 X44.493 Y149.18 E15.73579
G1 X44.023 Y148.651 E15.77656
G1 X42.226 Y146.686 E15.93
G1 X40.36 Y144.76 E16.08453
G1 X38.42 Y142.866 E16.24076
G1 X36.453 Y141.052 E16.39494
G1 X34.444 Y139.303 E16.54843
G1 X32.387 Y137.612 E16.70187
G1 X30.228 Y135.936 E16.85937
G1 X28.088 Y134.37 E17.01217
G1 X25.878 Y132.847 E17.16683
G1 X24.107 Y131.69 E17.28873
G1 X22.785 Y130.774 E17.38141
G1 X22.322 Y130.433 E17.41454
G1 X21.828 Y130.043 E17.45081
G1 X20.79 Y129.138 E17.53016
G1 X20.274 Y128.644 E17.57133
G1 X19.879 Y128.227 E17.60442
G1 X19.465 Y127.747 E17.64095
G1 X18.945 Y127.088 E17.68932
G1 X18.331 Y126.18 E17.75248
G1 X17.995 Y125.606 E17.79081
G1 X17.689 Y124.988 E17.83055
G1 X17.407 Y124.316 E17.87254
G1 X17.22 Y123.784 E17.90503
G1 X16.991 Y122.942 E17.95531
G1 X16.87 Y122.308 E17.99251
G1 X16.829 Y121.751 E18.02469
G1 X16.809 Y120.732 E18.08342
G1 X16.808 Y119.096 E18.17769
G1 X16.819 Y118.334 E18.2216
G1 X16.868 Y117.691 E18.25876
G1 X16.974 Y117.146 E18.29076
G1 X17.099 Y116.646 E18.32046
G1 X17.378 Y115.756 E18.3742
G1 X17.573 Y115.278 E18.40395
G1 X17.943 Y114.487 E18.45427
G1 X18.458 Y113.606 E18.51307
G1 X18.964 Y112.879 E18.56411
G1 X19.402 Y112.325 E18.60481
G1 X19.961 Y111.69 E18.65356
G1 X20.438 Y111.19 E18.69338
G1 X20.852 Y110.798 E18.72623
G1 X21.921 Y109.888 E18.80712
G1 X22.4 Y109.507 E18.84239
G1 X23.947 Y108.418 E18.95141
G1 X24.416 Y108.112 E18.98368
G1 X26.643 Y106.637 E19.1376
G1 X28.849 Y105.083 E19.29309
G1 X31.011 Y103.469 E19.44856
G1 X33.098 Y101.814 E19.60204
G1 X35.162 Y100.082 E19.7573
G1 X37.141 Y98.322 E19.90991
G1 X39.119 Y96.462 E20.06637
G1 X41.003 Y94.585 E20.21961
G1 X42.877 Y92.612 E20.37641
G1 X44.287 Y91.049 E20.49771
G1 X44.92 Y90.367 E20.55133
G1 X46.019 Y89.314 E20.63903
G1 X47.172 Y88.354 E20.72549
G1 X47.62 Y88.011 E20.758
G1 X48.177 Y87.619 E20.79725
G1 X48.829 Y87.195 E20.84206
G1 X49.429 Y86.835 E20.88238
G1 X50.122 Y86.453 E20.92798
G1 X50.722 Y86.148 E20.96676
G1 X51.509 Y85.787 E21.01666
G1 X52.218 Y85.498 E21.06078
G1 X52.929 Y85.237 E21.10442
G1 X53.747 Y84.983 E21.15377
G1 X54.321 Y84.828 E21.18804
G1 X55.352 Y84.608 E21.24878
G1 X55.885 Y84.513 E21.27998
G1 X56.757 Y84.418 E21.33052
G1 X57.302 Y84.383 E21.36199
G1 X57.781 Y84.377 E21.3896
G1 X58.499 Y84.4 E21.43099
G1 X59.172 Y84.465 E21.46995
G0 X59.24 Y84.051
G1 X60.146 Y84.199 E21.52285
G1 X61.892 Y84.612 E21.62624
G1 X62.504 Y84.774 E21.66272
G1 X65.083 Y85.381 E21.81539
G1 X67.74 Y85.93 E21.97173
G1 X70.344 Y86.386 E22.12406
G1 X72.992 Y86.777 E22.2783
G1 X75.65 Y87.092 E22.43254
G1 X78.3 Y87.331 E22.58586
G1 X80.942 Y87.494 E22.73839
G1 X83.628 Y87.583 E22.89325
G1 X86.315 Y87.597 E23.04808
G1 X88.929 Y87.536 E23.19875
G1 X91.646 Y87.395 E23.35552
G1 X94.279 Y87.184 E23.50773
G1 X97.179 Y86.855 E23.67591
G1 X98.324 Y86.735 E23.74225
G1 X99.351 Y86.639 E23.80169
G1 X100.112 Y86.579 E23.84568
G1 X101.058 Y86.547 E23.90022
G1 X102.083 Y86.535 E23.95929
G1 X102.876 Y86.538 E24.00498
G1 X103.805 Y86.583 E24.05858
G1 X104.839 Y86.658 E24.11832
G1 X105.608 Y86.724 E24.16279
G1 X106.576 Y86.852 E24.21906
G1 X107.552 Y87.003 E24.27597
G1 X108.331 Y87.134 E24.32148
G1 X109.26 Y87.335 E24.37625
G1 X110.217 Y87.565 E24.43297
G1 X111.008 Y87.766 E24.48
G1 X111.939 Y88.05 E24.53609
G1 X112.891 Y88.363 E24.59383
G1 X114.618 Y88.96 E24.69913
G1 X115.296 Y89.203 E24.74063
G1 X117.801 Y90.029 E24.89262
G1 X120.396 Y90.804 E25.04868
G1 X122.946 Y91.487 E25.2008
G1 X125.545 Y92.106 E25.35475
G1 X128.184 Y92.656 E25.51008
G1 X130.798 Y93.122 E25.66308
G1 X133.441 Y93.518 E25.81708
G1 X136.083 Y93.838 E25.97044
G1 X138.717 Y94.081 E26.12286
G1 X141.43 Y94.254 E26.27951
G1 X144.051 Y94.347 E26.43063
G1 X146.151 Y94.37 E26.55165
G1 X157.275 Y94.37 E27.19265
G1 X158.054 Y94.381 E27.23754
G1 X158.723 Y94.43 E27.2762
G1 X159.381 Y94.559 E27.31483
G1 X160.019 Y94.765 E27.35347
G1 X160.629 Y95.046 E27.39217
G1 X161.2 Y95.397 E27.43079
G1 X161.726 Y95.813 E27.46943
G1 X162.199 Y96.29 E27.50814
G1 X162.611 Y96.819 E27.54678
G1 X162.958 Y97.393 E27.58543
G1 X163.234 Y98.004 E27.62406
G1 X163.435 Y98.644 E27.66272
G1 X163.559 Y99.304 E27.70141
G1 X163.601 Y99.852 E27.73308
G1 X163.612 Y110.676 E28.3568
G1 X163.601 Y111.455 E28.40169
G1 X163.488 Y113.104 E28.49693
G1 X163.325 Y115.855 E28.65573
G1 X163.245 Y118.5 E28.80822
G1 X163.239 Y121.187 E28.96305
G1 X163.308 Y123.837 E29.1158
G1 X163.455 Y126.528 E29.2711
G1 X163.554 Y127.75 E29.34174
G1 X163.59 Y128.293 E29.3731
G1 X163.611 Y129.131 E29.42141
G1 X163.614 Y130.51 E29.50087
G1 X163.612 Y139.265 E30.00536
G1 X163.601 Y140.068 E30.05164
G1 X163.552 Y140.737 E30.09029
G1 X163.424 Y141.396 E30.12897
G1 X163.218 Y142.034 E30.1676
G1 X162.938 Y142.644 E30.20628
G1 X162.587 Y143.216 E30.24495
G1 X162.171 Y143.742 E30.2836
G1 X161.695 Y144.214 E30.32222
G1 X161.166 Y144.627 E30.36089
G1 X160.592 Y144.974 E30.39954
G1 X159.981 Y145.25 E30.43818
G1 X159.341 Y145.452 E30.47685
G1 X158.682 Y145.576 E30.51549
G1 X158.13 Y145.619 E30.54739
G1 X146.092 Y145.63 E31.24106
G1 X143.432 Y145.668 E31.39436
G1 X140.748 Y145.782 E31.54916
G1 X138.098 Y145.97 E31.70224
G1 X135.399 Y146.237 E31.85853
G1 X132.805 Y146.569 E32.00922
G1 X130.131 Y146.989 E32.16519
G1 X127.522 Y147.474 E32.31811
G1 X124.915 Y148.035 E32.47177
G1 X122.351 Y148.664 E32.6239
G1 X119.722 Y149.387 E32.78101
G1 X117.212 Y150.155 E32.93227
G1 X114.649 Y151.02 E33.08814
G1 X114.039 Y151.242 E33.12554
G1 X112.96 Y151.614 E33.19131
G1 X112.06 Y151.91 E33.2459
G1 X111.293 Y152.152 E33.29225
G1 X110.365 Y152.399 E33.34758
G1 X109.368 Y152.639 E33.40668
G1 X108.627 Y152.807 E33.45046
G1 X107.644 Y152.983 E33.508
G1 X106.685 Y153.133 E33.56394
G1 X105.92 Y153.241 E33.60845
G1 X104.993 Y153.331 E33.66212
G1 X103.99 Y153.404 E33.72007
G1 X103.157 Y153.453 E33.76815
G1 X102.209 Y153.465 E33.82279
G1 X101.2 Y153.456 E33.88093
G1 X100.434 Y153.437 E33.92508
G1 X99.501 Y153.374 E33.97897
G1 X98.474 Y153.28 E34.03839
G1 X97.115 Y153.135 E34.11715
G1 X95.458 Y152.934 E34.21333
G1 X92.792 Y152.687 E34.36761
G1 X90.138 Y152.516 E34.52086
G1 X87.492 Y152.422 E34.67343
G1 X84.803 Y152.401 E34.82838
G1 X82.124 Y152.456 E34.98279
G1 X79.467 Y152.586 E35.13607
G1 X76.827 Y152.79 E35.28865
G1 X74.149 Y153.074 E35.44383
G1 X71.486 Y153.432 E35.59866
G1 X68.877 Y153.858 E35.75099
G1 X66.273 Y154.36 E35.90381
G1 X63.638 Y154.946 E36.05935
G1 X61.701 Y155.426 E36.17435
G1 X60.871 Y155.641 E36.22375
G1 X60.229 Y155.79 E36.26173
G1 X59.131 Y155.968 E36.32582
G1 X58.349 Y156.027 E36.37101
G1 X57.684 Y156.038 E36.40934
G1 X56.772 Y155.999 E36.46194
G1 X55.886 Y155.911 E36.51324
G1 X55.233 Y155.801 E36.5514
G1 X54.475 Y155.641 E36.59604
G1 X53.694 Y155.437 E36.64256
G1 X53.157 Y155.28 E36.6748
G1 X52.341 Y154.998 E36.72454
G1 X51.668 Y154.737 E36.76614
G1 X50.949 Y154.424 E36.81133
G1 X50.228 Y154.077 E36.85743
G1 X49.776 Y153.841 E36.88682
G1 X48.841 Y153.304 E36.94895
G1 X48.249 Y152.934 E36.98917
G1 X47.597 Y152.49 E37.03463
G1 X47.06 Y152.097 E37.07297
G1 X46.638 Y151.764 E37.10395
G1 X45.628 Y150.9 E37.18054
G1 X44.595 Y149.898 E37.26347
G1 X44.179 Y149.459 E37.29832
G1 X43.736 Y148.96 E37.33677
G1 X41.911 Y146.966 E37.49253
G1 X40.061 Y145.056 E37.64575
G1 X38.138 Y143.179 E37.8006
G1 X36.171 Y141.364 E37.95482
G1 X34.16 Y139.613 E38.10847
G1 X32.104 Y137.922 E38.26187
G1 X30.003 Y136.292 E38.4151
G1 X27.859 Y134.723 E38.56819
G1 X25.642 Y133.195 E38.72334
G1 X23.877 Y132.042 E38.84483
G1 X22.546 Y131.119 E38.93816
G1 X22.072 Y130.77 E38.97208
G1 X21.559 Y130.366 E39.00971
G1 X20.511 Y129.452 E39.08983
G1 X19.971 Y128.935 E39.13291
G1 X19.565 Y128.506 E39.16695
G1 X19.135 Y128.008 E39.20486
G1 X18.615 Y127.349 E39.25323
G1 X18.303 Y126.912 E39.28417
G1 X17.978 Y126.408 E39.31873
G1 X17.63 Y125.814 E39.3584
G1 X17.307 Y125.164 E39.40023
G1 X17.018 Y124.476 E39.44323
G1 X16.817 Y123.901 E39.47833
G1 X16.678 Y123.413 E39.50756
G1 X16.457 Y122.387 E39.56804
G1 X16.409 Y121.759 E39.60433
G1 X16.389 Y120.74 E39.66306
G1 X16.388 Y119.096 E39.7578
G1 X16.399 Y118.328 E39.80206
G1 X16.448 Y117.659 E39.84071
G1 X16.566 Y117.045 E39.87674
G1 X16.691 Y116.545 E39.90644
G1 X16.988 Y115.6 E39.96352
G1 X17.189 Y115.109 E39.99409
G1 X17.575 Y114.285 E40.04652
G1 X17.82 Y113.848 E40.07539
G1 X18.099 Y113.388 E40.10639
G1 X18.625 Y112.632 E40.15946
G1 X19.087 Y112.048 E40.20237
G1 X19.646 Y111.413 E40.25112
G1 X20.149 Y110.886 E40.2931
G1 X20.572 Y110.486 E40.32664
G1 X21.65 Y109.566 E40.40831
G1 X22.141 Y109.177 E40.4444
G1 X23.707 Y108.074 E40.55478
G1 X24.162 Y107.776 E40.58612
G1 X26.434 Y106.271 E40.74316
G1 X28.614 Y104.735 E40.89683
G1 X30.739 Y103.148 E41.04966
G1 X32.847 Y101.478 E41.20462
G1 X34.872 Y99.778 E41.35698
G1 X36.853 Y98.016 E41.50975
G1 X38.832 Y96.155 E41.66629
G1 X40.717 Y94.277 E41.81961
G1 X42.539 Y92.358 E41.9721
G1 X43.975 Y90.767 E42.09559
G1 X44.612 Y90.081 E42.14954
G1 X45.731 Y89.008 E42.23887
G1 X46.906 Y88.029 E42.327
G1 X47.367 Y87.676 E42.36046
G1 X47.775 Y87.384 E42.38937
G1 X48.601 Y86.843 E42.44627
G1 X49.037 Y86.576 E42.47573
G1 X49.919 Y86.085 E42.5339
G1 X50.533 Y85.773 E42.57358
G1 X51.336 Y85.405 E42.62448
G1 X52.061 Y85.108 E42.66963
G1 X52.786 Y84.842 E42.71413
G1 X53.627 Y84.581 E42.76487
G1 X54.213 Y84.422 E42.79986
G1 X55.267 Y84.196 E42.86197
G1 X55.814 Y84.099 E42.89398
G1 X56.72 Y84 E42.9465
G1 X57.277 Y83.964 E42.97866
G1 X57.794 Y83.957 E43.00846
G1 X58.512 Y83.98 E43.04985
G1 X59.24 Y84.051 E43.092
G1 F2700 E30.092
G0 F1200 X158.133 Y99.339
G0 X158.643 Y109.632
G0 X154.108 Y110.395
;TYPE:SUPPORT
G1 F2100 E43.092
G1 F1200 X157.772 Y110.391 E43.30263
G1 X157.772 Y111.29 E43.35431
G1 X154.108 Y111.29 E43.56494
G1 X154.108 Y110.395 E43.61639
G0 X156.022 Y110.562
G1 X156.022 Y111.12 E43.64847
G0 X157.772 Y128.762
G1 X157.772 Y129.596 E43.69641
G1 X157.66 Y129.59 E43.70286
G1 X154.108 Y129.59 E43.90705
G1 X154.108 Y128.762 E43.95465
G1 X157.772 Y128.762 E44.16527
G0 X156.022 Y128.932
G1 X156.022 Y129.42 E44.19333
G1 F2700 E31.19333
;MESH:TapaCafetera.stl
G0 F1200 X156.022 Y130.95
G0 X126.852 Y131.127
;TYPE:WALL-INNER
G1 F2100 E44.19333
G1 F1200 X127.389 Y129.777 E44.27705
G1 X127.597 Y129.217 E44.31147
G1 X127.847 Y128.498 E44.35533
G1 X127.847 Y111.502 E45.3347
G1 X127.597 Y110.783 E45.37856
G1 X127.389 Y110.223 E45.41298
G1 X126.852 Y108.873 E45.4967
G1 X126.385 Y108.962 E45.5241
G1 X126.34 Y108.971 E45.52674
G1 X126.324 Y108.973 E45.52767
G1 X126.014 Y109.033 E45.54587
G1 X126.014 Y108.97 E45.5495
G1 X126.014 Y108.561 E45.57306
G1 X126.014 Y108.117 E45.59865
G1 X126.245 Y108.561 E45.60832
G1 X126.26 Y108.558 E45.6092
G1 X127.847 Y108.171 E45.70332
G1 X127.847 Y101.05 E46.11366
G1 X156.932 Y101.05 E47.78963
G1 X156.932 Y108.431 E48.21495
G1 X139.355 Y108.45 E49.22779
G1 X138.329 Y108.534 E49.28711
G1 X137.289 Y108.795 E49.3489
G1 X136.305 Y109.221 E49.41068
G1 X134.996 Y110.067 E49.50049
G1 X134.996 Y129.933 E50.64523
G1 X136.305 Y130.779 E50.73505
G1 X137.289 Y131.205 E50.79683
G1 X138.329 Y131.466 E50.85862
G1 X139.355 Y131.55 E50.91794
G1 X156.932 Y131.55 E51.93078
