;FLAVOR:Marlin
;TIME:5871
;Filament used: 7.526m
;Layer height: 0.2
;MINX:24.87
;MINY:46.37
;MINZ:0.3
;MAXX:155.13
;MAXY:193.63
;MAXZ:9.9
;Generated with Cura_SteamEngine 4.6.2
M140 S70
M105
M190 S70
M104 S237
M105
M109 S237
M82 ;absolute extrusion mode
G28 ;Home
G1 Z15.0 F6000 ;Move the platform down 15mm
G92 E0
G1 F200 E3
G92 E0
G92 E0
G92 E0
G1 F2700 E-13
;LAYER_COUNT:49
;LAYER:0
M107
G0 F1200 X149.566 Y46.801 Z0.3
;TYPE:SKIRT
G1 F2100 E0
G1 F1200 X150.209 Y46.85 E0.03716
G1 X150.841 Y46.978 E0.07432
G1 X151.453 Y47.184 E0.11153
G1 X152.035 Y47.463 E0.14872
G1 X152.577 Y47.812 E0.18586
G1 X153.072 Y48.226 E0.22305
G1 X153.513 Y48.698 E0.26027
G1 X153.891 Y49.221 E0.29745
G1 X154.202 Y49.786 E0.33462
G1 X154.441 Y50.385 E0.37178
G1 X154.604 Y51.01 E0.409
G1 X154.699 Y51.864 E0.45851
G1 X154.71 Y187.328 E8.26438
G1 X154.701 Y188.055 E8.30628
G1 X154.653 Y188.699 E8.34349
G1 X154.526 Y189.332 E8.38069
G1 X154.321 Y189.944 E8.41788
G1 X154.043 Y190.526 E8.45505
G1 X153.695 Y191.069 E8.49221
G1 X153.282 Y191.565 E8.5294
G1 X152.811 Y192.006 E8.56658
G1 X152.289 Y192.386 E8.60379
G1 X151.724 Y192.698 E8.64098
G1 X151.125 Y192.938 E8.67816
G1 X150.501 Y193.102 E8.71534
G1 X149.637 Y193.199 E8.76544
G1 X31.14 Y193.21 E15.59362
G1 X30.442 Y193.201 E15.63384
G1 X29.798 Y193.152 E15.67106
G1 X29.166 Y193.025 E15.7082
G1 X28.554 Y192.82 E15.74539
G1 X27.972 Y192.541 E15.78258
G1 X27.429 Y192.193 E15.81975
G1 X26.933 Y191.78 E15.85694
G1 X26.492 Y191.309 E15.89412
G1 X26.113 Y190.787 E15.93129
G1 X25.801 Y190.222 E15.96848
G1 X25.561 Y189.623 E16.00567
G1 X25.397 Y188.999 E16.04284
G1 X25.301 Y188.132 E16.09311
G1 X25.29 Y52.603 E23.90272
G1 X25.299 Y51.938 E23.94105
G1 X25.348 Y51.295 E23.9782
G1 X25.476 Y50.663 E24.01536
G1 X25.681 Y50.051 E24.05255
G1 X25.96 Y49.469 E24.08974
G1 X26.309 Y48.926 E24.12694
G1 X26.722 Y48.431 E24.16409
G1 X27.194 Y47.99 E24.20131
G1 X27.716 Y47.611 E24.23848
G1 X28.281 Y47.299 E24.27567
G1 X28.88 Y47.06 E24.31283
G1 X29.505 Y46.897 E24.35005
G1 X30.363 Y46.801 E24.3998
G1 X148.793 Y46.79 E31.22412
G1 X149.566 Y46.801 E31.26866
G0 X149.572 Y46.381
G1 X150.241 Y46.43 E31.30732
G1 X150.899 Y46.559 E31.34595
G1 X151.537 Y46.765 E31.38459
G1 X152.147 Y47.046 E31.42329
G1 X152.718 Y47.397 E31.46191
G1 X153.244 Y47.813 E31.50055
G1 X153.717 Y48.29 E31.53926
G1 X154.129 Y48.819 E31.5779
G1 X154.476 Y49.393 E31.61655
G1 X154.752 Y50.004 E31.65518
G1 X154.953 Y50.644 E31.69384
G1 X155.077 Y51.304 E31.73253
G1 X155.119 Y51.852 E31.7642
G1 X155.13 Y187.334 E39.57111
G1 X155.121 Y188.061 E39.613
G1 X155.072 Y188.73 E39.65166
G1 X154.945 Y189.388 E39.69027
G1 X154.74 Y190.027 E39.72894
G1 X154.46 Y190.637 E39.76762
G1 X154.11 Y191.209 E39.80626
G1 X153.695 Y191.736 E39.84491
G1 X153.22 Y192.209 E39.88354
G1 X152.691 Y192.623 E39.92225
G1 X152.118 Y192.971 E39.96088
G1 X151.507 Y193.248 E39.99953
G1 X150.867 Y193.45 E40.03821
G1 X150.208 Y193.575 E40.07686
G1 X149.649 Y193.619 E40.10917
G1 X31.134 Y193.63 E46.93838
G1 X30.436 Y193.621 E46.9786
G1 X29.767 Y193.572 E47.01726
G1 X29.109 Y193.444 E47.05588
G1 X28.47 Y193.239 E47.09455
G1 X27.86 Y192.959 E47.13323
G1 X27.288 Y192.609 E47.17187
G1 X26.762 Y192.193 E47.21051
G1 X26.289 Y191.718 E47.24914
G1 X25.876 Y191.189 E47.28781
G1 X25.528 Y190.615 E47.32649
G1 X25.251 Y190.004 E47.36515
G1 X25.049 Y189.365 E47.40377
G1 X24.925 Y188.705 E47.44246
G1 X24.881 Y188.143 E47.47495
G1 X24.87 Y52.674 E55.2811
G1 X24.88 Y51.933 E55.32381
G1 X24.929 Y51.264 E55.36246
G1 X25.057 Y50.605 E55.40114
G1 X25.262 Y49.967 E55.43976
G1 X25.543 Y49.357 E55.47846
G1 X25.893 Y48.785 E55.5171
G1 X26.309 Y48.259 E55.55574
G1 X26.785 Y47.786 E55.59441
G1 X27.314 Y47.373 E55.63308
G1 X27.888 Y47.026 E55.67173
G1 X28.499 Y46.75 E55.71036
G1 X29.139 Y46.548 E55.74904
G1 X29.798 Y46.424 E55.78768
G1 X30.351 Y46.381 E55.81964
G1 X148.793 Y46.37 E62.64464
G1 X149.572 Y46.381 E62.68954
G1 F2700 E49.68954
;MESH:diafragma.stl
G0 F1200 X133.847 Y57.653
G0 X135.13 Y56.37
G0 X36.842 Y56.342
G0 X34.45 Y65.95
;TYPE:WALL-INNER
G1 F2100 E62.68954
G1 F1200 X34.45 Y174.05 E68.9186
G1 X36.45 Y174.05 E69.03385
G1 X36.45 Y184.05 E69.61008
G1 X135.55 Y184.05 E75.32054
G1 X135.55 Y182.05 E75.43579
G1 X145.55 Y182.05 E76.01202
G1 X145.55 Y174.1 E76.47012
G1 X146.55 Y174.1 E76.52774
G1 X146.55 Y65.9 E82.76257
G1 X145.55 Y65.9 E82.8202
G1 X145.55 Y57.95 E83.2783
G1 X135.55 Y57.95 E83.85453
G1 X135.55 Y55.95 E83.96978
G1 X36.45 Y55.95 E89.68024
G1 X36.45 Y65.95 E90.25647
G1 X34.45 Y65.95 E90.37171
G0 X31.55 Y186.95
G1 X31.55 Y53.05 E98.08746
G1 X148.45 Y53.05 E104.82361
G1 X148.45 Y186.95 E112.53935
G1 X31.55 Y186.95 E119.2755
G0 X31.13 Y187.37
G1 X31.13 Y52.63 E127.03965
G1 X148.87 Y52.63 E133.82421
G1 X148.87 Y187.37 E141.58835
G1 X31.13 Y187.37 E148.37291
G0 X31.2 Y187.3
G0 X34.8 Y66.3
G0 X34.87 Y66.37
G1 X34.87 Y173.63 E154.55357
G1 X36.87 Y173.63 E154.66882
G1 X36.87 Y183.63 E155.24505
G1 X135.13 Y183.63 E160.9071
G1 X135.13 Y181.63 E161.02235
G1 X145.13 Y181.63 E161.59858
G1 X145.13 Y173.68 E162.05668
G1 X146.13 Y173.68 E162.11431
G1 X146.13 Y66.32 E168.30073
G1 X145.13 Y66.32 E168.35836
G1 X145.13 Y58.37 E168.81646
G1 X135.13 Y58.37 E169.39269
G1 X135.13 Y56.37 E169.50794
G1 X36.87 Y56.37 E175.16999
G1 X36.87 Y66.37 E175.74622
G1 X34.87 Y66.37 E175.86147
G0 X35.29 Y66.79
;TYPE:WALL-OUTER
G1 X35.29 Y173.21 E181.99373
G1 X37.29 Y173.21 E182.10898
G1 X37.29 Y183.21 E182.68521
G1 X134.71 Y183.21 E188.29886
G1 X134.71 Y181.21 E188.4141
G1 X144.71 Y181.21 E188.99034
G1 X144.71 Y173.26 E189.44844
G1 X145.71 Y173.26 E189.50606
G1 X145.71 Y66.74 E195.64409
G1 X144.71 Y66.74 E195.70171
G1 X144.71 Y58.79 E196.15981
G1 X134.71 Y58.79 E196.73604
G1 X134.71 Y56.79 E196.85129
G1 X37.29 Y56.79 E202.46494
G1 X37.29 Y66.79 E203.04117
G1 X35.29 Y66.79 E203.15642
G0 X35.29 Y66.99
G0 X34.77 Y66.99
G0 X31.2 Y187.3
G0 X30.71 Y187.79
G1 X30.71 Y52.21 E210.96897
G1 X149.29 Y52.21 E217.80193
G1 X149.29 Y187.79 E225.61448
G1 X30.71 Y187.79 E232.44744
G0 X30.71 Y187.59
G0 X31.2 Y187.3
G0 X31.96 Y186.54
;TYPE:SKIN
G1 X31.96 Y53.46 E240.11593
G1 X148.04 Y53.46 E246.80483
G1 X148.04 Y186.54 E254.47332
G1 X31.96 Y186.54 E261.16222
G0 X36.04 Y184.46
G1 X135.96 Y184.46 E266.91993
G1 X135.96 Y182.46 E267.03518
G1 X145.96 Y182.46 E267.61141
G1 X145.96 Y174.51 E268.06951
G1 X146.96 Y174.51 E268.12714
G1 X146.96 Y65.49 E274.40922
G1 X145.96 Y65.49 E274.46684
G1 X145.96 Y57.54 E274.92494
G1 X135.96 Y57.54 E275.50117
G1 X135.96 Y55.54 E275.61642
G1 X36.04 Y55.54 E281.37413
G1 X36.04 Y65.54 E281.95036
G1 X34.04 Y65.54 E282.06561
G1 X34.04 Y174.46 E288.34193
G1 X36.04 Y174.46 E288.45717
G1 X36.04 Y184.46 E289.0334
G0 X34.842 Y173.658
G0 X34.842 Y66.342
G0 X36.842 Y56.342
G0 X137.62 Y55.88
G1 X137.62 Y55.12 E289.0772
G1 X146.38 Y55.12 E289.58198
G1 X146.38 Y55.88 E289.62577
G1 X137.62 Y55.88 E290.13055
G0 X137.2 Y56.3
G1 X137.2 Y54.7 E290.22275
G1 X146.8 Y54.7 E290.77593
G1 X146.8 Y56.3 E290.86813
G1 X137.2 Y56.3 E291.42131
G0 X136.78 Y56.72
G1 X136.78 Y54.72 E291.53655
G1 X35.22 Y54.72 E297.38877
G1 X35.22 Y64.72 E297.965
G1 X33.22 Y64.72 E298.08024
G1 X33.22 Y175.28 E304.45106
G1 X35.22 Y175.28 E304.56631
G1 X35.22 Y185.28 E305.14254
G1 X136.78 Y185.28 E310.99475
G1 X136.78 Y183.28 E311.11
G1 X146.78 Y183.28 E311.68623
G1 X146.78 Y175.33 E312.14433
G1 X147.22 Y175.33 E312.16969
G1 X147.22 Y185.72 E312.76839
G1 X32.78 Y185.72 E319.36279
G1 X32.78 Y54.28 E326.93678
G1 X147.22 Y54.28 E333.53118
G1 X147.22 Y64.67 E334.12988
G1 X146.78 Y64.67 E334.15524
G1 X146.78 Y56.72 E334.61334
G1 X136.78 Y56.72 E335.18957
G0 X136.36 Y55.14
G1 X35.64 Y55.14 E340.99338
G1 X35.64 Y65.14 E341.56961
G1 X33.64 Y65.14 E341.68486
G1 X33.64 Y174.86 E348.00727
G1 X35.64 Y174.86 E348.12252
G1 X35.64 Y184.86 E348.69875
G1 X136.36 Y184.86 E354.50256
G1 X136.36 Y182.86 E354.61781
G1 X146.36 Y182.86 E355.19404
G1 X146.36 Y174.91 E355.65214
G1 X147.36 Y174.91 E355.70977
G1 X147.36 Y65.09 E362.03794
G1 X146.36 Y65.09 E362.09557
G1 X146.36 Y57.14 E362.55367
G1 X136.36 Y57.14 E363.1299
G1 X136.36 Y55.14 E363.24515
G0 X147.64 Y53.86
G1 X147.64 Y186.14 E370.86754
G1 X32.36 Y186.14 E377.51035
G1 X32.36 Y53.86 E385.13274
G1 X147.64 Y53.86 E391.77554
G0 X34.8 Y54.7
G1 X34.8 Y64.3 E392.32872
G1 X33.2 Y64.3 E392.42092
G1 X33.2 Y54.7 E392.9741
G1 X34.8 Y54.7 E393.0663
G0 X34.38 Y55.12
G1 X34.38 Y63.88 E393.57108
G1 X33.62 Y63.88 E393.61487
G1 X33.62 Y55.12 E394.11965
G1 X34.38 Y55.12 E394.16345
G0 X34.8 Y175.7
G1 X34.8 Y185.3 E394.71663
G1 X33.2 Y185.3 E394.80882
G1 X33.2 Y175.7 E395.36201
G1 X34.8 Y175.7 E395.4542
G0 X34.38 Y176.12
G1 X34.38 Y184.88 E395.95898
G1 X33.62 Y184.88 E396.00278
G1 X33.62 Y176.12 E396.50756
G1 X34.38 Y176.12 E396.55135
G0 X36.842 Y183.658
G0 X137.2 Y183.7
G1 X146.8 Y183.7 E397.10453
G1 X146.8 Y185.3 E397.19673
G1 X137.2 Y185.3 E397.74991
G1 X137.2 Y183.7 E397.84211
G0 X137.62 Y184.12
G1 X146.38 Y184.12 E398.34689
G1 X146.38 Y184.88 E398.39068
G1 X137.62 Y184.88 E398.89546
G1 X137.62 Y184.12 E398.93925
G0 X137.919 Y184.324
;TYPE:SKIN
G1 X138.269 Y184.674 E398.95284
G0 X137.986 Y184.674
G1 X137.824 Y184.512 E398.95912
G0 X138.202 Y184.324
G1 X138.552 Y184.674 E398.97271
G0 X138.835 Y184.674
G1 X138.485 Y184.324 E398.98629
G0 X138.768 Y184.324
G1 X139.118 Y184.674 E398.99987
G0 X139.4 Y184.674
G1 X139.05 Y184.324 E399.01345
G0 X139.333 Y184.324
G1 X139.683 Y184.674 E399.02703
G0 X139.966 Y184.674
G1 X139.616 Y184.324 E399.04061
G0 X139.899 Y184.324
G1 X140.249 Y184.674 E399.0542
G0 X140.532 Y184.674
G1 X140.182 Y184.324 E399.06778
G0 X140.465 Y184.324
G1 X140.815 Y184.674 E399.08136
G0 X141.098 Y184.674
G1 X140.747 Y184.324 E399.09496
G0 X141.03 Y184.324
G1 X141.38 Y184.674 E399.10854
G0 X141.663 Y184.674
G1 X141.313 Y184.324 E399.12213
G0 X141.596 Y184.324
G1 X141.946 Y184.674 E399.13571
G0 X142.229 Y184.674
G1 X141.879 Y184.324 E399.14929
G0 X142.162 Y184.324
G1 X142.512 Y184.674 E399.16287
G0 X142.795 Y184.674
G1 X142.445 Y184.324 E399.17645
G0 X142.727 Y184.324
G1 X143.077 Y184.674 E399.19004
G0 X143.36 Y184.674
G1 X143.01 Y184.324 E399.20362
G0 X143.293 Y184.324
G1 X143.643 Y184.674 E399.2172
G0 X143.926 Y184.674
G1 X143.576 Y184.324 E399.23078
G0 X143.859 Y184.324
G1 X144.209 Y184.674 E399.24436
G0 X144.492 Y184.674
G1 X144.142 Y184.324 E399.25794
G0 X144.424 Y184.324
G1 X144.774 Y184.674 E399.27153
G0 X145.057 Y184.674
G1 X144.707 Y184.324 E399.28511
G0 X144.99 Y184.324
G1 X145.34 Y184.674 E399.29869
G0 X145.623 Y184.674
G1 X145.273 Y184.324 E399.31227
G0 X145.556 Y184.324
G1 X145.906 Y184.674 E399.32585
G0 X146.175 Y184.66
G1 X145.839 Y184.324 E399.33889
G0 X146.122 Y184.324
G1 X146.175 Y184.377 E399.34095
G0 X34.174 Y184.383
G1 X33.824 Y184.033 E399.35453
G0 X33.824 Y184.315
G1 X34.174 Y184.665 E399.36811
G0 X33.899 Y184.673
G1 X33.824 Y184.598 E399.37102
G0 X34.174 Y184.1
G1 X33.824 Y183.75 E399.38461
G0 X33.824 Y183.467
G1 X34.174 Y183.817 E399.39819
G0 X34.174 Y183.534
G1 X33.824 Y183.184 E399.41177
G0 X33.824 Y182.901
G1 X34.174 Y183.251 E399.42535
G0 X34.174 Y182.968
G1 X33.824 Y182.618 E399.43893
G0 X33.824 Y182.336
G1 X34.174 Y182.686 E399.45252
G0 X34.174 Y182.403
G1 X33.824 Y182.053 E399.4661
G0 X33.824 Y181.77
G1 X34.174 Y182.12 E399.47968
G0 X34.174 Y181.837
G1 X33.824 Y181.487 E399.49326
G0 X33.824 Y181.204
G1 X34.174 Y181.554 E399.50684
G0 X34.174 Y181.271
G1 X33.824 Y180.921 E399.52042
G0 X33.824 Y180.639
G1 X34.174 Y180.989 E399.53401
G0 X34.174 Y180.706
G1 X33.824 Y180.356 E399.54759
G0 X33.824 Y180.073
G1 X34.174 Y180.423 E399.56117
G0 X34.174 Y180.14
G1 X33.824 Y179.79 E399.57475
G0 X33.824 Y179.507
G1 X34.174 Y179.857 E399.58833
G0 X34.174 Y179.574
G1 X33.824 Y179.224 E399.60192
G0 X33.824 Y178.941
G1 X34.174 Y179.291 E399.6155
G0 X34.174 Y179.009
G1 X33.824 Y178.659 E399.62908
G0 X33.824 Y178.376
G1 X34.174 Y178.726 E399.64266
G0 X34.174 Y178.443
G1 X33.824 Y178.093 E399.65624
G0 X33.824 Y177.81
G1 X34.174 Y178.16 E399.66983
G0 X34.174 Y177.877
G1 X33.824 Y177.527 E399.68341
G0 X33.824 Y177.244
G1 X34.174 Y177.594 E399.69699
G0 X34.174 Y177.312
G1 X33.824 Y176.962 E399.71057
G0 X33.824 Y176.679
G1 X34.174 Y177.029 E399.72415
G0 X34.174 Y176.746
G1 X33.824 Y176.396 E399.73774
G0 X34.036 Y176.324
G1 X34.174 Y176.463 E399.74311
G0 X33.957 Y63.674
G1 X33.824 Y63.541 E399.74827
G0 X33.824 Y63.258
G1 X34.174 Y63.608 E399.76185
G0 X34.174 Y63.325
G1 X33.824 Y62.975 E399.77544
G0 X33.824 Y62.692
G1 X34.174 Y63.042 E399.78902
G0 X34.174 Y62.76
G1 X33.824 Y62.41 E399.8026
G0 X33.824 Y62.127
G1 X34.174 Y62.477 E399.81618
G0 X34.174 Y62.194
G1 X33.824 Y61.844 E399.82976
G0 X33.824 Y61.561
G1 X34.174 Y61.911 E399.84334
G0 X34.174 Y61.628
G1 X33.824 Y61.278 E399.85693
G0 X33.824 Y60.995
G1 X34.174 Y61.345 E399.87051
G0 X34.174 Y61.063
G1 X33.824 Y60.712 E399.88411
G0 X33.824 Y60.43
G1 X34.174 Y60.78 E399.89769
G0 X34.174 Y60.497
G1 X33.824 Y60.147 E399.91127
G0 X33.824 Y59.864
G1 X34.174 Y60.214 E399.92486
G0 X34.174 Y59.931
G1 X33.824 Y59.581 E399.93844
G0 X33.824 Y59.298
G1 X34.174 Y59.648 E399.95202
G0 X34.174 Y59.365
G1 X33.824 Y59.015 E399.9656
G0 X33.824 Y58.733
G1 X34.174 Y59.083 E399.97918
G0 X34.174 Y58.8
G1 X33.824 Y58.45 E399.99277
G0 X33.824 Y58.167
G1 X34.174 Y58.517 E400.00635
G0 X34.174 Y58.234
G1 X33.824 Y57.884 E400.01993
G0 X33.824 Y57.601
G1 X34.174 Y57.951 E400.03351
G0 X34.174 Y57.668
G1 X33.824 Y57.318 E400.04709
G0 X33.824 Y57.036
G1 X34.174 Y57.386 E400.06067
G0 X34.174 Y57.103
G1 X33.824 Y56.753 E400.07426
G0 X33.824 Y56.47
G1 X34.174 Y56.82 E400.08784
G0 X34.174 Y56.537
G1 X33.824 Y56.187 E400.10142
G0 X33.824 Y55.904
G1 X34.174 Y56.254 E400.115
G0 X34.174 Y55.971
G1 X33.824 Y55.621 E400.12858
G0 X33.824 Y55.338
G1 X34.174 Y55.688 E400.14217
G0 X34.174 Y55.406
G1 X34.093 Y55.325 E400.14531
G0 X137.824 Y55.535
G1 X137.963 Y55.674 E400.1507
G0 X138.246 Y55.674
G1 X137.896 Y55.325 E400.16427
G0 X138.179 Y55.325
G1 X138.529 Y55.674 E400.17783
G0 X138.811 Y55.674
G1 X138.462 Y55.325 E400.19137
G0 X138.745 Y55.325
G1 X139.094 Y55.674 E400.20491
G0 X139.377 Y55.674
G1 X139.028 Y55.325 E400.21846
G0 X139.311 Y55.325
G1 X139.66 Y55.674 E400.232
G0 X139.943 Y55.674
G1 X139.594 Y55.325 E400.24554
G0 X139.876 Y55.325
G1 X140.226 Y55.674 E400.25911
G0 X140.508 Y55.674
G1 X140.159 Y55.325 E400.27265
G0 X140.442 Y55.325
G1 X140.791 Y55.674 E400.28619
G0 X141.074 Y55.674
G1 X140.725 Y55.325 E400.29974
G0 X141.008 Y55.325
G1 X141.357 Y55.674 E400.31328
G0 X141.64 Y55.674
G1 X141.291 Y55.325 E400.32682
G0 X141.573 Y55.325
G1 X141.923 Y55.674 E400.34038
G0 X142.206 Y55.674
G1 X141.856 Y55.325 E400.35395
G0 X142.139 Y55.325
G1 X142.488 Y55.674 E400.36749
G0 X142.771 Y55.674
G1 X142.422 Y55.325 E400.38103
G0 X142.705 Y55.325
G1 X143.054 Y55.674 E400.39458
G0 X143.337 Y55.674
G1 X142.988 Y55.325 E400.40812
G0 X143.27 Y55.325
G1 X143.62 Y55.674 E400.42168
G0 X143.903 Y55.674
G1 X143.553 Y55.325 E400.43524
G0 X143.836 Y55.325
G1 X144.185 Y55.674 E400.44879
G0 X144.468 Y55.674
G1 X144.119 Y55.325 E400.46233
G0 X144.402 Y55.325
G1 X144.751 Y55.674 E400.47587
G0 X145.034 Y55.674
G1 X144.685 Y55.325 E400.48942
G0 X144.968 Y55.325
G1 X145.317 Y55.674 E400.50296
G0 X145.6 Y55.674
G1 X145.25 Y55.325 E400.51652
G0 X145.533 Y55.325
G1 X145.883 Y55.674 E400.53009
G0 X146.165 Y55.674
G1 X145.816 Y55.325 E400.54363
G0 X146.099 Y55.325
G1 X146.174 Y55.4 E400.54654
;MESH:NONMESH
G0 F600 X146.174 Y55.4 Z0.5
G0 F1200 X36.842 Y56.342
G0 X34.5 Y66
;TIME_ELAPSED:438.583076
;LAYER:1
M140 S70
M106 S204
;TYPE:WALL-INNER
;MESH:diafragma.stl
G1 F2000 X34.5 Y174 E404.13863
G1 X36.5 Y174 E404.20515
G1 X36.5 Y184 E404.53775
G1 X135.5 Y184 E407.83051
G1 X135.5 Y182 E407.89703
G1 X145.5 Y182 E408.22963
G1 X145.5 Y174.05 E408.49405
G1 X146.5 Y174.05 E408.52731
G1 X146.5 Y65.95 E412.12273
G1 X145.5 Y65.95 E412.15599
G1 X145.5 Y58 E412.42041
G1 X135.5 Y58 E412.75301
G1 X135.5 Y56 E412.81953
G1 X36.5 Y56 E416.11228
G1 X36.5 Y66 E416.44488
G1 X34.5 Y66 E416.5114
G0 F3000 X31.5 Y187
G1 F2000 X31.5 Y53 E420.96826
G1 X148.5 Y53 E424.8597
G1 X148.5 Y187 E429.31656
G1 X31.5 Y187 E433.20799
G0 F3000 X31.1 Y187.4
G1 F2000 X31.1 Y52.6 E437.69146
