;FLAVOR:Marlin
;TIME:1212
;Filament used: 1.19469m
;Layer height: 0.2
;MINX:74.786
;MINY:104.785
;MINZ:0.3
;MAXX:105.223
;MAXY:135.208
;MAXZ:28.9
;Generated with Cura_SteamEngine 4.6.2
M140 S70
M105
M190 S70
M104 S237
M105
M109 S237
M82 ;absolute extrusion mode
G28 ;Home
G1 Z15.0 F6000 ;Move the platform down 15mm
G92 E0
G1 F200 E3
G92 E0
G92 E0
G92 E0
G1 F2700 E-13
;LAYER_COUNT:144
;LAYER:0
M107
M204 S5000
G0 F1200 X91.526 Y105.278 Z0.3
M204 S3000
;TYPE:SKIRT
G1 F2100 E0
G1 F1200 X92.286 Y105.377 E0.04416
G1 X93.273 Y105.567 E0.10208
G1 X93.932 Y105.731 E0.14121
G1 X94.496 Y105.899 E0.17512
G1 X95.351 Y106.2 E0.22736
G1 X95.939 Y106.443 E0.26402
G1 X96.45 Y106.678 E0.29643
G1 X97.303 Y107.126 E0.35195
G1 X97.815 Y107.43 E0.38626
G1 X98.484 Y107.872 E0.43246
G1 X99.042 Y108.283 E0.4724
G1 X99.573 Y108.71 E0.51166
G1 X99.956 Y109.048 E0.5411
G1 X100.34 Y109.408 E0.57143
G1 X100.749 Y109.823 E0.605
G1 X101.09 Y110.194 E0.63404
G1 X101.453 Y110.622 E0.66638
G1 X102.045 Y111.398 E0.72262
G1 X102.363 Y111.862 E0.75503
G1 X102.702 Y112.399 E0.79163
G1 X103.133 Y113.171 E0.84257
G1 X103.416 Y113.743 E0.87935
G1 X103.733 Y114.476 E0.92537
G1 X103.956 Y115.067 E0.96177
G1 X104.178 Y115.742 E1.00271
G1 X104.337 Y116.314 E1.03692
G1 X104.539 Y117.222 E1.09052
G1 X104.64 Y117.809 E1.12484
G1 X104.716 Y118.39 E1.15861
G1 X104.788 Y119.365 E1.21494
G1 X104.803 Y119.96 E1.24924
G1 X104.792 Y120.558 E1.28371
G1 X104.73 Y121.458 E1.33569
G1 X104.655 Y122.095 E1.37265
G1 X104.563 Y122.654 E1.40529
G1 X104.363 Y123.584 E1.46011
G1 X104.207 Y124.156 E1.49427
G1 X103.959 Y124.921 E1.54061
G1 X103.725 Y125.541 E1.5788
G1 X103.456 Y126.17 E1.61822
G1 X103.206 Y126.688 E1.65136
G1 X102.972 Y127.133 E1.68033
G1 X102.679 Y127.64 E1.71408
G1 X102.164 Y128.433 E1.76856
G1 X101.792 Y128.945 E1.80503
G1 X101.367 Y129.48 E1.8444
G1 X100.819 Y130.101 E1.89213
G1 X100.104 Y130.815 E1.95035
G1 X99.287 Y131.523 E2.01265
G1 X98.784 Y131.913 E2.04932
G1 X98.295 Y132.259 E2.08384
G1 X97.517 Y132.75 E2.13686
G1 X96.969 Y133.058 E2.17308
G1 X96.455 Y133.32 E2.20632
G1 X95.588 Y133.705 E2.26099
G1 X95.026 Y133.922 E2.2957
G1 X94.443 Y134.119 E2.33116
G1 X93.569 Y134.363 E2.38345
G1 X92.969 Y134.5 E2.41891
G1 X92.386 Y134.607 E2.45307
G1 X91.436 Y134.73 E2.50827
G1 X90.68 Y134.78 E2.55193
G1 X89.584 Y134.788 E2.61508
G1 X89.006 Y134.767 E2.64841
G1 X88.241 Y134.694 E2.69269
G1 X87.657 Y134.612 E2.72667
G1 X87.064 Y134.504 E2.76141
G1 X86.15 Y134.289 E2.81551
G1 X85.594 Y134.128 E2.84887
G1 X84.837 Y133.867 E2.89501
G1 X84.231 Y133.626 E2.93259
G1 X83.741 Y133.41 E2.96344
G1 X83.188 Y133.137 E2.99898
G1 X82.647 Y132.842 E3.03449
G1 X81.961 Y132.422 E3.08084
G1 X81.397 Y132.038 E3.12016
G1 X80.87 Y131.647 E3.15797
G1 X80.401 Y131.261 E3.19297
G1 X79.725 Y130.649 E3.24552
G1 X79.302 Y130.222 E3.28015
G1 X78.958 Y129.849 E3.30939
G1 X78.334 Y129.1 E3.36556
G1 X77.912 Y128.533 E3.40629
G1 X77.53 Y127.965 E3.44574
G1 X77.109 Y127.263 E3.4929
G1 X76.818 Y126.722 E3.5283
G1 X76.545 Y126.157 E3.56446
G1 X76.204 Y125.351 E3.61489
G1 X75.99 Y124.763 E3.65095
G1 X75.805 Y124.177 E3.68636
G1 X75.576 Y123.297 E3.73875
G1 X75.452 Y122.702 E3.77378
G1 X75.357 Y122.124 E3.80753
G1 X75.248 Y121.145 E3.86429
G1 X75.206 Y120.176 E3.92018
G1 X75.211 Y119.517 E3.95815
G1 X75.243 Y118.915 E3.99289
G1 X75.288 Y118.417 E4.02171
G1 X75.36 Y117.846 E4.05487
G1 X75.527 Y116.927 E4.10869
G1 X75.66 Y116.357 E4.14242
G1 X75.824 Y115.76 E4.1781
G1 X76.128 Y114.852 E4.23327
G1 X76.341 Y114.308 E4.26694
G1 X76.67 Y113.58 E4.31297
G1 X76.982 Y112.969 E4.3525
G1 X77.294 Y112.418 E4.38899
G1 X77.617 Y111.899 E4.42422
G1 X78.144 Y111.145 E4.47722
G1 X78.517 Y110.667 E4.51216
G1 X78.912 Y110.201 E4.54736
G1 X79.562 Y109.511 E4.60199
G1 X79.987 Y109.104 E4.63589
G1 X80.587 Y108.584 E4.68165
G1 X81.126 Y108.161 E4.72113
G1 X81.668 Y107.77 E4.75964
G1 X82.17 Y107.443 E4.79416
G1 X82.947 Y106.99 E4.84599
G1 X83.495 Y106.707 E4.88153
G1 X83.949 Y106.495 E4.9104
G1 X84.873 Y106.119 E4.96788
G1 X85.482 Y105.907 E5.00504
G1 X86.077 Y105.731 E5.0408
G1 X86.987 Y105.512 E5.09473
G1 X87.977 Y105.342 E5.15261
G1 X88.62 Y105.265 E5.18993
G1 X89.228 Y105.22 E5.22506
G1 X89.853 Y105.205 E5.26108
G1 X90.924 Y105.235 E5.32282
G1 X91.526 Y105.278 E5.3576
M204 S5000
G0 X91.561 Y104.859
M204 S3000
G1 X92.344 Y104.961 E5.4031
G1 X93.357 Y105.156 E5.46254
G1 X94.051 Y105.328 E5.50374
G1 X94.625 Y105.499 E5.53826
G1 X95.497 Y105.806 E5.59153
G1 X96.114 Y106.061 E5.63
G1 X96.634 Y106.3 E5.66297
G1 X97.505 Y106.758 E5.71968
G1 X98.042 Y107.077 E5.75567
G1 X98.733 Y107.534 E5.80341
G1 X99.291 Y107.945 E5.84334
G1 X99.85 Y108.394 E5.88466
G1 X100.24 Y108.738 E5.91463
G1 X100.639 Y109.113 E5.94618
G1 X101.055 Y109.535 E5.98032
G1 X101.41 Y109.922 E6.01059
G1 X101.779 Y110.358 E6.0435
G1 X102.093 Y110.755 E6.07267
G1 X102.492 Y111.301 E6.11163
G1 X102.967 Y112.029 E6.16172
G1 X103.298 Y112.591 E6.19931
G1 X103.581 Y113.122 E6.23398
G1 X103.799 Y113.572 E6.26279
G1 X104.125 Y114.327 E6.31018
G1 X104.348 Y114.918 E6.34658
G1 X104.513 Y115.404 E6.37615
G1 X104.699 Y116.042 E6.41445
G1 X104.857 Y116.687 E6.45271
G1 X104.983 Y117.306 E6.48911
G1 X105.114 Y118.187 E6.54044
G1 X105.179 Y118.838 E6.57814
G1 X105.208 Y119.341 E6.60717
G1 X105.223 Y119.966 E6.64319
G1 X105.212 Y120.576 E6.67835
G1 X105.149 Y121.494 E6.73137
G1 X105.069 Y122.162 E6.77014
G1 X104.976 Y122.732 E6.80342
G1 X104.877 Y123.229 E6.83262
G1 X104.722 Y123.877 E6.87101
G1 X104.46 Y124.756 E6.92387
G1 X104.118 Y125.689 E6.98113
G1 X103.835 Y126.351 E7.02261
G1 X103.58 Y126.879 E7.0564
G1 X103.336 Y127.342 E7.08656
G1 X103.037 Y127.859 E7.12097
G1 X102.513 Y128.667 E7.17647
G1 X102.121 Y129.206 E7.21487
G1 X101.696 Y129.741 E7.25424
G1 X101.131 Y130.383 E7.30352
G1 X100.398 Y131.115 E7.36322
G1 X99.557 Y131.844 E7.42735
G1 X99.028 Y132.255 E7.46595
G1 X98.529 Y132.608 E7.50117
G1 X97.735 Y133.109 E7.55527
G1 X97.161 Y133.432 E7.59322
G1 X96.637 Y133.698 E7.62709
G1 X96.177 Y133.912 E7.65632
G1 X95.593 Y134.157 E7.69281
G1 X94.736 Y134.465 E7.74529
G1 X94.124 Y134.651 E7.78215
G1 X93.518 Y134.808 E7.81822
G1 X92.608 Y134.995 E7.87175
G1 X91.97 Y135.092 E7.90894
G1 X91.307 Y135.164 E7.94737
G1 X90.683 Y135.2 E7.98338
G1 X89.587 Y135.208 E8.04654
G1 X88.985 Y135.187 E8.08125
G1 X88.197 Y135.111 E8.12687
G1 X87.583 Y135.026 E8.16259
G1 X86.98 Y134.916 E8.19791
G1 X86.485 Y134.808 E8.2271
G1 X85.891 Y134.654 E8.26246
G1 X84.988 Y134.369 E8.31703
G1 X84.075 Y134.016 E8.37343
G1 X83.567 Y133.792 E8.40542
G1 X83 Y133.512 E8.44186
G1 X82.431 Y133.203 E8.47917
G1 X81.724 Y132.769 E8.52698
G1 X81.16 Y132.385 E8.56629
G1 X80.605 Y131.972 E8.60616
G1 X80.127 Y131.58 E8.64178
G1 X79.438 Y130.955 E8.69538
G1 X78.993 Y130.507 E8.73177
G1 X78.649 Y130.134 E8.76101
G1 X78.008 Y129.365 E8.81869
G1 X77.563 Y128.767 E8.86165
G1 X77.181 Y128.199 E8.90109
G1 X76.746 Y127.473 E8.94986
G1 X76.441 Y126.907 E8.98691
G1 X76.162 Y126.33 E9.02384
G1 X75.815 Y125.509 E9.0752
G1 X75.59 Y124.891 E9.1131
G1 X75.401 Y124.293 E9.14924
G1 X75.168 Y123.397 E9.20258
G1 X75.037 Y122.771 E9.23944
G1 X74.941 Y122.183 E9.27377
G1 X74.876 Y121.679 E9.30305
G1 X74.809 Y120.857 E9.35058
G1 X74.786 Y120.19 E9.38903
G1 X74.791 Y119.496 E9.42902
G1 X74.824 Y118.882 E9.46446
G1 X74.871 Y118.365 E9.49437
G1 X74.945 Y117.784 E9.52812
G1 X75.115 Y116.845 E9.58311
G1 X75.254 Y116.247 E9.61848
G1 X75.422 Y115.639 E9.65483
G1 X75.732 Y114.712 E9.71116
G1 X75.957 Y114.14 E9.74658
G1 X76.296 Y113.389 E9.79405
G1 X76.608 Y112.778 E9.83359
G1 X76.937 Y112.197 E9.87206
G1 X77.266 Y111.669 E9.90791
G1 X77.805 Y110.898 E9.96212
G1 X78.196 Y110.396 E9.99878
G1 X78.599 Y109.921 E10.03468
G1 X79.261 Y109.219 E10.09028
G1 X79.708 Y108.79 E10.12598
G1 X80.327 Y108.254 E10.17316
G1 X80.866 Y107.831 E10.21264
G1 X81.437 Y107.42 E10.25318
G1 X81.95 Y107.085 E10.28849
G1 X82.741 Y106.624 E10.34125
G1 X83.317 Y106.327 E10.37859
G1 X83.771 Y106.115 E10.40746
G1 X84.719 Y105.729 E10.46644
G1 X85.361 Y105.505 E10.50562
G1 X85.968 Y105.325 E10.54211
G1 X86.895 Y105.102 E10.59705
G1 X87.91 Y104.927 E10.6564
G1 X88.587 Y104.846 E10.69569
G1 X89.209 Y104.8 E10.73163
G1 X89.865 Y104.785 E10.76944
G1 X90.936 Y104.815 E10.83118
G1 X91.561 Y104.859 E10.86728
M204 S5000
G1 F2700 E-2.13272
;MESH:NUEVITO.stl
G0 F1200 X90.974 Y109.782
G0 X90.809 Y111.086
G0 X91.449 Y111.147
M204 S3000
;TYPE:WALL-INNER
G1 F2100 E10.86728
G1 F1200 X92.092 Y111.277 E10.90508
G1 X92.707 Y111.448 E10.94186
G1 X93.328 Y111.67 E10.97987
G1 X93.924 Y111.932 E11.01738
G1 X94.482 Y112.228 E11.05378
G1 X95.04 Y112.577 E11.0917
G1 X95.554 Y112.954 E11.12843
G1 X96.052 Y113.377 E11.16609
G1 X96.509 Y113.825 E11.20296
G1 X96.952 Y114.329 E11.24163
G1 X97.322 Y114.815 E11.27683
G1 X97.689 Y115.377 E11.3155
G1 X98.005 Y115.946 E11.35301
G1 X98.272 Y116.523 E11.38964
G1 X98.501 Y117.127 E11.42687
G1 X98.69 Y117.764 E11.46515
G1 X98.823 Y118.367 E11.50073
G1 X98.922 Y119.043 E11.5401
G1 X98.967 Y119.669 E11.57627
G1 X98.967 Y120.331 E11.61442
G1 X98.921 Y120.959 E11.6507
G1 X98.826 Y121.619 E11.68912
G1 X98.688 Y122.242 E11.72589
G1 X98.501 Y122.87 E11.76365
G1 X98.276 Y123.467 E11.80041
G1 X98.005 Y124.054 E11.83767
G1 X97.688 Y124.625 E11.8753
G1 X97.329 Y125.176 E11.9132
G1 X96.952 Y125.671 E11.94905
G1 X96.51 Y126.174 E11.98764
G1 X96.052 Y126.623 E12.02459
G1 X95.556 Y127.045 E12.06212
G1 X95.04 Y127.423 E12.09898
G1 X94.483 Y127.771 E12.13682
G1 X93.923 Y128.068 E12.17335
G1 X93.328 Y128.33 E12.21081
G1 X92.707 Y128.552 E12.24881
G1 X92.092 Y128.723 E12.2856
G1 X91.449 Y128.853 E12.3234
G1 X90.81 Y128.933 E12.36051
G1 X90.167 Y128.968 E12.39761
G1 X89.51 Y128.956 E12.43548
G1 X88.869 Y128.898 E12.47257
G1 X88.235 Y128.794 E12.50959
G1 X87.612 Y128.645 E12.5465
G1 X86.987 Y128.448 E12.58426
G1 X86.38 Y128.205 E12.62194
G1 X85.809 Y127.929 E12.65848
G1 X85.245 Y127.603 E12.69602
G1 X84.699 Y127.233 E12.73402
G1 X84.194 Y126.834 E12.77111
G1 X83.721 Y126.402 E12.80802
G1 X83.267 Y125.922 E12.84609
G1 X82.866 Y125.432 E12.88258
G1 X82.485 Y124.893 E12.92061
G1 X82.149 Y124.333 E12.95825
G1 X81.864 Y123.773 E12.99445
G1 X81.611 Y123.168 E13.03224
G1 X81.405 Y122.554 E13.06956
G1 X81.244 Y121.93 E13.10669
G1 X81.127 Y121.29 E13.14418
G1 X81.056 Y120.638 E13.18198
G1 X81.034 Y120 E13.21876
G1 X81.056 Y119.362 E13.25555
G1 X81.127 Y118.71 E13.29334
G1 X81.244 Y118.07 E13.33083
G1 X81.405 Y117.446 E13.36797
G1 X81.611 Y116.832 E13.40528
G1 X81.859 Y116.24 E13.44227
G1 X82.156 Y115.656 E13.48002
G1 X82.485 Y115.107 E13.5169
G1 X82.866 Y114.568 E13.55494
G1 X83.267 Y114.078 E13.59142
G1 X83.721 Y113.598 E13.62949
G1 X84.194 Y113.166 E13.66641
G1 X84.699 Y112.767 E13.70349
G1 X85.245 Y112.397 E13.7415
G1 X85.811 Y112.07 E13.77917
G1 X86.38 Y111.795 E13.81558
G1 X86.987 Y111.552 E13.85326
G1 X87.612 Y111.355 E13.89102
G1 X88.235 Y111.206 E13.92793
G1 X88.869 Y111.102 E13.96495
G1 X89.51 Y111.044 E14.00204
G1 X90.167 Y111.032 E14.0399
G1 X90.81 Y111.067 E14.07701
G1 X91.449 Y111.147 E14.11412
M204 S5000
G0 X91.433 Y111.245
G0 X94.7 Y113.194
G0 X95.732 Y114.036
G0 X96.614 Y115.031
G0 X97.326 Y116.157
G0 X97.847 Y117.381
G0 X98.166 Y118.674
G0 X98.273 Y120
G0 X98.166 Y121.326
G0 X97.847 Y122.619
G0 X97.326 Y123.843
G0 X96.614 Y124.969
G0 X95.732 Y125.964
G0 X94.7 Y126.806
G0 X93.768 Y127.345
G0 X92.32 Y128.002
G0 X92.293 Y127.906
M204 S3000
G1 X92.922 Y127.695 E14.15235
G1 X93.531 Y127.436 E14.19048
G1 X94.118 Y127.128 E14.22868
G1 X94.678 Y126.774 E14.26686
G1 X95.209 Y126.376 E14.3051
G1 X95.705 Y125.936 E14.3433
G1 X96.164 Y125.458 E14.38149
G1 X96.583 Y124.945 E14.41966
G1 X96.96 Y124.399 E14.45789
G1 X97.291 Y123.825 E14.49607
G1 X97.575 Y123.226 E14.53427
G1 X97.81 Y122.607 E14.57242
G1 X97.994 Y121.97 E14.61063
G1 X98.127 Y121.32 E14.64886
G1 X98.206 Y120.663 E14.68699
G1 X98.233 Y120 E14.72523
G1 X98.206 Y119.337 E14.76346
G1 X98.127 Y118.68 E14.8016
G1 X97.994 Y118.03 E14.83983
G1 X97.81 Y117.393 E14.87803
G1 X97.575 Y116.774 E14.91619
G1 X97.291 Y116.175 E14.95439
G1 X96.96 Y115.601 E14.99257
G1 X96.583 Y115.055 E15.0308
G1 X96.164 Y114.542 E15.06897
G1 X95.705 Y114.064 E15.10715
G1 X95.209 Y113.624 E15.14536
G1 X94.678 Y113.226 E15.1836
G1 X94.118 Y112.872 E15.22178
G1 X93.531 Y112.564 E15.25997
G1 X92.922 Y112.305 E15.29811
G1 X92.293 Y112.094 E15.33634
G1 X91.649 Y111.936 E15.37455
G1 X90.995 Y111.829 E15.41273
G1 X90.334 Y111.776 E15.45095
G1 X89.672 Y111.776 E15.48909
G1 X89.011 Y111.829 E15.5273
G1 X88.357 Y111.936 E15.56549
G1 X87.714 Y112.094 E15.60364
G1 X87.084 Y112.304 E15.64191
G1 X86.475 Y112.564 E15.68007
G1 X85.888 Y112.872 E15.71827
G1 X85.328 Y113.226 E15.75644
G1 X84.798 Y113.624 E15.79463
G1 X84.302 Y114.064 E15.83284
G1 X83.842 Y114.542 E15.87107
G1 X83.423 Y115.056 E15.90928
G1 X83.047 Y115.601 E15.94743
G1 X82.716 Y116.175 E15.98561
G1 X82.431 Y116.774 E16.02384
G1 X82.196 Y117.393 E16.06199
G1 X82.012 Y118.031 E16.10025
G1 X81.88 Y118.68 E16.13841
G1 X81.8 Y119.337 E16.17655
G1 X81.773 Y120 E16.21479
G1 X81.8 Y120.663 E16.25302
G1 X81.88 Y121.32 E16.29116
G1 X82.012 Y121.969 E16.32933
G1 X82.196 Y122.607 E16.36759
G1 X82.431 Y123.226 E16.40574
G1 X82.716 Y123.825 E16.44396
G1 X83.047 Y124.399 E16.48215
G1 X83.423 Y124.944 E16.5203
G1 X83.842 Y125.458 E16.55851
G1 X84.302 Y125.936 E16.59674
G1 X84.798 Y126.376 E16.63494
G1 X85.328 Y126.774 E16.67314
G1 X85.888 Y127.128 E16.71131
G1 X86.475 Y127.436 E16.74951
G1 X87.084 Y127.696 E16.78767
G1 X87.714 Y127.906 E16.82593
G1 X88.357 Y128.064 E16.86409
G1 X89.011 Y128.171 E16.90227
G1 X89.672 Y128.224 E16.94049
G1 X90.334 Y128.224 E16.97863
G1 X90.995 Y128.171 E17.01684
G1 X91.649 Y128.064 E17.05503
G1 X92.293 Y127.906 E17.09324
M204 S5000
G0 X92.32 Y128.002
G0 X91.433 Y128.755
G0 X91.516 Y129.268
M204 S3000
;TYPE:WALL-OUTER
G1 X90.858 Y129.351 E17.13146
G1 X90.169 Y129.388 E17.17122
G1 X89.492 Y129.376 E17.21023
G1 X88.818 Y129.315 E17.24923
G1 X88.151 Y129.205 E17.28818
G1 X87.49 Y129.047 E17.32735
G1 X86.849 Y128.845 E17.36607
G1 X86.211 Y128.59 E17.40566
G1 X85.609 Y128.299 E17.44419
G1 X85.019 Y127.958 E17.48346
G1 X84.454 Y127.575 E17.52279
G1 X83.926 Y127.158 E17.56156
G1 X83.422 Y126.698 E17.60088
G1 X82.953 Y126.202 E17.64022
G1 X82.533 Y125.689 E17.67842
G1 X82.133 Y125.122 E17.71841
G1 X81.784 Y124.541 E17.75746
G1 X81.483 Y123.949 E17.79573
G1 X81.216 Y123.311 E17.83558
G1 X81 Y122.668 E17.87467
G1 X80.835 Y122.026 E17.91287
G1 X80.71 Y121.344 E17.95282
G1 X80.637 Y120.67 E17.99188
G1 X80.613 Y120 E18.03052
G1 X80.637 Y119.33 E18.06915
G1 X80.71 Y118.656 E18.10821
G1 X80.835 Y117.974 E18.14817
G1 X81 Y117.332 E18.18636
G1 X81.216 Y116.689 E18.22545
G1 X81.484 Y116.05 E18.26538
G1 X81.784 Y115.459 E18.30357
G1 X82.133 Y114.878 E18.34263
G1 X82.533 Y114.311 E18.38261
G1 X82.953 Y113.798 E18.42081
G1 X83.422 Y113.302 E18.46015
G1 X83.926 Y112.842 E18.49947
G1 X84.454 Y112.425 E18.53824
G1 X85.019 Y112.042 E18.57757
G1 X85.611 Y111.7 E18.61697
G1 X86.211 Y111.41 E18.65537
G1 X86.849 Y111.155 E18.69496
G1 X87.49 Y110.953 E18.73369
G1 X88.151 Y110.795 E18.77285
G1 X88.818 Y110.685 E18.8118
G1 X89.492 Y110.624 E18.8508
G1 X90.169 Y110.612 E18.88982
G1 X90.858 Y110.649 E18.92958
G1 X91.516 Y110.732 E18.96779
G1 X92.193 Y110.869 E19.00759
G1 X92.833 Y111.047 E19.04587
G1 X93.485 Y111.28 E19.08577
G1 X94.102 Y111.551 E19.1246
G1 X94.692 Y111.864 E19.16309
G1 X95.275 Y112.229 E19.20272
G1 X95.814 Y112.624 E19.24123
G1 X96.336 Y113.067 E19.28068
G1 X96.815 Y113.537 E19.31935
G1 X97.273 Y114.057 E19.35928
G1 X97.674 Y114.585 E19.39748
G1 X98.045 Y115.153 E19.43658
G1 X98.378 Y115.753 E19.47612
G1 X98.665 Y116.374 E19.51554
G1 X98.9 Y116.995 E19.5538
G1 X99.093 Y117.644 E19.59282
G1 X99.239 Y118.306 E19.63188
G1 X99.339 Y118.992 E19.67183
G1 X99.387 Y119.653 E19.71002
G1 X99.387 Y120.347 E19.75001
G1 X99.339 Y121.008 E19.78819
G1 X99.24 Y121.69 E19.82791
G1 X99.094 Y122.35 E19.86686
G1 X98.901 Y123.001 E19.90598
G1 X98.665 Y123.626 E19.94448
G1 X98.378 Y124.247 E19.9839
G1 X98.048 Y124.842 E20.02311
G1 X97.675 Y125.414 E20.06246
G1 X97.273 Y125.943 E20.10074
G1 X96.816 Y126.462 E20.14059
