;FLAVOR:Marlin
;TIME:1844
;Filament used: 1.38824m
;Layer height: 0.2
;MINX:73.525
;MINY:102.979
;MINZ:0.3
;MAXX:105.509
;MAXY:135.565
;MAXZ:35.9
;Generated with Cura_SteamEngine 4.6.2
M140 S45
M105
M190 S45
M104 S217
M105
M109 S217
M82 ;absolute extrusion mode
G28 ;Home
G1 Z15.0 F6000 ;Move the platform down 15mm
G92 E0
G1 F200 E3
G92 E0
G92 E0
G92 E0
G1 F2700 E-13
;LAYER_COUNT:179
;LAYER:0
M107
M204 S5000
G0 F2400 X93.431 Y103.965 Z0.3
M204 S3000
;TYPE:SKIRT
G1 F2100 E0
G1 F1500 X94.088 Y104.101 E0.0369
G1 X94.883 Y104.334 E0.08247
G1 X96.189 Y104.796 E0.15867
G1 X96.841 Y105.035 E0.19686
G1 X97.432 Y105.294 E0.23236
G1 X98.223 Y105.796 E0.28389
G1 X98.767 Y106.214 E0.32162
G1 X99.487 Y106.861 E0.37487
G1 X99.897 Y107.359 E0.41035
G1 X100.189 Y107.809 E0.43985
G1 X100.866 Y108.98 E0.51425
G1 X102.669 Y111.976 E0.70658
G1 X103.168 Y112.774 E0.75835
G1 X103.436 Y113.226 E0.78726
G1 X103.776 Y113.889 E0.82824
G1 X104.008 Y114.399 E0.85906
G1 X104.366 Y115.383 E0.91665
G1 X104.534 Y115.93 E0.94813
G1 X104.753 Y116.824 E0.99875
G1 X104.867 Y117.396 E1.03083
G1 X104.976 Y118.117 E1.07094
G1 X105.06 Y119.062 E1.12313
G1 X105.089 Y119.991 E1.17425
G1 X105.084 Y120.52 E1.20335
G1 X105.044 Y121.209 E1.24131
G1 X104.992 Y121.746 E1.27098
G1 X104.913 Y122.336 E1.30373
G1 X104.724 Y123.307 E1.35814
G1 X104.501 Y124.18 E1.4077
G1 X104.178 Y125.167 E1.46482
G1 X103.944 Y125.779 E1.50086
G1 X103.544 Y126.658 E1.55398
G1 X103.037 Y127.567 E1.61123
G1 X102.561 Y128.293 E1.65898
G1 X102.203 Y128.766 E1.69161
G1 X101.778 Y129.288 E1.72863
G1 X101.187 Y129.929 E1.77659
G1 X100.8 Y130.311 E1.8065
G1 X100.358 Y130.709 E1.83921
G1 X99.843 Y131.144 E1.87629
G1 X99.26 Y131.596 E1.91687
G1 X98.814 Y131.905 E1.94671
G1 X98.346 Y132.206 E1.97732
G1 X97.89 Y132.479 E2.00655
G1 X97.292 Y132.8 E2.04389
G1 X96.306 Y133.253 E2.10357
G1 X94.799 Y133.832 E2.19237
G1 X92.903 Y134.518 E2.30327
G1 X92.316 Y134.742 E2.33783
G1 X91.7 Y134.934 E2.37332
G1 X90.976 Y135.058 E2.41372
G1 X90.394 Y135.112 E2.44587
G1 X89.816 Y135.146 E2.47772
G1 X89.171 Y135.144 E2.5132
G1 X88.253 Y135.022 E2.56414
G1 X87.524 Y134.895 E2.60484
G1 X86.803 Y134.757 E2.64521
G1 X86.18 Y134.61 E2.68042
G1 X85.55 Y134.435 E2.71639
G1 X84.886 Y134.238 E2.75448
G1 X84.03 Y133.9 E2.8051
G1 X83.081 Y133.424 E2.8635
G1 X82.168 Y132.937 E2.92042
G1 X81.528 Y132.581 E2.9607
G1 X80.984 Y132.233 E2.99622
G1 X80.443 Y131.778 E3.0351
G1 X79.734 Y131.094 E3.08929
G1 X79.038 Y130.397 E3.14347
G1 X78.526 Y129.872 E3.18381
G1 X78.105 Y129.384 E3.21926
G1 X76.979 Y127.663 E3.33238
G1 X76.546 Y126.923 E3.37954
G1 X76.228 Y126.268 E3.41959
G1 X75.931 Y125.529 E3.46339
G1 X75.382 Y124.069 E3.54919
G1 X75.143 Y123.217 E3.59786
G1 X74.924 Y122.069 E3.66215
G1 X74.528 Y120.108 E3.77219
G1 X74.355 Y119.296 E3.81785
G1 X74.152 Y118.119 E3.88355
G1 X74.003 Y117.154 E3.93725
G1 X73.944 Y116.511 E3.97277
G1 X73.965 Y115.866 E4.00827
G1 X74.066 Y115.229 E4.04374
G1 X74.245 Y114.609 E4.07924
G1 X74.852 Y113.214 E4.16292
G1 X75.202 Y112.479 E4.20769
G1 X75.534 Y111.881 E4.24532
G1 X75.981 Y111.169 E4.29156
G1 X76.398 Y110.537 E4.3332
G1 X77 Y109.787 E4.3861
G1 X77.728 Y109.058 E4.44277
G1 X78.751 Y108.075 E4.52081
G1 X79.192 Y107.667 E4.55385
G1 X79.648 Y107.291 E4.58636
G1 X80.393 Y106.745 E4.63717
G1 X82.366 Y105.26 E4.77299
G1 X82.905 Y104.905 E4.80849
G1 X83.483 Y104.619 E4.84396
G1 X84.083 Y104.409 E4.87893
G1 X84.685 Y104.239 E4.91334
G1 X85.721 Y103.972 E4.97218
G1 X86.496 Y103.786 E5.01602
G1 X87.298 Y103.615 E5.06113
G1 X88.079 Y103.472 E5.1048
G1 X88.72 Y103.397 E5.1403
G1 X89.365 Y103.402 E5.17578
G1 X93.431 Y103.965 E5.40156
M204 S5000
G0 F2400 X93.49 Y103.549
M204 S3000
G1 F1500 X94.2 Y103.696 E5.44144
G1 X95.023 Y103.938 E5.48862
G1 X96.329 Y104.4 E5.56482
G1 X96.985 Y104.64 E5.60324
G1 X97.6 Y104.908 E5.64014
G1 X98.179 Y105.247 E5.67704
G1 X99.023 Y105.881 E5.73511
G1 X99.776 Y106.555 E5.79069
G1 X100.206 Y107.07 E5.8276
G1 X100.553 Y107.599 E5.86239
G1 X101.223 Y108.759 E5.93608
G1 X103.035 Y111.769 E6.12932
G1 X103.524 Y112.551 E6.18005
G1 X103.798 Y113.014 E6.20965
G1 X104.154 Y113.705 E6.2524
G1 X104.391 Y114.228 E6.28398
G1 X104.579 Y114.707 E6.31229
G1 X104.763 Y115.247 E6.34367
G1 X104.94 Y115.82 E6.37665
G1 X105.163 Y116.731 E6.42824
G1 X105.281 Y117.326 E6.46161
G1 X105.392 Y118.059 E6.50238
G1 X105.479 Y119.029 E6.55595
G1 X105.509 Y119.983 E6.60845
G1 X105.504 Y120.527 E6.63838
G1 X105.463 Y121.238 E6.67755
G1 X105.41 Y121.789 E6.70799
G1 X105.327 Y122.408 E6.74235
G1 X105.136 Y123.391 E6.79743
G1 X104.907 Y124.288 E6.84835
G1 X104.575 Y125.302 E6.90704
G1 X104.329 Y125.946 E6.94495
G1 X103.924 Y126.837 E6.99879
G1 X103.691 Y127.28 E7.02632
G1 X103.4 Y127.778 E7.05805
G1 X102.896 Y128.547 E7.10862
G1 X102.538 Y129.02 E7.14125
G1 X102.092 Y129.566 E7.18003
G1 X101.492 Y130.218 E7.22876
G1 X101.092 Y130.613 E7.25968
G1 X100.629 Y131.03 E7.29396
G1 X100.114 Y131.465 E7.33104
G1 X99.499 Y131.941 E7.37381
G1 X99.053 Y132.25 E7.40366
G1 X98.57 Y132.561 E7.43525
G1 X98.105 Y132.84 E7.46508
G1 X97.486 Y133.172 E7.50372
G1 X96.479 Y133.636 E7.5647
G1 X94.947 Y134.225 E7.65498
G1 X93.085 Y134.899 E7.7639
G1 X92.466 Y135.135 E7.80034
G1 X91.826 Y135.336 E7.83724
G1 X91.017 Y135.476 E7.8824
G1 X90.419 Y135.531 E7.91543
G1 X89.841 Y135.565 E7.94728
G1 X89.17 Y135.565 E7.98418
G1 X88.646 Y135.508 E8.01318
G1 X88.074 Y135.418 E8.04503
G1 X87.451 Y135.308 E8.07982
G1 X86.724 Y135.17 E8.12053
G1 X86.078 Y135.017 E8.15704
G1 X85.437 Y134.839 E8.19363
G1 X84.767 Y134.641 E8.23206
G1 X83.842 Y134.275 E8.28678
G1 X82.893 Y133.799 E8.34517
G1 X81.969 Y133.307 E8.40275
G1 X81.324 Y132.948 E8.44336
G1 X80.758 Y132.588 E8.48025
G1 X80.151 Y132.08 E8.52379
G1 X79.442 Y131.396 E8.57798
G1 X78.741 Y130.694 E8.63255
G1 X78.225 Y130.166 E8.67315
G1 X77.786 Y129.658 E8.71008
G1 X76.626 Y127.89 E8.82639
G1 X76.182 Y127.132 E8.87471
G1 X75.838 Y126.424 E8.91801
G1 X75.541 Y125.685 E8.96182
G1 X74.989 Y124.217 E9.04808
G1 X74.731 Y123.296 E9.10069
G1 X74.523 Y122.207 E9.16167
G1 X74.116 Y120.191 E9.2748
G1 X73.944 Y119.383 E9.32024
G1 X73.738 Y118.189 E9.38688
G1 X73.588 Y117.218 E9.44092
G1 X73.525 Y116.55 E9.47783
G1 X73.543 Y115.879 E9.51475
G1 X73.64 Y115.216 E9.55161
G1 X73.815 Y114.568 E9.58853
G1 X74.012 Y114.062 E9.61839
G1 X74.468 Y113.042 E9.67985
G1 X74.824 Y112.297 E9.72526
G1 X75.06 Y111.856 E9.75278
G1 X75.626 Y110.945 E9.81177
G1 X76.048 Y110.305 E9.85393
G1 X76.45 Y109.769 E9.89079
G1 X76.878 Y109.309 E9.92535
G1 X77.433 Y108.759 E9.96832
G1 X78.46 Y107.772 E10.04667
G1 X78.907 Y107.358 E10.08018
G1 X79.4 Y106.952 E10.11531
G1 X80.157 Y106.397 E10.16694
G1 X82.113 Y104.925 E10.30159
G1 X82.672 Y104.554 E10.3385
G1 X83.272 Y104.252 E10.37544
G1 X83.969 Y104.005 E10.41612
G1 X84.571 Y103.835 E10.45052
G1 X85.617 Y103.566 E10.50993
G1 X86.398 Y103.377 E10.55413
G1 X87.212 Y103.204 E10.5999
G1 X88.005 Y103.058 E10.64425
G1 X88.671 Y102.979 E10.68114
G1 X89.341 Y102.979 E10.71799
G1 X93.49 Y103.549 E10.94835
M204 S5000
G0 F2400 X92.793 Y109.341
M204 S3000
;TYPE:SUPPORT
G1 F1500 X93.063 Y109.437 E10.96407
G1 X93.458 Y109.584 E10.9872
G1 X94.947 Y110.103 E11.07373
G1 X95.226 Y110.369 E11.09488
G1 X95.473 Y110.521 E11.11079
G1 X95.473 Y111.178 E11.14685
G1 X95.484 Y111.195 E11.14796
G1 X95.406 Y111.151 E11.15287
G1 X94.864 Y110.887 E11.18595
G1 X94.248 Y110.635 E11.22247
G1 X93.676 Y110.437 E11.25569
G1 X93.01 Y110.257 E11.29355
G1 X92.44 Y110.137 E11.32551
G1 X91.749 Y110.042 E11.36378
G1 X91.173 Y109.995 E11.39549
G1 X90.48 Y109.987 E11.43352
G1 X89.894 Y110.016 E11.46572
G1 X89.201 Y110.096 E11.504
G1 X88.636 Y110.198 E11.5355
G1 X87.959 Y110.366 E11.57378
G1 X87.425 Y110.534 E11.6045
G1 X86.901 Y110.734 E11.63527
G1 X86.267 Y111.022 E11.67348
G1 X85.626 Y111.377 E11.71369
G1 X85.004 Y111.785 E11.75451
G1 X84.384 Y112.264 E11.7975
G1 X83.856 Y112.743 E11.83662
G1 X83.468 Y113.146 E11.86732
G1 X83.086 Y113.592 E11.89954
G1 X82.458 Y114.424 E11.95674
G1 X82.013 Y115.084 E12.00042
G1 X81.617 Y115.79 E12.04484
G1 X81.297 Y116.504 E12.08777
G1 X81.027 Y117.269 E12.13229
G1 X80.833 Y118.017 E12.17469
G1 X80.696 Y118.808 E12.21874
G1 X80.63 Y119.573 E12.26088
G1 X80.63 Y120.382 E12.30527
G1 X80.694 Y121.158 E12.34799
G1 X80.826 Y121.94 E12.39151
G1 X80.958 Y122.492 E12.42266
G1 X81.196 Y123.235 E12.46547
G1 X81.488 Y123.942 E12.50744
G1 X81.835 Y124.617 E12.54909
G1 X82.21 Y125.279 E12.59084
G1 X82.623 Y125.932 E12.63323
G1 X83.112 Y126.579 E12.67774
G1 X83.659 Y127.186 E12.72257
G1 X84.245 Y127.733 E12.76656
G1 X84.799 Y128.177 E12.80552
G1 X84.929 Y128.266 E12.81416
G1 X84.155 Y127.851 E12.86236
G1 X82.406 Y126.1 E12.99816
G1 X82.032 Y125.497 E13.0371
G1 X81.938 Y125.366 E13.04594
G1 X81.718 Y125.003 E13.06923
G1 X81.308 Y124.385 E13.10993
G1 X81.265 Y124.263 E13.11703
G1 X81.23 Y124.212 E13.12042
G1 X81.138 Y123.89 E13.1388
G1 X80.938 Y123.422 E13.16673
G1 X80.839 Y123.113 E13.18453
G1 X80.456 Y122.188 E13.23947
G1 X80.421 Y121.765 E13.26276
G1 X80.16 Y118.431 E13.44626
G1 X79.783 Y118.035 E13.47627
G1 X79.632 Y118.015 E13.48462
G1 X79.499 Y116.666 E13.55901
G1 X79.369 Y116.353 E13.5776
G1 X80.078 Y114.825 E13.67004
G1 X80.876 Y113.575 E13.75141
G1 X81.261 Y113.482 E13.77315
G1 X82.332 Y112.145 E13.86715
G1 X82.863 Y111.641 E13.90732
G1 X84.463 Y110.504 E14.01503
G1 X85.603 Y109.597 E14.09497
G1 X87.753 Y109.047 E14.21674
G1 X88.936 Y108.815 E14.28289
G1 X89.312 Y109.033 E14.30674
G1 X92.407 Y109.376 E14.47762
G1 X92.793 Y109.341 E14.49888
M204 S5000
G0 F2400 X92 Y109.503
M204 S3000
G1 F1500 X92 Y109.905 E14.52094
M204 S5000
G0 F2400 X84 Y111.041
M204 S3000
G1 F1500 X84 Y112.384 E14.59464
M204 S5000
G0 F2400 X82.564 Y114
M204 S3000
G1 F1500 X80.807 Y114 E14.69105
M204 S5000
G0 F2400 X84.519 Y116.165
M204 S3000
G1 F1500 X84.873 Y115.705 E14.7229
G1 X85.271 Y115.271 E14.75521
G1 X85.71 Y114.869 E14.78788
G1 X86.164 Y114.519 E14.81933
G1 X86.651 Y114.209 E14.85101
G1 X87.169 Y113.94 E14.88304
G1 X87.72 Y113.71 E14.9158
G1 X88.266 Y113.539 E14.9472
G1 X88.844 Y113.41 E14.97969
G1 X89.407 Y113.338 E15.01084
G1 X90 Y113.31 E15.04341
G1 X90.593 Y113.338 E15.07599
G1 X91.156 Y113.41 E15.10714
G1 X91.734 Y113.539 E15.13963
G1 X92.28 Y113.71 E15.17103
G1 X92.831 Y113.94 E15.20379
G1 X93.349 Y114.209 E15.23582
G1 X93.836 Y114.519 E15.2675
G1 X94.29 Y114.869 E15.29895
G1 X94.729 Y115.271 E15.33162
G1 X95.127 Y115.705 E15.36393
G1 X95.481 Y116.165 E15.39578
G1 X95.794 Y116.658 E15.42782
G1 X96.059 Y117.166 E15.45926
G1 X96.291 Y117.723 E15.49237
G1 X96.459 Y118.258 E15.52314
G1 X96.59 Y118.844 E15.55609
G1 X96.662 Y119.401 E15.58691
G1 X96.69 Y120 E15.61982
G1 X96.662 Y120.593 E15.65239
G1 X96.59 Y121.153 E15.68338
G1 X96.461 Y121.734 E15.71603
G1 X96.291 Y122.277 E15.74725
G1 X96.06 Y122.831 E15.78019
G1 X95.792 Y123.346 E15.81205
G1 X95.485 Y123.83 E15.8435
G1 X95.127 Y124.295 E15.8757
G1 X94.729 Y124.729 E15.90801
G1 X94.291 Y125.13 E15.9406
G1 X93.836 Y125.481 E15.97213
G1 X93.349 Y125.791 E16.00381
G1 X92.831 Y126.06 E16.03584
G1 X92.28 Y126.29 E16.0686
G1 X91.734 Y126.461 E16.1
G1 X91.156 Y126.59 E16.13249
G1 X90.593 Y126.662 E16.16364
G1 X90 Y126.69 E16.19622
G1 X89.407 Y126.662 E16.22879
G1 X88.844 Y126.59 E16.25994
G1 X88.266 Y126.461 E16.29243
G1 X87.72 Y126.29 E16.32383
G1 X87.169 Y126.06 E16.35659
G1 X86.651 Y125.791 E16.38862
G1 X86.164 Y125.481 E16.4203
G1 X85.709 Y125.13 E16.45183
G1 X85.271 Y124.729 E16.48442
G1 X84.873 Y124.295 E16.51673
G1 X84.515 Y123.83 E16.54893
G1 X84.208 Y123.346 E16.58038
G1 X83.94 Y122.831 E16.61224
G1 X83.709 Y122.277 E16.64518
G1 X83.539 Y121.734 E16.6764
G1 X83.41 Y121.153 E16.70906
G1 X83.338 Y120.593 E16.74004
G1 X83.31 Y120 E16.77261
G1 X83.338 Y119.401 E16.80552
G1 X83.41 Y118.844 E16.83634
G1 X83.541 Y118.258 E16.86929
G1 X83.709 Y117.723 E16.90006
G1 X83.941 Y117.166 E16.93317
G1 X84.206 Y116.658 E16.96461
G1 X84.519 Y116.165 E16.99665
M204 S5000
G0 F2400 X87.216 Y118.406
M204 S3000
G1 F1500 X87.046 Y118.756 E17.018
G1 X86.926 Y119.097 E17.03784
G1 X86.797 Y119.671 E17.07012
G1 X86.797 Y120.207 E17.09953
G1 X86.841 Y120.519 E17.11682
G1 X86.931 Y120.977 E17.14244
G1 X87.147 Y121.47 E17.17197
G1 X87.35 Y121.804 E17.19342
G1 X87.639 Y122.191 E17.21992
G1 X88.022 Y122.525 E17.24781
G1 X88.389 Y122.78 E17.27233
G1 X88.855 Y123.001 E17.30063
G1 X89.168 Y123.099 E17.31863
G1 X89.663 Y123.194 E17.34628
G1 X90.185 Y123.21 E17.37494
G1 X90.594 Y123.154 E17.39759
G1 X90.961 Y123.068 E17.41828
G1 X91.423 Y122.886 E17.44553
G1 X91.844 Y122.633 E17.47248
G1 X92.139 Y122.397 E17.49321
G1 X92.472 Y122.061 E17.51917
G1 X92.791 Y121.585 E17.55061
G1 X93.006 Y121.153 E17.57709
G1 X93.139 Y120.656 E17.60532
G1 X93.19 Y120.391 E17.62013
G1 X93.219 Y119.762 E17.65468
G1 X93.108 Y119.21 E17.68558
G1 X92.875 Y118.425 E17.73051
G1 X92.648 Y118.199 E17.74808
G1 X92.403 Y117.871 E17.77055
G1 X92.164 Y117.618 E17.78965
G1 X91.813 Y117.358 E17.81362
G1 X91.203 Y116.999 E17.85246
G1 X90.5 Y116.818 E17.89229
G1 X90.043 Y116.793 E17.9174
G1 X89.7 Y116.809 E17.93625
G1 X89.225 Y116.875 E17.96256
G1 X88.825 Y117.016 E17.98583
G1 X88.423 Y117.197 E18.01003
G1 X88.047 Y117.457 E18.03511
G1 X87.739 Y117.727 E18.05759
G1 X87.498 Y117.975 E18.07656
G1 X87.216 Y118.406 E18.10482
M204 S5000
G0 F2400 X84 Y117.466
M204 S3000
G1 F1500 X84 Y122.532 E18.38281
M204 S5000
G0 F2400 X83.799 Y122
M204 S3000
G1 F1500 X87.284 Y122 E18.57404
M204 S5000
G0 F2400 X92 Y122.726
M204 S3000
G1 F1500 X92 Y126.201 E18.76473
M204 S5000
G0 F2400 X92.718 Y122
M204 S3000
G1 F1500 X96.2 Y122 E18.95579
M204 S5000
G0 F2400 X92 Y117.285
M204 S3000
G1 F1500 X92 Y113.8 E19.14703
M204 S5000
G0 F2400 X92.533 Y114
M204 S3000
G1 F1500 X87.468 Y114 E19.42496
M204 S5000
G1 F2700 E6.42496
;MESH:tapa filttro exacto.stl
G0 F2400 X86.952 Y126.225
G0 X86.433 Y127.222
G0 X87.185 Y127.735
M204 S3000
;TYPE:WALL-INNER
G1 F2100 E19.42496
G1 F1500 X87.222 Y127.746 E19.42708
G1 X87.694 Y127.894 E19.45429
G1 X87.87 Y127.95 E19.46445
G1 X88.287 Y128.042 E19.48794
G1 X88.571 Y128.106 E19.50395
G1 X88.877 Y128.145 E19.52092
G1 X89.284 Y128.199 E19.5435
G1 X89.344 Y128.201 E19.5468
G1 X89.944 Y128.227 E19.57984
G1 X90 Y128.23 E19.58292
G1 X90.561 Y128.206 E19.61381
G1 X90.716 Y128.199 E19.62234
G1 X91.017 Y128.16 E19.63903
G1 X91.429 Y128.106 E19.66189
G1 X91.457 Y128.1 E19.66346
G1 X92.13 Y127.95 E19.70139
G1 X92.815 Y127.735 E19.74088
G1 X93.479 Y127.46 E19.78041
G1 X94.115 Y127.128 E19.81987
G1 X94.721 Y126.742 E19.85939
G1 X95.29 Y126.305 E19.89886
G1 X95.82 Y125.82 E19.93837
G1 X96.305 Y125.29 E19.97789
G1 X96.742 Y124.721 E20.01735
G1 X97.128 Y124.115 E20.05687
G1 X97.46 Y123.479 E20.09633
G1 X97.735 Y122.815 E20.13586
G1 X97.95 Y122.13 E20.17535
G1 X98.106 Y121.429 E20.21485
G1 X98.199 Y120.716 E20.2544
G1 X98.23 Y120 E20.29382
G1 X98.199 Y119.284 E20.33324
G1 X98.106 Y118.571 E20.37279
G1 X97.95 Y117.87 E20.41229
G1 X97.735 Y117.185 E20.45178
G1 X97.46 Y116.521 E20.49132
G1 X97.128 Y115.885 E20.53078
G1 X96.742 Y115.279 E20.5703
G1 X96.305 Y114.71 E20.60976
G1 X95.82 Y114.18 E20.64928
G1 X95.29 Y113.695 E20.68879
G1 X94.721 Y113.258 E20.72825
G1 X94.115 Y112.872 E20.76777
G1 X93.479 Y112.54 E20.80724
G1 X92.815 Y112.265 E20.84677
G1 X92.365 Y112.124 E20.87271
G1 X92.13 Y112.05 E20.88626
G1 X92.097 Y112.043 E20.88811
G1 X91.515 Y111.914 E20.9209
G1 X91.429 Y111.894 E20.92576
G1 X91.059 Y111.846 E20.94628
G1 X90.716 Y111.801 E20.96531
G1 X90.508 Y111.792 E20.97676
G1 X90 Y111.77 E21.00473
G1 X89.435 Y111.794 E21.03583
G1 X89.284 Y111.801 E21.04415
G1 X88.99 Y111.839 E21.06045
G1 X88.571 Y111.894 E21.0837
G1 X88.392 Y111.933 E21.09377
G1 X87.933 Y112.036 E21.11965
G1 X87.87 Y112.05 E21.1232
G1 X87.503 Y112.165 E21.14435
G1 X87.404 Y112.196 E21.15006
G1 X87.499 Y112.153 E21.15016
G1 X87.856 Y112.016 E21.15131
G1 X87.922 Y111.991 E21.15184
G1 X88.373 Y111.85 E21.15594
G1 X88.549 Y111.807 E21.15796
G1 X88.972 Y111.702 E21.1647
G1 X89.256 Y111.651 E21.17003
G1 X89.427 Y111.62 E21.17411
G1 X89.975 Y111.557 E21.18792
G1 X90.014 Y111.552 E21.19008
G1 X90.519 Y111.527 E21.20604
G1 X90.719 Y111.529 E21.21299
G1 X91.099 Y111.535 E21.22785
