;FLAVOR:Marlin
;TIME:7211
;Filament used: 5.70931m
;Layer height: 0.2
;MINX:17.871
;MINY:72.846
;MINZ:0.3
;MAXX:162.13
;MAXY:167.158
;MAXZ:18.9
;Generated with Cura_SteamEngine 4.6.2
M140 S70
M105
M190 S70
M104 S237
M105
M109 S237
M82 ;absolute extrusion mode
G28 ;Home
G1 Z15.0 F6000 ;Move the platform down 15mm
G92 E0
G1 F200 E3
G92 E0
G92 E0
G92 E0
G1 F2700 E-13
;LAYER_COUNT:94
;LAYER:0
M107
G0 F1200 X31.509 Y102.688 Z0.3
;TYPE:SKIRT
G1 F2100 E0
G1 F1200 X33.569 Y101.013 E0.15299
G1 X35.582 Y99.278 E0.30613
G1 X37.598 Y97.439 E0.46337
G1 X39.509 Y95.593 E0.61647
G1 X41.389 Y93.673 E0.77131
G1 X43.157 Y91.763 E0.92129
G1 X43.941 Y90.893 E0.98877
G1 X44.442 Y90.366 E1.03067
G1 X44.921 Y89.882 E1.06991
G1 X45.744 Y89.133 E1.13403
G1 X46.269 Y88.687 E1.17373
G1 X47.348 Y87.874 E1.25158
G1 X47.83 Y87.536 E1.2855
G1 X49.014 Y86.809 E1.36556
G1 X49.666 Y86.441 E1.4087
G1 X50.223 Y86.161 E1.44463
G1 X50.762 Y85.914 E1.47879
G1 X51.501 Y85.593 E1.52522
G1 X52.135 Y85.352 E1.5643
G1 X52.618 Y85.19 E1.59366
G1 X53.305 Y84.974 E1.63516
G1 X54.539 Y84.68 E1.70825
G1 X55.295 Y84.534 E1.75262
G1 X58.354 Y84.088 E1.93075
G1 X60.985 Y83.631 E2.08463
G1 X63.593 Y83.102 E2.23797
G1 X66.228 Y82.49 E2.39385
G1 X68.794 Y81.817 E2.54671
G1 X71.405 Y81.052 E2.70349
G1 X73.921 Y80.237 E2.85589
G1 X76.468 Y79.33 E3.01168
G1 X78.966 Y78.363 E3.16603
G1 X80.853 Y77.576 E3.28385
G1 X82.746 Y76.764 E3.40254
G1 X83.362 Y76.513 E3.44087
G1 X84.554 Y76.069 E3.51417
G1 X85.776 Y75.64 E3.5888
G1 X86.351 Y75.45 E3.62369
G1 X87.598 Y75.08 E3.69864
G1 X88.805 Y74.747 E3.77079
G1 X89.438 Y74.586 E3.80843
G1 X90.721 Y74.299 E3.88419
G1 X91.937 Y74.052 E3.95569
G1 X92.435 Y73.959 E3.98488
G1 X93.856 Y73.739 E4.06774
G1 X95.064 Y73.578 E4.13796
G1 X95.572 Y73.518 E4.16744
G1 X97.079 Y73.39 E4.25459
G1 X98.309 Y73.312 E4.32561
G1 X98.957 Y73.283 E4.36299
G1 X100.258 Y73.265 E4.43796
G1 X101.461 Y73.272 E4.50728
G1 X101.998 Y73.282 E4.53823
G1 X103.436 Y73.357 E4.62121
G1 X105.087 Y73.484 E4.71662
G1 X106.672 Y73.674 E4.80861
G1 X107.886 Y73.848 E4.87928
G1 X108.524 Y73.951 E4.91652
G1 X109.807 Y74.2 E4.99183
G1 X111.044 Y74.465 E5.06473
G1 X111.648 Y74.607 E5.10048
G1 X112.923 Y74.947 E5.17652
G1 X114.116 Y75.288 E5.24801
G1 X114.735 Y75.478 E5.28532
G1 X116.012 Y75.914 E5.36308
G1 X117.127 Y76.319 E5.43144
G1 X117.598 Y76.497 E5.46045
G1 X118.958 Y77.063 E5.54533
G1 X120.455 Y77.731 E5.6398
G1 X121.888 Y78.445 E5.73205
G1 X122.951 Y79.005 E5.80129
G1 X123.534 Y79.327 E5.83966
G1 X124.682 Y80.008 E5.91658
G1 X125.714 Y80.645 E5.98646
G1 X126.308 Y81.024 E6.02706
G1 X128.23 Y82.307 E6.16022
G1 X130.515 Y83.742 E6.3157
G1 X132.804 Y85.09 E6.46878
G1 X135.159 Y86.388 E6.62373
G1 X137.557 Y87.625 E6.77921
G1 X139.979 Y88.788 E6.93403
G1 X142.399 Y89.866 E7.08668
G1 X144.901 Y90.898 E7.24264
G1 X147.423 Y91.855 E7.39808
G1 X149.934 Y92.727 E7.55125
G1 X152.479 Y93.531 E7.70504
G1 X155.067 Y94.269 E7.86011
G1 X157.254 Y94.832 E7.99025
G1 X158.344 Y95.14 E8.05551
G1 X158.931 Y95.406 E8.09265
G1 X159.482 Y95.743 E8.12987
G1 X159.986 Y96.145 E8.16702
G1 X160.437 Y96.607 E8.20422
G1 X160.827 Y97.121 E8.2414
G1 X161.151 Y97.679 E8.27858
G1 X161.403 Y98.273 E8.31576
G1 X161.58 Y98.894 E8.35297
G1 X161.679 Y99.531 E8.39012
G1 X161.708 Y100.185 E8.42784
G1 X161.71 Y107.794 E8.86629
G1 X161.699 Y108.566 E8.91078
G1 X161.558 Y110.195 E9.005
G1 X161.499 Y110.728 E9.0359
G1 X161.276 Y113.352 E9.18765
G1 X161.124 Y116.058 E9.34383
G1 X161.049 Y118.731 E9.49791
G1 X161.051 Y121.407 E9.65211
G1 X161.127 Y124.076 E9.80597
G1 X161.282 Y126.787 E9.96244
G1 X161.511 Y129.472 E10.11772
G1 X161.661 Y130.868 E10.19863
G1 X161.704 Y131.589 E10.24025
G1 X161.71 Y139.337 E10.68671
G1 X161.7 Y140.064 E10.72861
G1 X161.651 Y140.707 E10.76577
G1 X161.523 Y141.34 E10.80298
G1 X161.318 Y141.951 E10.84012
G1 X161.038 Y142.533 E10.87733
G1 X160.689 Y143.076 E10.91453
G1 X160.276 Y143.571 E10.95168
G1 X159.804 Y144.012 E10.9889
G1 X159.282 Y144.391 E11.02607
G1 X158.717 Y144.702 E11.06323
G1 X157.816 Y145.03 E11.11849
G1 X157.075 Y145.225 E11.16264
G1 X155.892 Y145.517 E11.23285
G1 X153.322 Y146.225 E11.38646
G1 X150.776 Y147.006 E11.53992
G1 X148.204 Y147.873 E11.69632
G1 X145.726 Y148.788 E11.84853
G1 X143.22 Y149.796 E12.00418
G1 X140.751 Y150.871 E12.15935
G1 X138.324 Y152.009 E12.31381
G1 X135.943 Y153.208 E12.46743
G1 X133.594 Y154.479 E12.62133
G1 X131.267 Y155.821 E12.77612
G1 X128.978 Y157.23 E12.931
G1 X127.825 Y157.986 E13.01045
G1 X125.523 Y159.473 E13.16837
G1 X124.475 Y160.123 E13.23943
G1 X123.904 Y160.462 E13.27769
G1 X122.758 Y161.096 E13.35316
G1 X121.708 Y161.652 E13.42163
G1 X121.228 Y161.897 E13.45268
G1 X119.895 Y162.523 E13.53754
G1 X118.756 Y163.028 E13.60933
G1 X118.158 Y163.28 E13.64673
G1 X116.916 Y163.76 E13.72345
G1 X115.776 Y164.173 E13.79332
G1 X115.284 Y164.344 E13.82334
G1 X113.902 Y164.774 E13.90674
G1 X112.724 Y165.113 E13.97737
G1 X112.076 Y165.287 E14.01604
G1 X110.76 Y165.597 E14.09394
G1 X109.567 Y165.853 E14.16425
G1 X108.933 Y165.977 E14.20148
G1 X107.63 Y166.19 E14.27756
G1 X106.447 Y166.36 E14.34643
G1 X105.917 Y166.429 E14.37722
G1 X104.464 Y166.568 E14.46133
G1 X103.241 Y166.659 E14.532
G1 X102.715 Y166.691 E14.56237
G1 X101.28 Y166.73 E14.64509
G1 X100.012 Y166.738 E14.71815
G1 X99.347 Y166.729 E14.75648
G1 X98.043 Y166.672 E14.83169
G1 X96.831 Y166.595 E14.90167
G1 X96.145 Y166.54 E14.94133
G1 X94.836 Y166.392 E15.01724
G1 X93.629 Y166.233 E15.08739
G1 X92.964 Y166.132 E15.12615
G1 X91.686 Y165.898 E15.20101
G1 X90.455 Y165.649 E15.27338
G1 X89.82 Y165.507 E15.31088
G1 X88.567 Y165.187 E15.3854
G1 X87.406 Y164.869 E15.45476
G1 X86.878 Y164.715 E15.48645
G1 X85.505 Y164.267 E15.56968
G1 X84.278 Y163.836 E15.64462
G1 X83.724 Y163.629 E15.67869
G1 X82.44 Y163.106 E15.75858
G1 X81.002 Y162.489 E15.84875
G1 X78.47 Y161.44 E16.00668
G1 X75.952 Y160.478 E16.162
G1 X73.461 Y159.61 E16.31401
G1 X70.881 Y158.791 E16.46999
G1 X68.32 Y158.056 E16.62352
G1 X65.715 Y157.389 E16.77847
G1 X63.11 Y156.797 E16.9324
G1 X60.45 Y156.273 E17.08863
G1 X57.825 Y155.833 E17.242
G1 X55.406 Y155.492 E17.38277
G1 X54.781 Y155.382 E17.41933
G1 X54.059 Y155.229 E17.46186
G1 X52.773 Y154.862 E17.53892
G1 X51.978 Y154.596 E17.58723
G1 X51.36 Y154.353 E17.6255
G1 X50.282 Y153.866 E17.69366
G1 X49.008 Y153.189 E17.77679
G1 X48.493 Y152.888 E17.81116
G1 X47.316 Y152.105 E17.89262
G1 X46.845 Y151.766 E17.92606
G1 X45.808 Y150.921 E18.00314
G1 X45.281 Y150.458 E18.04357
G1 X44.502 Y149.694 E18.10644
G1 X43.939 Y149.103 E18.15348
G1 X43.384 Y148.484 E18.20138
G1 X41.579 Y146.519 E18.35513
G1 X39.708 Y144.593 E18.50986
G1 X37.782 Y142.721 E18.66463
G1 X35.812 Y140.91 E18.81882
G1 X33.794 Y139.16 E18.97274
G1 X31.712 Y137.453 E19.12788
G1 X29.597 Y135.818 E19.28192
G1 X27.441 Y134.246 E19.43568
G1 X24.176 Y132.036 E19.66286
G1 X23.134 Y131.361 E19.7344
G1 X22.632 Y131.014 E19.76957
G1 X21.786 Y130.386 E19.83028
G1 X21.203 Y129.927 E19.87304
G1 X20.532 Y129.343 E19.9243
G1 X19.967 Y128.817 E19.96878
G1 X19.525 Y128.347 E20.00596
G1 X19.144 Y127.826 E20.04315
G1 X18.83 Y127.263 E20.0803
G1 X18.588 Y126.664 E20.11752
G1 X18.422 Y126.041 E20.15467
G1 X18.321 Y125.12 E20.20806
G1 X18.302 Y124.175 E20.26253
G1 X18.291 Y115.676 E20.75227
G1 X18.3 Y114.945 E20.79439
G1 X18.349 Y114.302 E20.83155
G1 X18.477 Y113.669 E20.86877
G1 X18.683 Y113.057 E20.90598
G1 X18.962 Y112.476 E20.94312
G1 X19.311 Y111.933 E20.98031
G1 X19.922 Y111.239 E21.03359
G1 X20.479 Y110.71 E21.07786
G1 X20.955 Y110.284 E21.11466
G1 X21.633 Y109.732 E21.16504
G1 X22.241 Y109.271 E21.20901
G1 X23.138 Y108.636 E21.27234
G1 X24.98 Y107.415 E21.39968
G1 X27.172 Y105.923 E21.55248
G1 X29.367 Y104.333 E21.70866
G1 X31.509 Y102.688 E21.86428
G1 F2700 E8.86428
G0 F1200 X51.902 Y90.387
G0 X53.057 Y89.866
G0 X102.006 Y72.862
G1 F2100 E21.86428
G1 F1200 X103.458 Y72.937 E21.94806
G1 X105.119 Y73.065 E22.04406
G1 X106.723 Y73.258 E22.13715
G1 X107.946 Y73.432 E22.20834
G1 X108.604 Y73.539 E22.24675
G1 X109.887 Y73.788 E22.32206
G1 X111.132 Y74.054 E22.39542
G1 X111.757 Y74.201 E22.43242
G1 X113.032 Y74.541 E22.50846
G1 X114.232 Y74.884 E22.58037
G1 X114.871 Y75.081 E22.6189
G1 X116.148 Y75.517 E22.69666
G1 X117.271 Y75.924 E22.76549
G1 X117.747 Y76.105 E22.79483
G1 X119.12 Y76.676 E22.88052
G1 X120.626 Y77.347 E22.97552
G1 X122.076 Y78.07 E23.06889
G1 X123.147 Y78.634 E23.13864
G1 X123.748 Y78.966 E23.1782
G1 X124.896 Y79.647 E23.25512
G1 X125.935 Y80.288 E23.32546
G1 X126.534 Y80.67 E23.3664
G1 X128.462 Y81.956 E23.49995
G1 X130.72 Y83.374 E23.65359
G1 X133.046 Y84.745 E23.80917
G1 X135.352 Y86.016 E23.9609
G1 X137.743 Y87.249 E24.11591
G1 X140.13 Y88.395 E24.26849
G1 X142.586 Y89.489 E24.42342
G1 X145.036 Y90.499 E24.57612
G1 X147.566 Y91.46 E24.73207
G1 X150.098 Y92.339 E24.88651
G1 X152.577 Y93.122 E25.03632
G1 X155.202 Y93.871 E25.19362
G1 X157.317 Y94.416 E25.31947
G1 X157.827 Y94.54 E25.34971
G1 X158.468 Y94.738 E25.38837
G1 X159.081 Y95.01 E25.42702
G1 X159.657 Y95.354 E25.46568
G1 X160.189 Y95.763 E25.50434
G1 X160.667 Y96.233 E25.54297
G1 X161.087 Y96.757 E25.58167
G1 X161.441 Y97.327 E25.62033
G1 X161.725 Y97.934 E25.65895
G1 X161.934 Y98.572 E25.69764
G1 X162.067 Y99.229 E25.73626
G1 X162.119 Y99.852 E25.77229
G1 X162.13 Y107.794 E26.22993
G1 X162.119 Y108.572 E26.27477
G1 X161.976 Y110.236 E26.371
G1 X161.92 Y110.737 E26.40005
G1 X161.693 Y113.414 E26.55486
G1 X161.544 Y116.058 E26.70746
G1 X161.469 Y118.742 E26.86218
G1 X161.471 Y121.395 E27.01506
G1 X161.548 Y124.077 E27.16967
G1 X161.699 Y126.727 E27.32261
G1 X161.931 Y129.438 E27.4794
G1 X162.079 Y130.823 E27.55966
G1 X162.124 Y131.569 E27.60273
G1 X162.13 Y139.265 E28.0462
G1 X162.119 Y140.069 E28.09253
G1 X162.07 Y140.738 E28.13118
G1 X161.942 Y141.397 E28.16987
G1 X161.736 Y142.035 E28.2085
G1 X161.456 Y142.645 E28.24718
G1 X161.105 Y143.217 E28.28585
G1 X160.689 Y143.743 E28.32449
G1 X160.213 Y144.215 E28.36312
G1 X159.684 Y144.628 E28.40179
G1 X159.11 Y144.975 E28.44044
G1 X158.499 Y145.251 E28.47907
G1 X157.923 Y145.437 E28.51395
G1 X157.182 Y145.632 E28.55811
G1 X156.036 Y145.913 E28.6261
G1 X153.446 Y146.627 E28.78091
G1 X150.89 Y147.41 E28.93495
G1 X148.352 Y148.266 E29.08929
G1 X145.873 Y149.182 E29.24158
G1 X143.382 Y150.184 E29.3963
G1 X140.909 Y151.26 E29.5517
G1 X138.517 Y152.382 E29.70395
G1 X136.13 Y153.584 E29.85795
G1 X133.787 Y154.851 E30.01144
G1 X131.476 Y156.185 E30.1652
G1 X129.212 Y157.578 E30.31837
G1 X128.055 Y158.337 E30.39811
G1 X125.751 Y159.826 E30.55618
G1 X124.696 Y160.48 E30.62771
G1 X124.107 Y160.829 E30.66716
G1 X122.961 Y161.463 E30.74263
G1 X121.904 Y162.023 E30.81155
G1 X121.418 Y162.271 E30.843
G1 X120.073 Y162.904 E30.92865
G1 X118.926 Y163.412 E31.00094
G1 X118.31 Y163.671 E31.03944
G1 X117.068 Y164.151 E31.11617
G1 X115.919 Y164.568 E31.18661
G1 X115.421 Y164.741 E31.21698
G1 X114.026 Y165.175 E31.30117
G1 X112.84 Y165.517 E31.37229
G1 X112.172 Y165.696 E31.41215
G1 X110.856 Y166.006 E31.49005
G1 X109.655 Y166.264 E31.56084
G1 X109 Y166.391 E31.59928
G1 X107.697 Y166.604 E31.67536
G1 X106.507 Y166.776 E31.74465
G1 X105.97 Y166.845 E31.77585
G1 X104.503 Y166.986 E31.86077
G1 X103.272 Y167.078 E31.9319
G1 X102.74 Y167.11 E31.96261
G1 X101.291 Y167.15 E32.04614
G1 X100.014 Y167.158 E32.11972
G1 X99.329 Y167.149 E32.1592
G1 X98.025 Y167.092 E32.23441
G1 X96.804 Y167.014 E32.30491
G1 X96.304 Y166.977 E32.3338
G1 X94.788 Y166.809 E32.4217
G1 X93.574 Y166.649 E32.49226
G1 X92.888 Y166.545 E32.53224
G1 X91.61 Y166.311 E32.6071
G1 X90.371 Y166.06 E32.67995
G1 X89.716 Y165.914 E32.71862
G1 X88.463 Y165.594 E32.79314
G1 X87.294 Y165.274 E32.86298
G1 X86.76 Y165.118 E32.89503
G1 X85.373 Y164.666 E32.97909
G1 X84.138 Y164.233 E33.05451
G1 X83.565 Y164.018 E33.08977
G1 X82.281 Y163.495 E33.16966
G1 X80.866 Y162.887 E33.25841
G1 X78.303 Y161.826 E33.41825
G1 X75.807 Y160.872 E33.57223
G1 X73.328 Y160.008 E33.7235
G1 X70.781 Y159.2 E33.87747
G1 X68.201 Y158.459 E34.03215
G1 X65.594 Y157.791 E34.18723
G1 X63.039 Y157.211 E34.3382
G1 X60.374 Y156.686 E34.49472
G1 X57.771 Y156.249 E34.64681
G1 X55.347 Y155.908 E34.78787
G1 X54.694 Y155.793 E34.82607
G1 X53.972 Y155.64 E34.8686
G1 X52.653 Y155.265 E34.94762
G1 X51.843 Y154.994 E34.99684
G1 X51.371 Y154.813 E35.02596
G1 X50.884 Y154.603 E35.05653
G1 X50.108 Y154.248 E35.1057
G1 X48.808 Y153.559 E35.19048
G1 X48.279 Y153.25 E35.22578
G1 X47.081 Y152.453 E35.30869
G1 X46.597 Y152.105 E35.34304
G1 X45.54 Y151.244 E35.4216
G1 X45.003 Y150.772 E35.4628
G1 X44.205 Y149.991 E35.52714
G1 X43.634 Y149.392 E35.57483
G1 X43.131 Y148.83 E35.61829
G1 X41.265 Y146.798 E35.77726
G1 X39.411 Y144.89 E35.93056
G1 X37.503 Y143.035 E36.0839
G1 X35.535 Y141.226 E36.23793
G1 X33.511 Y139.471 E36.3923
G1 X31.447 Y137.779 E36.54609
G1 X29.35 Y136.158 E36.69882
G1 X27.197 Y134.588 E36.85237
G1 X23.923 Y132.372 E37.08018
G1 X22.906 Y131.713 E37.15001
G1 X22.391 Y131.358 E37.18605
G1 X21.535 Y130.723 E37.24747
G1 X20.942 Y130.257 E37.29092
G1 X20.254 Y129.658 E37.34349
G1 X19.68 Y129.123 E37.3887
G1 X19.219 Y128.636 E37.42735
G1 X18.819 Y128.098 E37.46598
G1 X18.486 Y127.515 E37.50467
G1 X18.224 Y126.898 E37.54329
G1 X18.038 Y126.253 E37.58197
G1 X17.93 Y125.591 E37.62062
G1 X17.882 Y124.183 E37.7018
G1 X17.871 Y115.677 E38.19195
G1 X17.881 Y114.939 E38.23448
G1 X17.93 Y114.27 E38.27313
G1 X18.058 Y113.612 E38.31176
G1 X18.264 Y112.974 E38.35039
G1 X18.544 Y112.364 E38.38907
G1 X18.895 Y111.792 E38.42774
G1 X19.311 Y111.266 E38.46638
G1 X20.19 Y110.406 E38.53724
G1 X20.676 Y109.97 E38.57486
G1 X21.371 Y109.405 E38.62648
G1 X21.989 Y108.936 E38.67118
G1 X22.896 Y108.293 E38.73525
G1 X24.685 Y107.107 E38.85893
G1 X26.97 Y105.551 E39.01823
G1 X29.123 Y103.992 E39.1714
G1 X31.229 Y102.374 E39.32444
G1 X33.309 Y100.683 E39.4789
G1 X35.304 Y98.963 E39.63069
G1 X37.303 Y97.14 E39.78658
G1 X39.214 Y95.294 E39.93969
G1 X41.095 Y93.373 E40.09461
G1 X42.849 Y91.478 E40.2434
G1 X43.629 Y90.612 E40.31056
G1 X44.139 Y90.075 E40.35324
G1 X44.623 Y89.586 E40.39288
G1 X45.464 Y88.82 E40.45843
G1 X45.998 Y88.366 E40.49882
G1 X47.098 Y87.537 E40.57819
G1 X47.59 Y87.191 E40.61285
G1 X48.797 Y86.449 E40.69449
G1 X49.461 Y86.074 E40.73844
G1 X50.039 Y85.783 E40.77573
G1 X50.588 Y85.532 E40.81051
G1 X51.334 Y85.208 E40.85738
G1 X51.82 Y85.019 E40.88742
G1 X52.485 Y84.792 E40.92791
G1 X53.179 Y84.573 E40.96985
G1 X54.448 Y84.27 E41.04503
G1 X55.217 Y84.121 E41.09016
G1 X58.258 Y83.678 E41.26725
G1 X60.905 Y83.218 E41.42206
G1 X63.517 Y82.689 E41.57563
G1 X66.095 Y82.09 E41.72814
G1 X68.712 Y81.403 E41.88405
G1 X71.258 Y80.657 E42.03692
G1 X73.825 Y79.826 E42.1924
G1 X76.287 Y78.95 E42.34298
G1 X78.842 Y77.959 E42.5009
G1 X80.668 Y77.199 E42.61487
G1 X82.581 Y76.378 E42.73482
G1 X83.216 Y76.119 E42.77434
G1 X84.408 Y75.675 E42.84764
G1 X85.637 Y75.243 E42.9227
G1 X86.232 Y75.048 E42.95878
G1 X87.479 Y74.678 E43.03373
G1 X88.694 Y74.342 E43.10637
G1 X89.346 Y74.176 E43.14514
G1 X90.629 Y73.889 E43.2209
G1 X91.854 Y73.64 E43.29293
G1 X92.357 Y73.546 E43.32242
G1 X93.793 Y73.324 E43.40615
G1 X95.009 Y73.162 E43.47684
G1 X95.524 Y73.101 E43.50672
G1 X97.044 Y72.971 E43.59463
G1 X98.282 Y72.893 E43.66611
G1 X98.951 Y72.864 E43.70469
G1 X100.252 Y72.846 E43.77967
G1 X101.464 Y72.852 E43.84951
G1 X102.006 Y72.862 E43.88075
G1 F2700 E30.88075
;MESH:AntimosquitoBlackAndDecker.stl
G0 F1200 X86.793 Y115.108
G0 X85.921 Y114.874
G0 X84.229 Y120.001
;TYPE:WALL-INNER
G1 F2100 E43.88075
G1 F1200 X84.272 Y120.76 E43.92455
G1 X84.198 Y120.765 E43.92883
G1 X84.198 Y120.001 E43.93446
G1 X84.198 Y119.236 E43.97854
G1 X84.273 Y119.241 E43.98287
G1 X84.229 Y120.001 E43.98833
G0 X87.063 Y128.638
G0 X87.496 Y143.356
G0 X89.698 Y145.071
G1 X89.698 Y144.986 E43.99323
G1 X89.728 Y144.999
G1 X91.507 Y145.759 E44.1047
G1 X91.532 Y145.77 E44.10627
G1 X91.532 Y145.702 E44.108
G1 X91.552 Y145.709
G1 X93.346 Y146.324 E44.21729
G1 X93.365 Y146.331 E44.21845
G1 X93.365 Y146.271 E44.22005
G1 X93.379 Y146.274
G1 X95.185 Y146.749 E44.32766
G1 X95.198 Y146.753 E44.32845
G1 X95.198 Y146.702 E44.32986
G1 X97.032 Y147.046 E44.43739
G1 X97.032 Y147.003 E44.43986
