;FLAVOR:Marlin
;TIME:1842
;Filament used: 2.1113m
;Layer height: 0.2
;MINX:24.87
;MINY:106.24
;MINZ:0.3
;MAXX:155.13
;MAXY:133.761
;MAXZ:24.9
;Generated with Cura_SteamEngine 4.6.2
M140 S70
M105
M190 S70
M104 S237
M105
M109 S237
M82 ;absolute extrusion mode
G28 ;Home
G1 Z15.0 F6000 ;Move the platform down 15mm
G92 E0
G1 F200 E3
G92 E0
G92 E0
G92 E0
G1 F2700 E-13
;LAYER_COUNT:124
;LAYER:0
M107
G0 F1200 X53.619 Y129.361 Z0.3
;TYPE:SKIRT
G1 F2100 E0
G1 F1200 X50.948 Y129.551 E0.1543
G1 X48.255 Y129.818 E0.31024
G1 X45.61 Y130.156 E0.46389
G1 X42.943 Y130.575 E0.61946
G1 X40.317 Y131.063 E0.77337
G1 X37.729 Y131.62 E0.92591
G1 X35.114 Y132.261 E1.08106
G1 X32.892 Y132.867 E1.21377
G1 X31.94 Y133.139 E1.27083
G1 X31.31 Y133.277 E1.30799
G1 X30.668 Y133.337 E1.34514
G1 X30.023 Y133.316 E1.38233
G1 X29.385 Y133.216 E1.41954
G1 X28.765 Y133.038 E1.45671
G1 X28.171 Y132.785 E1.49392
G1 X27.614 Y132.46 E1.53108
G1 X27.1 Y132.069 E1.56829
G1 X26.639 Y131.618 E1.60545
G1 X26.238 Y131.113 E1.64261
G1 X25.902 Y130.562 E1.6798
G1 X25.636 Y129.973 E1.71704
G1 X25.446 Y129.357 E1.75419
G1 X25.333 Y128.722 E1.79135
G1 X25.3 Y128.205 E1.8212
G1 X25.291 Y127.585 E1.85693
G1 X25.29 Y112.553 E2.72312
G1 X25.301 Y111.794 E2.76687
G1 X25.35 Y111.15 E2.80408
G1 X25.478 Y110.518 E2.84124
G1 X25.684 Y109.906 E2.87845
G1 X25.964 Y109.325 E2.91561
G1 X26.313 Y108.782 E2.95281
G1 X26.727 Y108.287 E2.98999
G1 X27.199 Y107.847 E3.02718
G1 X27.722 Y107.469 E3.06436
G1 X28.287 Y107.158 E3.10152
G1 X28.887 Y106.919 E3.13874
G1 X29.511 Y106.757 E3.17589
G1 X30.151 Y106.672 E3.21309
G1 X30.796 Y106.668 E3.25026
G1 X31.437 Y106.743 E3.28745
G1 X31.962 Y106.867 E3.31853
G1 X32.576 Y107.045 E3.35537
G1 X35.186 Y107.761 E3.51132
G1 X37.814 Y108.401 E3.66718
G1 X40.426 Y108.961 E3.82111
G1 X43.069 Y109.449 E3.97599
G1 X45.683 Y109.855 E4.12842
G1 X48.395 Y110.199 E4.28594
G1 X51.051 Y110.46 E4.43973
G1 X53.685 Y110.643 E4.59187
G1 X56.392 Y110.754 E4.74799
G1 X59.027 Y110.79 E4.89984
G1 X121.031 Y110.79 E8.47271
G1 X123.709 Y110.752 E8.62704
G1 X126.382 Y110.639 E8.78121
G1 X129.053 Y110.449 E8.93551
G1 X131.746 Y110.182 E9.09145
G1 X134.391 Y109.844 E9.2451
G1 X137.058 Y109.425 E9.40066
G1 X139.684 Y108.937 E9.55457
G1 X142.272 Y108.38 E9.70712
G1 X144.908 Y107.734 E9.86351
G1 X147.224 Y107.1 E10.00187
G1 X148.055 Y106.862 E10.05168
G1 X148.685 Y106.723 E10.08886
G1 X149.328 Y106.663 E10.12607
G1 X149.973 Y106.682 E10.16325
G1 X150.61 Y106.782 E10.20041
G1 X151.231 Y106.959 E10.23762
G1 X151.824 Y107.212 E10.27477
G1 X152.382 Y107.536 E10.31195
G1 X152.896 Y107.927 E10.34916
G1 X153.357 Y108.378 E10.38633
G1 X153.759 Y108.883 E10.42352
G1 X154.095 Y109.434 E10.46071
G1 X154.361 Y110.022 E10.4979
G1 X154.552 Y110.638 E10.53506
G1 X154.666 Y111.273 E10.57224
G1 X154.699 Y111.779 E10.60145
G1 X154.709 Y112.354 E10.63459
G1 X154.71 Y127.48 E11.5062
G1 X154.7 Y128.203 E11.54787
G1 X154.651 Y128.846 E11.58503
G1 X154.523 Y129.479 E11.62224
G1 X154.317 Y130.091 E11.65945
G1 X154.038 Y130.672 E11.69659
G1 X153.689 Y131.215 E11.73378
G1 X153.276 Y131.711 E11.77097
G1 X152.804 Y132.151 E11.80816
G1 X152.282 Y132.53 E11.84533
G1 X151.716 Y132.841 E11.88254
G1 X151.117 Y133.08 E11.91971
G1 X150.493 Y133.244 E11.95688
G1 X149.853 Y133.328 E11.99408
G1 X149.208 Y133.333 E12.03125
G1 X148.567 Y133.259 E12.06843
G1 X148.031 Y133.133 E12.10016
G1 X147.391 Y132.946 E12.13858
G1 X144.818 Y132.242 E12.29229
G1 X142.172 Y131.596 E12.44924
G1 X139.577 Y131.04 E12.60217
G1 X136.934 Y130.552 E12.75704
G1 X134.32 Y130.146 E12.90947
G1 X131.608 Y129.802 E13.067
G1 X128.955 Y129.542 E13.2206
G1 X126.312 Y129.357 E13.37328
G1 X123.611 Y129.246 E13.52905
G1 X120.97 Y129.21 E13.68124
G1 X58.97 Y129.21 E17.25388
G1 X56.292 Y129.248 E17.40821
G1 X53.619 Y129.361 E17.56238
G1 F2700 E4.56238
G0 F1200 X30.928 Y128.646
G0 X29.842 Y128.208
G0 X29.842 Y111.792
G0 X32.079 Y106.463
G1 F2100 E17.56238
G1 F1200 X32.733 Y106.653 E17.60162
G1 X35.294 Y107.355 E17.75464
G1 X37.891 Y107.988 E17.90867
G1 X40.522 Y108.552 E18.06372
G1 X43.135 Y109.035 E18.21684
G1 X45.767 Y109.443 E18.37031
G1 X48.42 Y109.78 E18.52441
G1 X51.087 Y110.041 E18.67883
G1 X53.731 Y110.225 E18.83155
G1 X56.415 Y110.335 E18.98634
G1 X58.96 Y110.37 E19.13301
G1 X121.025 Y110.37 E22.70939
G1 X123.685 Y110.332 E22.86269
G1 X126.369 Y110.218 E23.01749
G1 X129.02 Y110.03 E23.17063
G1 X131.721 Y109.763 E23.32703
G1 X134.307 Y109.432 E23.47726
G1 X136.985 Y109.011 E23.63347
G1 X139.587 Y108.527 E23.78597
G1 X142.194 Y107.966 E23.93964
G1 X144.808 Y107.326 E24.09471
G1 X147.08 Y106.704 E24.23045
G1 X147.939 Y106.458 E24.28194
G1 X148.594 Y106.312 E24.32061
G1 X149.261 Y106.245 E24.35924
G1 X149.932 Y106.257 E24.39791
G1 X150.597 Y106.35 E24.4366
G1 X151.245 Y106.521 E24.47522
G1 X151.869 Y106.767 E24.51387
G1 X152.459 Y107.087 E24.55254
G1 X153.007 Y107.474 E24.5912
G1 X153.505 Y107.923 E24.62984
G1 X153.946 Y108.429 E24.66852
G1 X154.323 Y108.983 E24.70713
G1 X154.633 Y109.578 E24.74579
G1 X154.869 Y110.206 E24.78445
G1 X155.028 Y110.858 E24.82312
G1 X155.119 Y111.772 E24.87605
G1 X155.129 Y112.347 E24.90919
G1 X155.13 Y127.408 E25.77705
G1 X155.119 Y128.209 E25.82321
G1 X155.07 Y128.878 E25.86186
G1 X154.942 Y129.536 E25.90049
G1 X154.736 Y130.175 E25.93918
G1 X154.456 Y130.784 E25.9778
G1 X154.105 Y131.356 E26.01647
G1 X153.688 Y131.882 E26.05515
G1 X153.213 Y132.355 E26.09378
G1 X152.684 Y132.767 E26.13241
G1 X152.11 Y133.114 E26.17106
G1 X151.498 Y133.391 E26.20977
G1 X150.858 Y133.592 E26.24843
G1 X150.199 Y133.716 E26.28707
G1 X149.53 Y133.761 E26.32571
G1 X148.86 Y133.726 E26.36437
G1 X147.914 Y133.536 E26.41997
G1 X147.294 Y133.355 E26.45718
G1 X144.718 Y132.65 E26.61108
G1 X142.086 Y132.008 E26.76719
G1 X139.481 Y131.449 E26.92072
G1 X136.868 Y130.966 E27.07384
G1 X134.236 Y130.558 E27.22731
G1 X131.583 Y130.221 E27.38141
G1 X128.92 Y129.96 E27.5356
G1 X126.266 Y129.775 E27.6889
G1 X123.588 Y129.665 E27.84335
G1 X121.037 Y129.63 E27.99036
G1 X58.976 Y129.63 E31.56651
G1 X56.316 Y129.668 E31.71981
G1 X53.632 Y129.782 E31.87461
G1 X50.981 Y129.97 E32.02775
G1 X48.28 Y130.237 E32.18415
G1 X45.694 Y130.568 E32.33438
G1 X43.016 Y130.989 E32.49059
G1 X40.414 Y131.473 E32.64309
G1 X37.807 Y132.034 E32.79676
G1 X35.213 Y132.669 E32.95064
G1 X32.97 Y133.281 E33.08462
G1 X32.056 Y133.542 E33.13939
G1 X31.401 Y133.688 E33.17806
G1 X30.733 Y133.755 E33.21675
G1 X30.063 Y133.741 E33.25536
G1 X29.398 Y133.648 E33.29405
G1 X28.75 Y133.477 E33.33267
G1 X28.126 Y133.23 E33.37134
G1 X27.536 Y132.91 E33.41002
G1 X26.989 Y132.523 E33.44863
G1 X26.491 Y132.073 E33.48731
G1 X26.051 Y131.567 E33.52595
G1 X25.673 Y131.012 E33.56464
G1 X25.365 Y130.417 E33.60325
G1 X25.129 Y129.789 E33.6419
G1 X24.97 Y129.137 E33.68058
G1 X24.88 Y128.211 E33.73419
G1 X24.871 Y127.591 E33.76992
G1 X24.87 Y112.553 E34.63645
G1 X24.881 Y111.788 E34.68054
G1 X24.93 Y111.119 E34.71919
G1 X25.059 Y110.46 E34.75789
G1 X25.266 Y109.822 E34.79654
G1 X25.547 Y109.213 E34.83519
G1 X25.898 Y108.641 E34.87386
G1 X26.315 Y108.116 E34.91249
G1 X26.791 Y107.643 E34.95116
G1 X27.32 Y107.231 E34.9898
G1 X27.894 Y106.884 E35.02845
G1 X28.506 Y106.609 E35.06711
G1 X29.146 Y106.408 E35.10576
G1 X29.805 Y106.284 E35.1444
G1 X30.475 Y106.24 E35.18309
G1 X31.145 Y106.276 E35.22176
G1 X32.079 Y106.463 E35.27665
G1 F2700 E22.27665
;MESH:BarraDiafragama.stl
G0 F1200 X34.781 Y115.339
G0 X34.311 Y116.448
G0 X145.944 Y122.95
;TYPE:WALL-INNER
G1 F2100 E35.27665
G1 F1200 X34.055 Y122.95 E41.72405
G1 X31.91 Y125.17 E41.90193
G1 X31.55 Y125.543 E41.9318
G1 X31.55 Y125.025 E41.94782
G1 X31.55 Y125.024 E41.94788
G1 X31.55 Y114.976 E42.52687
G1 X31.55 Y114.975 E42.52693
G1 X31.55 Y114.457 E42.55678
G1 X31.91 Y114.83 E42.57281
G1 X34.055 Y117.05 E42.75069
G1 X145.944 Y117.05 E49.19809
G1 X148.09 Y114.828 E49.3761
G1 X148.45 Y114.455 E49.40597
G1 X148.45 Y114.973 E49.42199
G1 X148.45 Y114.974 E49.42205
G1 X148.45 Y125.026 E50.00127
G1 X148.45 Y125.027 E50.00133
G1 X148.45 Y125.545 E50.03118
G1 X148.09 Y125.172 E50.04721
G1 X145.944 Y122.95 E50.22522
G0 X34.233 Y123.37
G1 X31.49 Y126.21 E50.45273
G1 X31.13 Y126.583 E50.4826
G1 X31.13 Y126.065 E50.49862
G1 X31.13 Y126.064 E50.49868
G1 X31.13 Y113.936 E51.19754
G1 X31.13 Y113.935 E51.19759
G1 X31.13 Y113.417 E51.22744
G1 X31.49 Y113.79 E51.24347
G1 X34.233 Y116.63 E51.47099
G1 X145.766 Y116.63 E57.89788
G1 X148.51 Y113.789 E58.12548
G1 X148.87 Y113.416 E58.15535
G1 X148.87 Y113.934 E58.17137
G1 X148.87 Y113.935 E58.17143
G1 X148.87 Y126.065 E58.87039
G1 X148.87 Y126.066 E58.87045
G1 X148.87 Y126.584 E58.9003
G1 X148.51 Y126.211 E58.91633
G1 X145.766 Y123.37 E59.14393
G1 X34.233 Y123.37 E65.57082
G0 X34.411 Y123.79
;TYPE:WALL-OUTER
G1 X31.07 Y127.249 E65.84793
G1 X30.71 Y127.622 E65.8778
G1 X30.71 Y127.104 E65.89382
G1 X30.71 Y127.103 E65.89388
G1 X30.71 Y112.897 E66.71247
G1 X30.71 Y112.896 E66.71253
G1 X30.71 Y112.378 E66.74238
G1 X31.07 Y112.751 E66.75841
G1 X34.411 Y116.21 E67.03552
G1 X145.588 Y116.21 E73.4419
G1 X148.93 Y112.75 E73.71909
G1 X149.29 Y112.377 E73.74896
G1 X149.29 Y112.895 E73.76498
G1 X149.29 Y112.896 E73.76504
G1 X149.29 Y127.104 E74.58375
G1 X149.29 Y127.105 E74.58381
G1 X149.29 Y127.623 E74.61366
G1 X148.93 Y127.25 E74.62969
G1 X145.588 Y123.79 E74.90688
G1 X34.411 Y123.79 E81.31325
G0 X34.273 Y123.933
G0 X34.044 Y123.711
G0 X33.881 Y122.54
;TYPE:SKIN
G1 X31.96 Y124.528 E81.47255
G1 X31.96 Y115.472 E81.99439
G1 X33.881 Y117.46 E82.15369
G1 X146.118 Y117.46 E88.62114
G1 X148.04 Y115.47 E88.78056
G1 X148.04 Y124.53 E89.30263
G1 X146.118 Y122.54 E89.46205
G1 X33.881 Y122.54 E95.9295
G0 X34.46 Y120.04
G1 X34.46 Y119.96 E95.93411
G1 X145.54 Y119.96 E102.3349
G1 X145.54 Y120.04 E102.33951
G1 X34.46 Y120.04 E108.74029
G0 X34.04 Y120.46
G1 X34.04 Y119.54 E108.7933
G1 X145.96 Y119.54 E115.24249
G1 X145.96 Y120.46 E115.2955
G1 X34.04 Y120.46 E121.74469
G0 X33.62 Y120.88
G1 X33.62 Y119.12 E121.84611
G1 X146.38 Y119.12 E128.3437
G1 X146.38 Y120.88 E128.44511
G1 X33.62 Y120.88 E134.9427
G0 X33.355 Y121.3
G1 X33.2 Y121.46 E134.95554
G1 X33.2 Y118.54 E135.1238
G1 X33.355 Y118.7 E135.13664
G1 X146.644 Y118.7 E141.66471
G1 X146.8 Y118.538 E141.67767
G1 X146.8 Y121.462 E141.84616
G1 X146.644 Y121.3 E141.85912
G1 X33.355 Y121.3 E148.38719
G0 X33.533 Y121.72
G1 X32.78 Y122.499 E148.44962
G1 X32.78 Y117.501 E148.73762
G1 X33.533 Y118.28 E148.80005
G1 X146.466 Y118.28 E155.30761
G1 X147.22 Y117.499 E155.37017
G1 X147.22 Y122.501 E155.6584
G1 X146.466 Y121.72 E155.72095
G1 X33.533 Y121.72 E162.22851
G0 X33.711 Y122.14
G1 X32.36 Y123.538 E162.34054
G1 X32.36 Y116.462 E162.74828
G1 X33.711 Y117.86 E162.86031
G1 X146.288 Y117.86 E169.34735
G1 X147.64 Y116.46 E169.4595
G1 X147.64 Y123.54 E169.86747
G1 X146.288 Y122.14 E169.97962
G1 X33.711 Y122.14 E176.46667
G0 X33.21 Y121.758
;TYPE:SKIN
G1 X33.059 Y121.607 E176.47253
G0 X32.984 Y121.816
G1 X33.071 Y121.903 E176.4759
G0 X32.714 Y122.677
G1 X32.813 Y122.775 E176.47973
G0 X32.673 Y122.919
G1 X32.564 Y122.81 E176.48396
G0 X32.149 Y123.809
G1 X32.272 Y123.931 E176.48871
G0 X33.185 Y118.339
G1 X32.984 Y118.139 E176.49649
G0 X32.727 Y117.316
G1 X32.564 Y117.153 E176.50282
G0 X32.258 Y116.28
G1 X32.149 Y116.172 E176.50703
G0 X34.087 Y116.436
G0 X146.788 Y118.239
G1 X146.937 Y118.388 E176.51281
G0 X147.014 Y118.183
G1 X146.926 Y118.095 E176.51622
G0 X147.28 Y117.318
G1 X147.186 Y117.223 E176.51989
G0 X147.324 Y117.079
G1 X147.434 Y117.188 E176.52414
G0 X147.849 Y116.189
G1 X147.726 Y116.066 E176.52891
G0 X146.815 Y121.661
G1 X147.014 Y121.86 E176.53663
G0 X147.273 Y122.685
G1 X147.434 Y122.845 E176.54286
G0 X147.742 Y123.719
G1 X147.849 Y123.826 E176.54702
;MESH:NONMESH
G0 F600 X147.849 Y123.826 Z0.5
G0 F1200 X145.912 Y123.564
G0 X34.075 Y123
;TIME_ELAPSED:189.858888
;LAYER:1
M140 S70
M106 S204
;TYPE:WALL-INNER
;MESH:BarraDiafragama.stl
G1 F2000 X31.843 Y125.311 E176.65388
G1 X31.5 Y125.667 E176.67032
G1 X31.5 Y125.173 E176.67913
G1 X31.5 Y125.172 E176.67917
G1 X31.5 Y114.828 E177.02321
G1 X31.5 Y114.827 E177.02324
G1 X31.5 Y114.333 E177.03967
G1 X31.843 Y114.689 E177.04849
G1 X34.075 Y117 E177.15535
G1 X145.924 Y117 E180.87547
G1 X148.157 Y114.688 E180.98237
G1 X148.5 Y114.332 E180.99882
G1 X148.5 Y114.826 E181.00763
G1 X148.5 Y114.827 E181.00766
G1 X148.5 Y125.173 E181.35177
G1 X148.5 Y125.174 E181.35181
G1 X148.5 Y125.668 E181.36824
G1 X148.157 Y125.312 E181.37706
G1 X145.924 Y123 E181.48396
G1 X34.075 Y123 E185.20408
G0 F3000 X34.245 Y123.4
G1 F2000 X31.443 Y126.301 E185.33822
G1 X31.1 Y126.657 E185.35466
G1 X31.1 Y126.163 E185.36348
G1 X31.1 Y126.162 E185.36351
G1 X31.1 Y113.838 E185.77341
G1 X31.1 Y113.837 E185.77344
G1 X31.1 Y113.343 E185.78987
G1 X31.443 Y113.699 E185.79869
G1 X34.245 Y116.6 E185.93284
G1 X145.754 Y116.6 E189.64164
G1 X148.557 Y113.698 E189.77584
G1 X148.9 Y113.342 E189.79228
G1 X148.9 Y113.836 E189.80109
G1 X148.9 Y113.837 E189.80113
G1 X148.9 Y126.163 E190.21109
G1 X148.9 Y126.164 E190.21112
G1 X148.9 Y126.658 E190.22755
G1 X148.557 Y126.302 E190.23637
G1 X145.754 Y123.4 E190.37057
G1 X34.245 Y123.4 E194.07937
G0 F3000 X34.415 Y123.8
;TYPE:WALL-OUTER
G1 F1400 X31.043 Y127.291 E194.2408
G1 X30.7 Y127.647 E194.25725
G1 X30.7 Y127.153 E194.26606
G1 X30.7 Y127.152 E194.26609
G1 X30.7 Y112.848 E194.74185
G1 X30.7 Y112.847 E194.74188
G1 X30.7 Y112.353 E194.75831
G1 X31.043 Y112.709 E194.76713
G1 X34.415 Y116.2 E194.92856
G1 X145.584 Y116.2 E198.62606
G1 X148.957 Y112.708 E198.78754
G1 X149.3 Y112.352 E198.80398
G1 X149.3 Y112.846 E198.81279
G1 X149.3 Y112.847 E198.81283
G1 X149.3 Y127.153 E199.28865
G1 X149.3 Y127.154 E199.28868
G1 X149.3 Y127.648 E199.30511
G1 X148.957 Y127.292 E199.31393
G1 X145.584 Y123.8 E199.47541
G1 X34.415 Y123.8 E203.1729
G0 F3000 X34.277 Y123.943
G0 X34.063 Y123.734
G0 X33.909 Y122.61
;TYPE:SKIN
G1 F1400 X31.89 Y124.701 E203.26958
G1 X31.89 Y115.299 E203.58229
G1 X33.909 Y117.39 E203.67897
G1 X146.09 Y117.39 E207.41012
G1 X148.11 Y115.298 E207.50684
G1 X148.11 Y124.702 E207.81962
G1 X146.09 Y122.61 E207.91635
G1 X33.909 Y122.61 E211.6475
G0 F3000 X32.354 Y116.037
G1 F1400 X32.07 Y116.321 E211.66086
G0 F3000 X32.632 Y116.325
G1 F1400 X32.07 Y116.886 E211.68727
G0 F3000 X32.07 Y117.452
G1 F1400 X32.909 Y116.614 E211.72671
G0 F3000 X33.187 Y116.901
G1 F1400 X32.07 Y118.018 E211.77925
G0 F3000 X32.07 Y118.584
G1 F1400 X33.465 Y117.189 E211.84487
G0 F3000 X33.742 Y117.477
G1 F1400 X32.07 Y119.149 E211.92351
G0 F3000 X32.07 Y119.715
G1 F1400 X34.216 Y117.569 E212.02446
G0 F3000 X34.782 Y117.569
G1 F1400 X32.07 Y120.281 E212.15202
G0 F3000 X32.07 Y120.846
G1 F1400 X35.348 Y117.569 E212.30618
G0 F3000 X35.913 Y117.569
G1 F1400 X32.07 Y121.412 E212.48695
G0 F3000 X32.07 Y121.978
G1 F1400 X36.479 Y117.569 E212.69433
G0 F3000 X37.045 Y117.569
G1 F1400 X32.07 Y122.543 E212.92832
G0 F3000 X32.07 Y123.109
G1 F1400 X37.61 Y117.569 E213.1889
G0 F3000 X38.176 Y117.569
G1 F1400 X32.07 Y123.675 E213.47611
G0 F3000 X32.441 Y123.869
G1 F1400 X32.085 Y124.226 E213.49288
G0 F3000 X33.881 Y122.429
G1 F1400 X38.742 Y117.569 E213.7215
G0 F3000 X39.307 Y117.569
G1 F1400 X34.447 Y122.429 E213.9501
G0 F3000 X35.012 Y122.429
G1 F1400 X39.873 Y117.569 E214.17872
G0 F3000 X40.439 Y117.569
G1 F1400 X35.578 Y122.429 E214.40735
G0 F3000 X36.144 Y122.429
G1 F1400 X41.004 Y117.569 E214.63595
G0 F3000 X41.57 Y117.569
G1 F1400 X36.709 Y122.429 E214.86457
G0 F3000 X37.275 Y122.429
G1 F1400 X42.136 Y117.569 E215.09319
G0 F3000 X42.701 Y117.569
G1 F1400 X37.841 Y122.429 E215.32179
G0 F3000 X38.407 Y122.429
G1 F1400 X43.267 Y117.569 E215.55039
G0 F3000 X43.833 Y117.569
G1 F1400 X38.972 Y122.429 E215.77901
G0 F3000 X39.538 Y122.429
G1 F1400 X44.399 Y117.569 E216.00764
G0 F3000 X44.964 Y117.569
G1 F1400 X40.104 Y122.429 E216.23624
G0 F3000 X40.669 Y122.429
G1 F1400 X45.53 Y117.569 E216.46486
G0 F3000 X46.096 Y117.569
G1 F1400 X41.235 Y122.429 E216.69348
G0 F3000 X41.801 Y122.429
G1 F1400 X46.661 Y117.569 E216.92208
G0 F3000 X47.227 Y117.569
G1 F1400 X42.366 Y122.429 E217.1507
G0 F3000 X42.932 Y122.429
G1 F1400 X47.793 Y117.569 E217.37933
G0 F3000 X48.358 Y117.569
