;FLAVOR:Marlin
;TIME:4657
;Filament used: 8.91869m
;Layer height: 0.3
;MINX:52.093
;MINY:78.398
;MINZ:0.3
;MAXX:128.186
;MAXY:155.82
;MAXZ:65.7
;Generated with Cura_SteamEngine 4.6.2
M140 S70
M105
M190 S70
M104 S235
M105
M109 S235
M82 ;absolute extrusion mode
G28 ;Home
G1 Z15.0 F6000 ;Move the platform down 15mm
G92 E0
G1 F200 E3
G92 E0
G92 E0
G92 E0
G1 F2700 E-10
;LAYER_COUNT:219
;LAYER:0
M106 S51
G0 F2640 X92.5 Y79.031 Z0.3
;TYPE:SKIRT
G1 F2100 E0
G1 F1320 X93.103 Y79.259 E0.03216
G1 X93.871 Y79.689 E0.07608
G1 X94.732 Y80.271 E0.12792
G1 X95.605 Y80.898 E0.18155
G1 X96.103 Y81.307 E0.2137
G1 X96.461 Y81.675 E0.23931
G1 X96.876 Y82.146 E0.27063
G1 X99.46 Y85.188 E0.46976
G1 X100.519 Y86.412 E0.55051
G1 X102.957 Y89.186 E0.73476
G1 X104.073 Y90.435 E0.81832
G1 X106.509 Y93.115 E0.99901
G1 X107.644 Y94.342 E1.0824
G1 X110.146 Y96.999 E1.26448
G1 X111.346 Y98.25 E1.35096
G1 X113.808 Y100.776 E1.52694
G1 X115.117 Y102.095 E1.61965
G1 X117.615 Y104.564 E1.79488
G1 X118.94 Y105.849 E1.88696
G1 X121.423 Y108.212 E2.05797
G1 X122.795 Y109.494 E2.15165
G1 X125.479 Y111.951 E2.33319
G1 X126.099 Y112.528 E2.37545
G1 X126.546 Y112.992 E2.40759
G1 X126.933 Y113.508 E2.43977
G1 X127.252 Y114.067 E2.47188
G1 X127.5 Y114.662 E2.50404
G1 X127.673 Y115.284 E2.53625
G1 X127.767 Y115.921 E2.56837
G1 X127.782 Y116.566 E2.60056
G1 X127.717 Y117.207 E2.6327
G1 X127.573 Y117.836 E2.6649
G1 X127.352 Y118.441 E2.69703
G1 X126.925 Y119.227 E2.74166
G1 X126.371 Y120.066 E2.79182
G1 X103.38 Y152.653 E4.78149
G1 X102.934 Y153.269 E4.81943
G1 X102.525 Y153.767 E4.85158
G1 X102.056 Y154.21 E4.88377
G1 X101.537 Y154.592 E4.91592
G1 X100.974 Y154.907 E4.94811
G1 X100.377 Y155.15 E4.98026
G1 X99.754 Y155.316 E5.01243
G1 X99.116 Y155.405 E5.04457
G1 X98.471 Y155.414 E5.07675
G1 X97.831 Y155.343 E5.10888
G1 X97.204 Y155.193 E5.14104
G1 X96.516 Y154.929 E5.1778
G1 X92.835 Y153.049 E5.38402
G1 X91.202 Y152.226 E5.47525
G1 X88.258 Y150.776 E5.63897
G1 X86.681 Y150.017 E5.72629
G1 X83.689 Y148.61 E5.89124
G1 X82.151 Y147.903 E5.97569
G1 X79.162 Y146.561 E6.13915
G1 X77.558 Y145.857 E6.22655
G1 X74.503 Y144.548 E6.39236
G1 X73.038 Y143.935 E6.47159
G1 X69.995 Y142.69 E6.63562
G1 X68.479 Y142.084 E6.71708
G1 X65.243 Y140.821 E6.89038
G1 X63.691 Y140.228 E6.97327
G1 X60.415 Y139.014 E7.14757
G1 X59.734 Y138.75 E7.18401
G1 X59.149 Y138.48 E7.21616
G1 X58.694 Y138.204 E7.2427
G1 X58.045 Y137.763 E7.28185
G1 X55.073 Y135.68 E7.46292
G1 X54.612 Y135.343 E7.49141
G1 X54.118 Y134.93 E7.52353
G1 X53.678 Y134.458 E7.55572
G1 X53.3 Y133.936 E7.58788
G1 X52.989 Y133.371 E7.62005
G1 X52.751 Y132.772 E7.65221
G1 X52.588 Y132.149 E7.68434
G1 X52.504 Y131.509 E7.71654
G1 X52.5 Y130.865 E7.74867
G1 X52.576 Y130.225 E7.78083
G1 X52.73 Y129.599 E7.81299
G1 X52.96 Y128.997 E7.84514
G1 X53.396 Y128.223 E7.88946
G1 X54.04 Y127.279 E7.94647
G1 X86.33 Y81.519 E10.7406
G1 X86.761 Y80.929 E10.77705
G1 X87.172 Y80.433 E10.80919
G1 X87.643 Y79.992 E10.84138
G1 X88.164 Y79.612 E10.87355
G1 X88.728 Y79.3 E10.90571
G1 X89.326 Y79.06 E10.93786
G1 X89.949 Y78.896 E10.97
G1 X90.588 Y78.81 E11.00216
G1 X91.233 Y78.804 E11.03434
G1 X91.873 Y78.878 E11.06649
G1 X92.5 Y79.031 E11.09869
G0 F2640 X92.375 Y78.579
G1 F1320 X93.011 Y78.787 E11.13207
G1 X93.618 Y79.069 E11.16546
G1 X94.095 Y79.358 E11.19329
G1 X94.956 Y79.94 E11.24513
G1 X95.839 Y80.574 E11.29937
G1 X96.357 Y80.998 E11.33276
G1 X96.761 Y81.411 E11.36159
G1 X97.176 Y81.882 E11.39291
G1 X99.763 Y84.926 E11.59221
G1 X100.819 Y86.148 E11.67278
G1 X103.255 Y88.92 E11.85689
G1 X104.339 Y90.133 E11.93805
G1 X106.772 Y92.81 E12.11853
G1 X107.969 Y94.104 E12.20647
G1 X110.434 Y96.722 E12.38587
G1 X111.603 Y97.941 E12.47013
G1 X114.092 Y100.494 E12.64801
G1 X115.401 Y101.813 E12.74072
G1 X117.894 Y104.277 E12.9156
G1 X119.254 Y105.596 E13.01012
G1 X121.696 Y107.92 E13.1783
G1 X123.065 Y109.199 E13.27177
G1 X125.749 Y111.656 E13.45331
G1 X126.152 Y112.034 E13.48088
G1 X126.834 Y112.713 E13.52889
G1 X127.239 Y113.246 E13.56229
G1 X127.577 Y113.823 E13.59565
G1 X127.845 Y114.436 E13.62903
G1 X128.037 Y115.077 E13.66241
G1 X128.151 Y115.736 E13.69578
G1 X128.186 Y116.405 E13.7292
G1 X128.141 Y117.072 E13.76255
G1 X128.016 Y117.729 E13.79592
G1 X127.815 Y118.367 E13.82929
G1 X127.538 Y118.977 E13.86271
G1 X127.259 Y119.448 E13.89003
G1 X126.705 Y120.287 E13.94019
G1 X103.707 Y152.884 E15.93047
G1 X103.258 Y153.504 E15.96866
G1 X102.834 Y154.021 E16.00202
G1 X102.352 Y154.485 E16.0354
G1 X101.817 Y154.887 E16.06878
G1 X101.238 Y155.223 E16.10218
G1 X100.624 Y155.487 E16.13553
G1 X99.982 Y155.676 E16.16891
G1 X99.322 Y155.788 E16.20231
G1 X98.654 Y155.82 E16.23568
G1 X97.987 Y155.772 E16.26904
G1 X97.33 Y155.644 E16.30243
G1 X96.693 Y155.44 E16.3358
G1 X96.092 Y155.172 E16.36863
G1 X92.655 Y153.406 E16.56142
G1 X91.068 Y152.606 E16.65008
G1 X88.085 Y151.137 E16.81597
G1 X86.511 Y150.379 E16.90313
G1 X83.564 Y148.993 E17.06561
G1 X81.984 Y148.267 E17.15236
G1 X79.001 Y146.927 E17.31551
G1 X77.443 Y146.243 E17.4004
G1 X74.305 Y144.899 E17.57071
G1 X72.886 Y144.305 E17.64745
G1 X69.846 Y143.061 E17.81133
G1 X68.373 Y142.472 E17.89047
G1 X65.062 Y141.18 E18.06779
G1 X63.581 Y140.614 E18.14689
G1 X60.276 Y139.389 E18.32274
G1 X59.589 Y139.123 E18.35949
G1 X58.981 Y138.844 E18.39287
G1 X58.47 Y138.535 E18.42266
G1 X57.821 Y138.094 E18.46181
G1 X54.843 Y136.007 E18.64323
G1 X54.376 Y135.665 E18.67211
G1 X53.861 Y135.238 E18.70549
G1 X53.401 Y134.752 E18.73887
G1 X53.003 Y134.214 E18.77226
G1 X52.671 Y133.633 E18.80564
G1 X52.411 Y133.017 E18.839
G1 X52.227 Y132.374 E18.87237
G1 X52.12 Y131.713 E18.90577
G1 X52.093 Y131.045 E18.93913
G1 X52.146 Y130.378 E18.97251
G1 X52.278 Y129.722 E19.00589
G1 X52.487 Y129.086 E19.03929
G1 X52.771 Y128.48 E19.07268
G1 X53.066 Y127.997 E19.10092
G1 X53.71 Y127.053 E19.15793
G1 X86.003 Y81.288 E21.95235
G1 X86.438 Y80.693 E21.98912
G1 X86.864 Y80.177 E22.0225
G1 X87.349 Y79.716 E22.05589
G1 X87.885 Y79.316 E22.08925
G1 X88.465 Y78.983 E22.12262
G1 X89.081 Y78.721 E22.15602
G1 X89.723 Y78.535 E22.18936
G1 X90.384 Y78.427 E22.22278
G1 X91.052 Y78.398 E22.25614
G1 X91.719 Y78.449 E22.28951
G1 X92.375 Y78.579 E22.32287
G1 F2700 E12.32287
;MESH:pieza_base.stl
G0 F2640 X92.887 Y84.518
G0 X92.147 Y85.567
G0 X97.45 Y114.109
G0 X97.951 Y115.129
G0 X99.182 Y116.563
;TYPE:WALL-INNER
G1 F2100 E22.32287
G1 F1320 X99.968 Y116.775 E22.36349
G1 X100.783 Y116.802 E22.40417
G1 X101.58 Y116.641 E22.44474
G1 X102.319 Y116.298 E22.48538
G1 X102.96 Y115.797 E22.52597
G1 X103.467 Y115.16 E22.56659
G1 X103.814 Y114.423 E22.60723
G1 X103.982 Y113.627 E22.64782
G1 X103.961 Y112.812 E22.68849
G1 X103.753 Y112.025 E22.7291
G1 X103.369 Y111.306 E22.76977
G1 X102.83 Y110.696 E22.81038
G1 X102.163 Y110.226 E22.85109
G1 X101.409 Y109.923 E22.89163
G1 X100.604 Y109.804 E22.93223
G1 X99.792 Y109.87 E22.97287
G1 X99.019 Y110.123 E23.01345
G1 X98.323 Y110.549 E23.05416
G1 X97.746 Y111.123 E23.09477
G1 X97.317 Y111.813 E23.1353
G1 X97.057 Y112.586 E23.17599
G1 X96.983 Y113.396 E23.21657
G1 X97.099 Y114.202 E23.2572
G1 X97.396 Y114.961 E23.29786
G1 X97.86 Y115.63 E23.33848
G1 X98.467 Y116.172 E23.37908
G1 X99.182 Y116.563 E23.41973
G0 F2640 X100.625 Y129.06
G0 X101.303 Y130.343
G0 X102.205 Y131.031
G0 X103.951 Y131.771
G1 F1320 X104.746 Y131.611 E23.46019
G1 X105.488 Y131.271 E23.50091
G1 X106.132 Y130.77 E23.54162
G1 X106.643 Y130.131 E23.58244
G1 X106.989 Y129.401 E23.62274
G1 X107.158 Y128.603 E23.66344
G1 X107.141 Y127.787 E23.70416
G1 X106.937 Y127.004 E23.74452
G1 X106.555 Y126.282 E23.78528
G1 X106.018 Y125.67 E23.8259
G1 X105.352 Y125.2 E23.86656
G1 X104.6 Y124.895 E23.90705
G1 X103.797 Y124.772 E23.94758
G1 X102.985 Y124.834 E23.98821
G1 X102.21 Y125.085 E24.02885
G1 X101.513 Y125.506 E24.06947
G1 X100.935 Y126.078 E24.11004
G1 X100.502 Y126.768 E24.15069
G1 X100.24 Y127.539 E24.19131
G1 X100.166 Y128.346 E24.23174
G1 X100.273 Y129.151 E24.27226
G1 X100.568 Y129.911 E24.31293
G1 X101.03 Y130.582 E24.35357
G1 X101.633 Y131.128 E24.39416
G1 X102.345 Y131.521 E24.43473
G1 X103.13 Y131.737 E24.47535
G1 X103.951 Y131.771 E24.51635
G0 F2640 X87.26 Y135.559
G0 X85.691 Y135.682
G1 F1320 X86.476 Y135.894 E24.55691
G1 X87.291 Y135.921 E24.5976
G1 X88.088 Y135.76 E24.63816
G1 X88.827 Y135.419 E24.67877
G1 X89.469 Y134.916 E24.71945
G1 X89.975 Y134.277 E24.76012
G1 X90.322 Y133.542 E24.80067
G1 X90.49 Y132.746 E24.84126
G1 X90.469 Y131.931 E24.88193
G1 X90.261 Y131.144 E24.92254
G1 X89.877 Y130.425 E24.96321
G1 X89.338 Y129.815 E25.00382
G1 X88.672 Y129.345 E25.04449
G1 X87.916 Y129.042 E25.08512
G1 X87.112 Y128.923 E25.12567
G1 X86.301 Y128.989 E25.16627
G1 X85.526 Y129.242 E25.20694
G1 X84.832 Y129.668 E25.24757
G1 X84.255 Y130.241 E25.28813
G1 X83.825 Y130.932 E25.32874
G1 X83.566 Y131.705 E25.36941
G1 X83.491 Y132.515 E25.40999
G1 X83.607 Y133.321 E25.45062
G1 X83.904 Y134.08 E25.49128
G1 X84.371 Y134.749 E25.53199
G1 X84.976 Y135.291 E25.57251
G1 X85.691 Y135.682 E25.61317
G0 F2640 X87.26 Y135.559
G0 X88.51 Y135.168
G0 X117.905 Y113.42
G1 F1320 X121.289 Y116.519 E25.84209
G1 X98.408 Y148.945 E27.82204
G1 X94.831 Y147.103 E28.02277
G1 X90.142 Y144.793 E28.28355
G1 X85.516 Y142.618 E28.53858
G1 X80.861 Y140.528 E28.79315
G1 X76.184 Y138.524 E29.04701
G1 X71.479 Y136.6 E29.30061
G1 X66.715 Y134.74 E29.55576
G1 X62.083 Y133.021 E29.80225
G1 X59.177 Y130.984 E29.9793
G1 X59.067 Y130.907 E29.986
G1 X59.142 Y130.801 E29.99248
G1 X59.219 Y130.691 E29.99758
G1 X91.203 Y85.368 E32.76509
G1 X91.888 Y85.851 E32.80691
G1 X95.285 Y89.851 E33.06872
G1 X98.879 Y93.939 E33.34029
G1 X102.52 Y97.946 E33.6104
G1 X106.273 Y101.93 E33.88346
G1 X110.071 Y105.825 E34.15488
G1 X113.951 Y109.658 E34.42698
G1 X117.905 Y113.42 E34.69927
G0 F2640 X100.752 Y116.44
G0 X99.295 Y116.281
G0 X99.332 Y116.189
G1 F1320 X100.028 Y116.377 E34.73523
G1 X100.749 Y116.401 E34.77122
G1 X101.455 Y116.258 E34.80716
G1 X102.109 Y115.955 E34.84312
G1 X102.676 Y115.511 E34.87905
G1 X103.125 Y114.947 E34.91502
G1 X103.432 Y114.295 E34.95097
G1 X103.581 Y113.59 E34.98692
G1 X103.562 Y112.869 E35.0229
G1 X103.378 Y112.172 E35.05887
G1 X103.038 Y111.536 E35.09485
G1 X102.561 Y110.996 E35.13079
G1 X101.971 Y110.58 E35.16681
G1 X101.304 Y110.312 E35.20267
G1 X100.591 Y110.206 E35.23864
G1 X99.872 Y110.265 E35.27463
G1 X99.188 Y110.489 E35.31054
G1 X98.572 Y110.866 E35.34657
G1 X98.061 Y111.374 E35.38251
G1 X97.681 Y111.985 E35.41841
G1 X97.451 Y112.669 E35.45441
G1 X97.386 Y113.386 E35.49033
G1 X97.488 Y114.099 E35.52627
G1 X97.751 Y114.771 E35.56227
G1 X98.162 Y115.363 E35.59822
G1 X98.699 Y115.843 E35.63416
G1 X99.332 Y116.189 E35.67015
G0 F2640 X99.295 Y116.281
G0 X100.625 Y129.06
G0 X101.303 Y130.343
G0 X102.482 Y131.185
G0 X103.926 Y131.468
G0 X103.919 Y131.369
G1 F1320 X104.622 Y131.228 E35.70592
G1 X105.279 Y130.927 E35.74197
G1 X105.849 Y130.483 E35.77802
G1 X106.301 Y129.918 E35.81412
G1 X106.607 Y129.272 E35.84978
G1 X106.757 Y128.565 E35.88584
G1 X106.742 Y127.842 E35.92192
G1 X106.562 Y127.15 E35.95759
G1 X106.223 Y126.511 E35.99368
G1 X105.748 Y125.969 E36.02963
G1 X105.159 Y125.553 E36.06561
G1 X104.493 Y125.283 E36.10146
G1 X103.782 Y125.174 E36.13735
G1 X103.063 Y125.229 E36.17332
G1 X102.377 Y125.451 E36.2093
G1 X101.761 Y125.824 E36.24522
G1 X101.249 Y126.33 E36.28114
G1 X100.866 Y126.941 E36.31711
G1 X100.634 Y127.623 E36.35305
G1 X100.568 Y128.338 E36.38888
G1 X100.663 Y129.051 E36.42476
G1 X100.924 Y129.723 E36.46073
G1 X101.333 Y130.317 E36.49671
G1 X101.867 Y130.8 E36.53263
G1 X102.497 Y131.148 E36.56854
G1 X103.192 Y131.339 E36.6045
G1 X103.919 Y131.369 E36.6408
G0 F2640 X103.926 Y131.468
G0 X87.26 Y135.559
G0 X85.827 Y135.345
G0 X84.879 Y134.719
G0 X84.171 Y133.937
G0 X84.259 Y133.89
G1 F1320 X84.672 Y134.482 E36.67681
G1 X85.208 Y134.962 E36.71271
G1 X85.841 Y135.308 E36.7487
G1 X86.536 Y135.496 E36.78462
G1 X87.257 Y135.52 E36.82061
G1 X87.963 Y135.377 E36.85655
G1 X88.617 Y135.075 E36.89249
G1 X89.185 Y134.63 E36.92848
G1 X89.633 Y134.065 E36.96446
G1 X89.94 Y133.414 E37.00037
G1 X90.089 Y132.709 E37.03632
G1 X90.07 Y131.988 E37.0723
G1 X89.886 Y131.291 E37.10826
G1 X89.546 Y130.655 E37.14424
G1 X89.069 Y130.115 E37.18019
G1 X88.48 Y129.699 E37.21617
G1 X87.811 Y129.431 E37.25212
G1 X87.099 Y129.325 E37.28803
G1 X86.381 Y129.384 E37.32398
G1 X85.695 Y129.608 E37.35998
G1 X85.081 Y129.985 E37.39593
G1 X84.57 Y130.492 E37.43184
G1 X84.189 Y131.104 E37.4678
G1 X83.96 Y131.788 E37.50379
G1 X83.894 Y132.505 E37.53971
G1 X83.996 Y133.218 E37.57565
G1 X84.259 Y133.89 E37.61165
G0 F2640 X84.171 Y133.937
G0 X58.704 Y130.899
G0 X58.624 Y130.842
G1 F1320 X58.815 Y130.571 E37.62819
G1 X91.107 Y84.81 E40.42242
G1 X92.16 Y85.553 E40.48671
G1 X95.588 Y89.589 E40.7509
G1 X99.177 Y93.672 E41.02211
G1 X102.814 Y97.674 E41.2919
G1 X106.562 Y101.653 E41.56461
G1 X110.355 Y105.543 E41.83568
G1 X114.229 Y109.371 E42.10739
G1 X118.178 Y113.128 E42.37932
G1 X121.819 Y116.462 E42.62562
G1 X98.534 Y149.46 E44.64051
G1 X94.651 Y147.46 E44.85842
G1 X89.968 Y145.153 E45.11887
G1 X85.349 Y142.981 E45.37351
G1 X80.7 Y140.894 E45.62775
G1 X76.03 Y138.893 E45.88123
G1 X71.331 Y136.971 E46.13451
G1 X66.573 Y135.114 E46.38933
G1 X61.893 Y133.377 E46.63838
G1 X58.672 Y131.119 E46.83463
G1 X58.509 Y131.005 E46.84455
G1 X58.623 Y130.843 E46.85093
G1 X58.624 Y130.842 E46.851
G0 F2640 X58.065 Y130.939
;TYPE:WALL-OUTER
G1 F1320 X58.488 Y130.34 E46.88758
G1 X90.896 Y84.415 E49.69183
G1 X91.011 Y84.252 E49.70178
G1 X91.174 Y84.367 E49.70821
G1 X92.432 Y85.255 E49.78503
G1 X95.891 Y89.327 E50.05159
G1 X99.475 Y93.405 E50.32245
G1 X103.108 Y97.402 E50.59192
G1 X106.851 Y101.376 E50.86428
G1 X110.639 Y105.261 E51.13499
G1 X114.507 Y109.084 E51.40632
G1 X118.451 Y112.836 E51.6779
G1 X122.349 Y116.405 E51.94157
G1 X98.66 Y149.975 E53.99139
G1 X94.471 Y147.817 E54.22649
G1 X89.794 Y145.513 E54.4866
G1 X85.182 Y143.344 E54.74087
G1 X80.539 Y141.26 E54.99477
G1 X75.875 Y139.262 E55.24791
G1 X71.183 Y137.342 E55.50084
G1 X66.431 Y135.488 E55.75532
G1 X61.703 Y133.733 E56.00693
G1 X58.113 Y131.216 E56.22567
G1 X57.95 Y131.102 E56.23559
G1 X58.064 Y130.94 E56.24197
G1 X58.065 Y130.939 E56.24204
G0 F2640 X58.18 Y130.776
G0 X58.607 Y130.988
G0 X86.531 Y135.535
G0 X87.975 Y135.415
G0 X89.213 Y134.658
G0 X89.841 Y133.713
G0 X90.176 Y132.775
G0 X89.688 Y132.672
G1 F1320 X89.671 Y132.045 E56.27333
G1 X89.511 Y131.438 E56.30465
G1 X89.215 Y130.885 E56.33594
G1 X88.8 Y130.415 E56.36722
G1 X88.288 Y130.053 E56.39851
G1 X87.706 Y129.82 E56.42978
G1 X87.086 Y129.727 E56.46106
G1 X86.461 Y129.779 E56.49235
G1 X85.864 Y129.974 E56.52368
G1 X85.33 Y130.302 E56.55495
G1 X84.885 Y130.743 E56.58621
G1 X84.553 Y131.276 E56.61753
G1 X84.354 Y131.871 E56.64883
G1 X84.297 Y132.495 E56.6801
G1 X84.385 Y133.116 E56.71139
G1 X84.614 Y133.7 E56.74268
G1 X84.973 Y134.215 E56.774
G1 X85.44 Y134.633 E56.80527
G1 X85.991 Y134.934 E56.8366
G1 X86.596 Y135.098 E56.86787
G1 X87.223 Y135.119 E56.89917
G1 X87.838 Y134.994 E56.93048
G1 X88.407 Y134.731 E56.96175
G1 X88.901 Y134.344 E56.99306
G1 X89.291 Y133.853 E57.02434
G1 X89.558 Y133.286 E57.05561
G1 X89.688 Y132.672 E57.08692
G0 F2640 X89.683 Y132.472
G0 X90.183 Y132.46
G0 X103.867 Y131.467
G0 X103.888 Y130.967
G1 F1320 X104.498 Y130.845 E57.11796
G1 X105.07 Y130.583 E57.14934
G1 X105.566 Y130.196 E57.18073
G1 X105.959 Y129.705 E57.21211
G1 X106.225 Y129.143 E57.24313
G1 X106.356 Y128.527 E57.27455
G1 X106.343 Y127.897 E57.30598
G1 X106.187 Y127.296 E57.33696
G1 X105.892 Y126.74 E57.36836
G1 X105.478 Y126.268 E57.39969
G1 X104.966 Y125.906 E57.43097
G1 X104.386 Y125.671 E57.46219
G1 X103.767 Y125.576 E57.49344
G1 X103.141 Y125.624 E57.52476
G1 X102.545 Y125.817 E57.55601
G1 X102.009 Y126.142 E57.58729
G1 X101.563 Y126.582 E57.61854
G1 X101.23 Y127.114 E57.64985
G1 X101.028 Y127.707 E57.68111
G1 X100.97 Y128.33 E57.71232
G1 X101.053 Y128.951 E57.74358
G1 X101.28 Y129.535 E57.77484
G1 X101.636 Y130.052 E57.80616
G1 X102.101 Y130.472 E57.83742
G1 X102.649 Y130.775 E57.86866
G1 X103.254 Y130.941 E57.89996
G1 X103.888 Y130.967 E57.93162
G0 F2640 X104.084 Y130.928
G0 X104.181 Y131.419
