;FLAVOR:Marlin
;TIME:4268
;Filament used: 4.43063m
;Layer height: 0.3
;MINX:50.652
;MINY:84.779
;MINZ:0.3
;MAXX:125.068
;MAXY:159.221
;MAXZ:16.5
;Generated with Cura_SteamEngine 4.6.2
M140 S70
M105
M190 S70
M104 S230
M105
M109 S230
M82 ;absolute extrusion mode
G28 ;Home
G1 Z15.0 F6000 ;Move the platform down 15mm
G92 E0
G1 F200 E3
G92 E0
G92 E0
G92 E0
G1 F2700 E-10
;LAYER_COUNT:55
;LAYER:0
M106 S25.5
G0 F2160 X88.554 Y85.341 Z0.3
;TYPE:SKIRT
G1 F2100 E0
G1 F900 X91.692 Y86.171 E0.17004
G1 X94.296 Y86.783 E0.31016
G1 X96.906 Y87.32 E0.44975
G1 X100.836 Y87.983 E0.65853
G1 X101.858 Y88.135 E0.71266
G1 X102.488 Y88.269 E0.7464
G1 X103.184 Y88.518 E0.78512
G1 X103.727 Y88.765 E0.81637
G1 X104.494 Y89.156 E0.86147
G1 X105.27 Y89.561 E0.90732
G1 X105.974 Y89.942 E0.94926
G1 X106.475 Y90.232 E0.97958
G1 X107.612 Y90.933 E1.04955
G1 X108.244 Y91.336 E1.08882
G1 X108.747 Y91.677 E1.12065
G1 X109.801 Y92.438 E1.18875
G1 X110.46 Y92.929 E1.2318
G1 X110.867 Y93.251 E1.25899
G1 X111.901 Y94.121 E1.32978
G1 X112.514 Y94.651 E1.37223
G1 X112.944 Y95.046 E1.40281
G1 X113.902 Y95.98 E1.4729
G1 X114.413 Y96.49 E1.51072
G1 X114.845 Y96.949 E1.54374
G1 X115.706 Y97.922 E1.6118
G1 X116.216 Y98.514 E1.65273
G1 X116.535 Y98.902 E1.67905
G1 X117.413 Y100.048 E1.75467
G1 X117.856 Y100.645 E1.79362
G1 X118.151 Y101.066 E1.82055
G1 X118.898 Y102.206 E1.89194
G1 X119.354 Y102.926 E1.93659
G1 X119.635 Y103.399 E1.96541
G1 X120.282 Y104.564 E2.03522
G1 X120.641 Y105.232 E2.07494
G1 X120.909 Y105.771 E2.10648
G1 X121.455 Y106.947 E2.1744
G1 X121.795 Y107.711 E2.2182
G1 X121.997 Y108.201 E2.24597
G1 X122.475 Y109.468 E2.31691
G1 X122.737 Y110.193 E2.35729
G1 X122.915 Y110.738 E2.38732
G1 X123.297 Y112.032 E2.458
G1 X123.501 Y112.76 E2.4976
G1 X123.651 Y113.359 E2.52995
G1 X123.923 Y114.606 E2.59681
G1 X124.087 Y115.407 E2.63964
G1 X124.182 Y115.967 E2.6694
G1 X124.37 Y117.285 E2.73914
G1 X124.47 Y118.069 E2.78054
G1 X124.529 Y118.67 E2.81218
G1 X124.62 Y120.004 E2.88222
G1 X124.647 Y120.511 E2.90882
G1 X124.668 Y121.358 E2.9532
G1 X124.642 Y122.002 E2.98696
G1 X124.497 Y122.798 E3.02935
G1 X124.222 Y123.84 E3.0858
G1 X123.541 Y126.477 E3.22847
G1 X122.933 Y129.132 E3.37115
G1 X122.421 Y131.723 E3.50951
G1 X121.97 Y134.385 E3.65094
G1 X121.764 Y135.81 E3.72637
G1 X121.565 Y136.667 E3.77245
G1 X121.222 Y137.592 E3.82413
G1 X120.578 Y138.901 E3.90055
G1 X120.072 Y139.822 E3.9556
G1 X119.65 Y140.563 E4.00027
G1 X119.232 Y141.274 E4.04348
G1 X118.906 Y141.794 E4.07563
G1 X118.167 Y142.898 E4.14522
G1 X117.77 Y143.474 E4.18187
G1 X117.388 Y143.996 E4.21575
G1 X116.607 Y144.997 E4.28226
G1 X116.097 Y145.632 E4.32493
G1 X115.721 Y146.073 E4.35529
G1 X114.826 Y147.06 E4.42508
G1 X114.294 Y147.632 E4.466
G1 X113.878 Y148.053 E4.49701
G1 X112.93 Y148.958 E4.56566
G1 X112.357 Y149.491 E4.60666
G1 X111.919 Y149.873 E4.6371
G1 X110.942 Y150.678 E4.70342
G1 X110.038 Y151.403 E4.76412
G1 X109.379 Y151.889 E4.80702
G1 X108.048 Y152.77 E4.89063
G1 X106.803 Y153.581 E4.96847
G1 X106.213 Y153.934 E5.00448
G1 X105.482 Y154.334 E5.04813
G1 X104.062 Y155.057 E5.13161
G1 X103.433 Y155.366 E5.16832
G1 X102.858 Y155.627 E5.2014
G1 X101.672 Y156.125 E5.26878
G1 X100.932 Y156.425 E5.31061
G1 X100.377 Y156.628 E5.34157
G1 X99.109 Y157.054 E5.41164
G1 X98.397 Y157.281 E5.45079
G1 X97.908 Y157.425 E5.47749
G1 X96.574 Y157.768 E5.54964
G1 X95.728 Y157.972 E5.59523
G1 X95.217 Y158.08 E5.62259
G1 X93.931 Y158.311 E5.69104
G1 X93.098 Y158.448 E5.73526
G1 X92.524 Y158.526 E5.76561
G1 X91.186 Y158.666 E5.83608
G1 X90.473 Y158.73 E5.87358
G1 X89.583 Y158.786 E5.92029
G1 X88.636 Y158.821 E5.96994
G1 X87.992 Y158.803 E6.00368
G1 X87.159 Y158.659 E6.04797
G1 X84.179 Y157.871 E6.20944
G1 X81.616 Y157.266 E6.34739
G1 X78.933 Y156.712 E6.49091
G1 X75.03 Y156.053 E6.69826
G1 X74.186 Y155.928 E6.74295
G1 X73.49 Y155.79 E6.78012
G1 X72.87 Y155.616 E6.81385
G1 X72.335 Y155.396 E6.84416
G1 X71.807 Y155.142 E6.87485
G1 X71.201 Y154.834 E6.91046
G1 X70.423 Y154.428 E6.95643
G1 X69.736 Y154.057 E6.99733
G1 X69.248 Y153.775 E7.02686
G1 X68.1 Y153.067 E7.09751
G1 X67.466 Y152.662 E7.13692
G1 X66.966 Y152.322 E7.1686
G1 X65.913 Y151.562 E7.23662
G1 X65.251 Y151.07 E7.27983
G1 X64.76 Y150.678 E7.31274
G1 X63.806 Y149.874 E7.3781
G1 X63.198 Y149.347 E7.42025
G1 X62.778 Y148.963 E7.45006
G1 X61.867 Y148.075 E7.5167
G1 X61.268 Y147.475 E7.56112
G1 X60.805 Y146.979 E7.59666
G1 X60.017 Y146.091 E7.65885
G1 X59.483 Y145.47 E7.70176
G1 X59.148 Y145.061 E7.72945
G1 X58.355 Y144.024 E7.79784
G1 X57.843 Y143.332 E7.84293
G1 X57.481 Y142.814 E7.87604
G1 X56.782 Y141.742 E7.94308
G1 X56.377 Y141.102 E7.98275
G1 X56.051 Y140.554 E8.01615
G1 X55.448 Y139.465 E8.08136
G1 X55.058 Y138.738 E8.12458
G1 X54.792 Y138.205 E8.15578
G1 X54.257 Y137.051 E8.22242
G1 X53.918 Y136.286 E8.26625
G1 X53.711 Y135.785 E8.29465
G1 X53.238 Y134.527 E8.36505
G1 X52.975 Y133.801 E8.4055
G1 X52.786 Y133.222 E8.43741
G1 X52.407 Y131.938 E8.50754
G1 X52.206 Y131.221 E8.54655
G1 X52.067 Y130.659 E8.57687
G1 X51.791 Y129.396 E8.6446
G1 X51.626 Y128.593 E8.68754
G1 X51.509 Y127.877 E8.72554
G1 X51.348 Y126.744 E8.78549
G1 X51.242 Y125.907 E8.82969
G1 X51.185 Y125.323 E8.86043
G1 X51.094 Y123.998 E8.93
G1 X51.053 Y123.25 E8.96924
G1 X51.052 Y122.407 E9.0134
G1 X51.1 Y121.764 E9.04718
G1 X51.205 Y121.219 E9.07625
G1 X51.887 Y118.67 E9.21448
G1 X52.509 Y116.086 E9.35371
G1 X53.069 Y113.436 E9.49559
G1 X53.542 Y110.827 E9.63449
G1 X53.813 Y109.112 E9.72545
G1 X53.93 Y108.324 E9.76718
G1 X54.073 Y107.611 E9.80527
G1 X54.248 Y106.991 E9.83902
G1 X54.444 Y106.509 E9.86628
G1 X54.666 Y106.042 E9.89337
G1 X55.39 Y104.636 E9.97621
G1 X55.639 Y104.183 E10.00329
G1 X56.059 Y103.442 E10.04791
G1 X56.325 Y102.991 E10.07534
G1 X57.133 Y101.716 E10.15441
G1 X57.436 Y101.26 E10.18309
G1 X57.86 Y100.641 E10.22239
G1 X58.464 Y99.913 E10.27195
G1 X59.196 Y99.235 E10.32421
G1 X59.944 Y98.747 E10.371
G1 X60.71 Y98.337 E10.41651
G1 X61.926 Y97.71 E10.48818
G1 X64.23 Y96.44 E10.626
G1 X66.576 Y95.058 E10.76863
G1 X68.846 Y93.633 E10.90903
G1 X71.06 Y92.154 E11.04851
G1 X73.255 Y90.597 E11.18948
G1 X75.392 Y88.987 E11.32964
G1 X76.416 Y88.166 E11.3984
G1 X77.572 Y87.254 E11.47553
G1 X78.024 Y86.923 E11.50488
G1 X78.571 Y86.581 E11.53867
G1 X79.155 Y86.309 E11.57242
G1 X79.727 Y86.115 E11.60406
G1 X80.267 Y85.975 E11.63329
G1 X81.181 Y85.79 E11.68214
G1 X81.82 Y85.678 E11.71612
G1 X82.374 Y85.59 E11.74551
G1 X83.75 Y85.416 E11.81816
G1 X84.499 Y85.337 E11.85761
G1 X85.259 Y85.268 E11.89759
G1 X86.111 Y85.214 E11.94231
G1 X87.075 Y85.179 E11.99284
G1 X87.72 Y85.197 E12.02665
G1 X88.554 Y85.341 E12.07098
G0 F2160 X88.654 Y84.953
G1 F900 X91.781 Y85.781 E12.24043
G1 X94.397 Y86.395 E12.3812
G1 X97.001 Y86.931 E12.52046
G1 X100.853 Y87.581 E12.7251
G1 X101.917 Y87.739 E12.78145
G1 X102.572 Y87.877 E12.81652
G1 X103.345 Y88.151 E12.85948
G1 X103.908 Y88.409 E12.89192
G1 X104.675 Y88.8 E12.93702
G1 X105.455 Y89.206 E12.98308
G1 X106.165 Y89.59 E13.02537
G1 X106.685 Y89.891 E13.05684
G1 X107.822 Y90.592 E13.12681
G1 X108.46 Y90.999 E13.16646
G1 X108.981 Y91.353 E13.19945
G1 X110.035 Y92.114 E13.26755
G1 X110.699 Y92.608 E13.31091
G1 X111.124 Y92.945 E13.33932
G1 X112.158 Y93.815 E13.41011
G1 X112.776 Y94.349 E13.4529
G1 X113.223 Y94.759 E13.48467
G1 X114.181 Y95.693 E13.55476
G1 X114.696 Y96.207 E13.59287
G1 X115.145 Y96.684 E13.62719
G1 X116.006 Y97.657 E13.69525
G1 X116.519 Y98.253 E13.73644
G1 X116.845 Y98.65 E13.76335
G1 X117.731 Y99.805 E13.83961
G1 X118.177 Y100.407 E13.87886
G1 X118.484 Y100.844 E13.90683
G1 X119.233 Y101.987 E13.97842
G1 X119.693 Y102.712 E14.0234
G1 X119.985 Y103.205 E14.05341
G1 X120.632 Y104.37 E14.12322
G1 X120.994 Y105.043 E14.16325
G1 X121.272 Y105.603 E14.19601
G1 X121.818 Y106.779 E14.26393
G1 X122.161 Y107.549 E14.30808
G1 X122.372 Y108.06 E14.33704
G1 X122.85 Y109.327 E14.40798
G1 X123.114 Y110.057 E14.44865
G1 X123.299 Y110.624 E14.47989
G1 X123.681 Y111.918 E14.55057
G1 X123.886 Y112.652 E14.59049
G1 X124.041 Y113.274 E14.62407
G1 X124.313 Y114.521 E14.69093
G1 X124.479 Y115.327 E14.73404
G1 X124.578 Y115.91 E14.76501
G1 X124.766 Y117.228 E14.83476
G1 X124.867 Y118.019 E14.87653
G1 X124.928 Y118.643 E14.90937
G1 X125.019 Y119.977 E14.97942
G1 X125.046 Y120.49 E15.00633
G1 X125.068 Y121.349 E15.05134
G1 X125.042 Y122.018 E15.08641
G1 X124.884 Y122.9 E15.13335
G1 X124.609 Y123.942 E15.1898
G1 X123.932 Y126.56 E15.33146
G1 X123.329 Y129.195 E15.47306
G1 X122.815 Y131.796 E15.61195
G1 X122.362 Y134.471 E15.75407
G1 X122.16 Y135.867 E15.82796
G1 X121.946 Y136.79 E15.8776
G1 X121.584 Y137.762 E15.93193
G1 X120.936 Y139.079 E16.00882
G1 X120.421 Y140.017 E16.06488
G1 X119.998 Y140.761 E16.10971
G1 X119.576 Y141.478 E16.15329
G1 X119.239 Y142.016 E16.18655
G1 X118.5 Y143.12 E16.25614
G1 X118.099 Y143.701 E16.29312
G1 X117.703 Y144.242 E16.32824
G1 X116.922 Y145.243 E16.39475
G1 X116.409 Y145.882 E16.43768
G1 X116.017 Y146.342 E16.46934
G1 X115.122 Y147.329 E16.53913
G1 X114.587 Y147.905 E16.58032
G1 X114.154 Y148.343 E16.61258
G1 X113.206 Y149.248 E16.68124
G1 X112.629 Y149.784 E16.72249
G1 X112.173 Y150.182 E16.7542
G1 X111.196 Y150.987 E16.82051
G1 X110.288 Y151.715 E16.88148
G1 X109.615 Y152.212 E16.9253
G1 X108.217 Y153.137 E17.01312
G1 X107.021 Y153.916 E17.08789
G1 X106.587 Y154.181 E17.11453
G1 X105.674 Y154.685 E17.16916
G1 X104.243 Y155.414 E17.25329
G1 X103.609 Y155.725 E17.29028
G1 X103.013 Y155.996 E17.32458
G1 X101.827 Y156.494 E17.39196
G1 X101.081 Y156.796 E17.43412
G1 X100.504 Y157.007 E17.4663
G1 X99.236 Y157.433 E17.53637
G1 X98.518 Y157.663 E17.57587
G1 X98.019 Y157.809 E17.6031
G1 X96.673 Y158.156 E17.67592
G1 X95.821 Y158.361 E17.72183
G1 X95.288 Y158.474 E17.75037
G1 X94.002 Y158.705 E17.81881
G1 X93.162 Y158.843 E17.86341
G1 X92.566 Y158.924 E17.89491
G1 X91.228 Y159.064 E17.96539
G1 X90.509 Y159.129 E18.00321
G1 X89.607 Y159.186 E18.05055
G1 X88.65 Y159.221 E18.10072
G1 X87.981 Y159.204 E18.13577
G1 X87.059 Y159.047 E18.18477
G1 X84.123 Y158.269 E18.34388
G1 X81.48 Y157.646 E18.48612
G1 X78.895 Y157.112 E18.6244
G1 X74.947 Y156.445 E18.83414
G1 X74.128 Y156.324 E18.87751
G1 X73.407 Y156.181 E18.91602
G1 X72.762 Y156.002 E18.95108
G1 X72.162 Y155.757 E18.98503
G1 X71.626 Y155.498 E19.01622
G1 X71.02 Y155.19 E19.05183
G1 X70.238 Y154.782 E19.09803
G1 X69.545 Y154.409 E19.13926
G1 X69.038 Y154.115 E19.16996
G1 X67.89 Y153.407 E19.24061
G1 X67.25 Y152.999 E19.28037
G1 X66.732 Y152.647 E19.31318
G1 X65.679 Y151.887 E19.38121
G1 X65.012 Y151.39 E19.42478
G1 X64.509 Y150.988 E19.45851
G1 X63.548 Y150.18 E19.52429
G1 X62.936 Y149.649 E19.56673
G1 X62.499 Y149.249 E19.59776
G1 X61.588 Y148.361 E19.66441
G1 X60.985 Y147.757 E19.70912
G1 X60.511 Y147.25 E19.74547
G1 X59.718 Y146.356 E19.80808
G1 X59.18 Y145.731 E19.85128
G1 X58.831 Y145.305 E19.88012
G1 X58.037 Y144.267 E19.94858
G1 X57.521 Y143.57 E19.99401
G1 X57.146 Y143.033 E20.02832
G1 X56.447 Y141.961 E20.09536
G1 X56.039 Y141.316 E20.13534
G1 X55.701 Y140.748 E20.16997
G1 X55.098 Y139.659 E20.23518
G1 X54.705 Y138.926 E20.27875
G1 X54.429 Y138.373 E20.31112
G1 X53.894 Y137.219 E20.37775
G1 X53.552 Y136.448 E20.42194
G1 X53.336 Y135.926 E20.45153
G1 X52.863 Y134.668 E20.52194
G1 X52.598 Y133.937 E20.56267
G1 X52.402 Y133.335 E20.59583
G1 X52.023 Y132.051 E20.66596
G1 X51.821 Y131.328 E20.70529
G1 X51.676 Y130.745 E20.73676
G1 X51.4 Y129.482 E20.80448
G1 X51.234 Y128.673 E20.84774
G1 X51.113 Y127.939 E20.88671
G1 X50.952 Y126.799 E20.94702
G1 X50.845 Y125.957 E20.99149
G1 X50.786 Y125.351 E21.02338
G1 X50.695 Y124.026 E21.09296
G1 X50.654 Y123.271 E21.13256
G1 X50.652 Y122.402 E21.17809
G1 X50.7 Y121.735 E21.21312
G1 X50.816 Y121.123 E21.24575
G1 X51.498 Y118.578 E21.38377
G1 X52.115 Y116.015 E21.52187
G1 X52.671 Y113.387 E21.66258
G1 X53.151 Y110.737 E21.80366
G1 X53.426 Y109.001 E21.89574
G1 X53.535 Y108.266 E21.93466
G1 X53.682 Y107.527 E21.97413
G1 X53.862 Y106.882 E22.00921
G1 X54.081 Y106.34 E22.03983
G1 X54.31 Y105.859 E22.06774
G1 X55.034 Y104.453 E22.15058
G1 X55.289 Y103.989 E22.17832
G1 X55.711 Y103.244 E22.22317
G1 X55.981 Y102.787 E22.25098
G1 X56.795 Y101.501 E22.3307
G1 X57.104 Y101.038 E22.35986
G1 X57.53 Y100.415 E22.3994
G1 X57.941 Y99.887 E22.43445
G1 X58.43 Y99.38 E22.47135
G1 X58.93 Y98.935 E22.50641
G1 X59.755 Y98.395 E22.55807
G1 X60.521 Y97.985 E22.60358
G1 X61.702 Y97.376 E22.67319
G1 X64.066 Y96.073 E22.81459
G1 X66.356 Y94.724 E22.95382
G1 X68.617 Y93.304 E23.09368
G1 X70.836 Y91.822 E23.23346
G1 X73.005 Y90.283 E23.37278
G1 X75.167 Y88.655 E23.51456
G1 X76.166 Y87.854 E23.58163
G1 X77.324 Y86.94 E23.65891
G1 X77.791 Y86.598 E23.68924
G1 X78.358 Y86.241 E23.72434
G1 X78.962 Y85.955 E23.75934
G1 X79.606 Y85.734 E23.79501
G1 X80.188 Y85.583 E23.82651
G1 X81.102 Y85.398 E23.87536
G1 X81.752 Y85.284 E23.90993
G1 X82.312 Y85.195 E23.93963
G1 X83.701 Y85.019 E24.01298
G1 X84.457 Y84.939 E24.0528
G1 X85.224 Y84.869 E24.09315
G1 X86.087 Y84.815 E24.13844
G1 X87.061 Y84.779 E24.1895
G1 X87.73 Y84.796 E24.22456
G1 X88.654 Y84.953 E24.27365
G1 F2700 E14.27365
;MESH:Bottom.STL
G0 F2160 X87.621 Y89.779
G0 X87.334 Y90.775
G0 X87.079 Y90.975
;TYPE:WALL-INNER
G1 F2100 E24.27365
G1 F900 X87.117 Y90.973 E24.27565
G1 X87.089 Y91.18 E24.28231
G1 X87.064 Y91.303 E24.28888
G1 X85.599 Y98.282 E24.66244
G1 X85.5 Y98.754 E24.6877
G1 X85.237 Y98.35 E24.70129
G1 X83.674 Y95.95 E24.85132
G1 X81.071 Y91.968 E25.10053
G1 X81.063 Y91.956 E25.10129
G1 X81.07 Y91.935 E25.10245
G1 X81.178 Y91.788 E25.112
G1 X81.323 Y91.682 E25.12141
G1 X81.337 Y91.678 E25.12217
G1 X81.602 Y91.601 E25.13663
G1 X83.508 Y91.272 E25.23795
G1 X85.768 Y91.037 E25.35698
G1 X86.954 Y90.98 E25.41918
G1 X87.079 Y90.975 E25.42194
G0 F2160 X83.512 Y110.155
G0 X83.603 Y111.039
G0 X83.957 Y111.827
G0 X85.287 Y114.228
G0 X89.213 Y114.281
G0 X89.434 Y113.484
G0 X89.013 Y112.726
G0 X84.682 Y111.411
G0 X85.311 Y109.858
G0 X94.808 Y111.664
G0 X95.393 Y110.883
G0 X85.413 Y107.932
G0 X86.039 Y106.378
G0 X95.538 Y108.183
G0 X96.123 Y107.401
G0 X91.362 Y105.547
G0 X91.503 Y101.291
G1 F900 X91.698 Y101.241 E25.43248
G1 X92.197 Y101.328 E25.45902
G1 X92.764 Y101.469 E25.48962
G1 X93.523 Y101.746 E25.53195
G1 X94.852 Y102.281 E25.607
G1 X96.147 Y102.986 E25.68424
G1 X96.355 Y103.076 E25.69611
G1 X96.363 Y103.089 E25.69691
G1 X96.392 Y103.428 E25.71473
G1 X96.336 Y103.988 E25.74421
G1 X96.13 Y104.956 E25.79606
G1 X88.514 Y103.358 E26.20371
G1 X88.02 Y102.6 E26.2511
G1 X87.699 Y102.122 E26.28126
G1 X87.445 Y101.723 E26.30604
G1 X87.511 Y101.539 E26.31628
G1 X87.655 Y101.302 E26.33081
G1 X88.829 Y101.178 E26.39265
G1 X89.373 Y101.132 E26.42125
G1 X90.78 Y101.177 E26.49499
G1 X91.503 Y101.291 E26.53334
G0 F2160 X91.673 Y105.207
G0 X92.151 Y106.112
G0 X95.703 Y106.864
G0 X96.081 Y107.756
G0 X86.269 Y106.731
G0 X85.689 Y107.512
G0 X94.974 Y110.344
G0 X95.342 Y111.249
G0 X85.558 Y110.21
G0 X84.954 Y110.924
G0 X89.756 Y112.92
G0 X89.674 Y114.375
G0 X93.02 Y116.289
G1 F900 X96.679 Y113.919 E26.76171
G1 X96.847 Y113.61 E26.78013
G1 X100.915 Y94.207 E27.81865
G1 X100.94 Y94.085 E27.82517
G1 X101 Y93.885 E27.83611
G1 X101.031 Y93.9
G1 X101.143 Y93.955 E27.84139
G1 X101.404 Y94.085 E27.85666
G1 X103.201 Y95.024 E27.96288
G1 X105.128 Y96.216 E28.08157
G1 X106.953 Y97.537 E28.19959
G1 X108.71 Y99.016 E28.3199
G1 X110.31 Y100.577 E28.437
G1 X111.826 Y102.289 E28.55679
G1 X113.205 Y104.094 E28.67578
G1 X114.436 Y105.981 E28.7938
G1 X115.536 Y107.966 E28.91269
G1 X116.49 Y110.03 E29.0318
G1 X117.282 Y112.134 E29.14957
G1 X117.928 Y114.333 E29.26963
G1 X118.406 Y116.535 E29.38767
G1 X118.723 Y118.778 E29.50633
G1 X118.869 Y120.934 E29.61953
G1 X118.877 Y121.055 E29.62588
G1 X118.878 Y121.26 E29.63662
G1 X118.815 Y121.261 E29.63992
G1 X118.696 Y121.236 E29.64512
G1 X98.921 Y117.089 E30.70356
G1 X95.455 Y119.352 E30.9204
G1 X95.184 Y119.681 E30.94273
G1 X95.462 Y121.159 E31.02151
G1 X95.5 Y122.366 E31.08477
G1 X95.387 Y123.552 E31.14718
G1 X95.021 Y124.694 E31.21
G1 X94.501 Y125.794 E31.27374
G1 X93.76 Y126.882 E31.3427
G1 X93.592 Y127.129 E31.35834
G1 X93.429 Y126.879 E31.36746
G1 X92.635 Y125.663 E31.44354
