;FLAVOR:Marlin
;TIME:1949
;Filament used: 2.39075m
;Layer height: 0.2
;MINX:73.428
;MINY:96.374
;MINZ:0.3
;MAXX:106.571
;MAXY:129.518
;MAXZ:18.9
;Generated with Cura_SteamEngine 4.6.2
M140 S70
M105
M190 S70
M104 S237
M105
M109 S237
M82 ;absolute extrusion mode
G28 ;Home
G1 Z15.0 F6000 ;Move the platform down 15mm
G92 E0
G1 F200 E3
G92 E0
G92 E0
G92 E0
G1 F2700 E-13
;LAYER_COUNT:94
;LAYER:0
M107
M204 S5000
G0 F1200 X91.155 Y96.842 Z0.3
M204 S3000
;TYPE:SKIRT
G1 F2100 E0
G1 F1200 X91.739 Y96.889 E0.03376
G1 X92.344 Y96.966 E0.0689
G1 X92.985 Y97.072 E0.10634
G1 X93.501 Y97.178 E0.1367
G1 X94.055 Y97.311 E0.16953
G1 X94.545 Y97.445 E0.1988
G1 X95.213 Y97.658 E0.2392
G1 X95.781 Y97.863 E0.274
G1 X96.314 Y98.08 E0.30716
G1 X96.93 Y98.358 E0.3461
G1 X97.453 Y98.618 E0.37976
G1 X97.9 Y98.857 E0.40897
G1 X98.555 Y99.246 E0.45286
G1 X99.017 Y99.545 E0.48457
G1 X99.581 Y99.943 E0.52435
G1 X100.131 Y100.368 E0.5644
G1 X101.131 Y101.253 E0.64135
G1 X101.548 Y101.655 E0.67473
G1 X101.909 Y102.036 E0.70497
G1 X102.263 Y102.435 E0.73571
G1 X102.616 Y102.861 E0.76759
G1 X103.054 Y103.435 E0.80919
G1 X103.382 Y103.902 E0.84208
G1 X103.755 Y104.479 E0.88167
G1 X104.086 Y105.043 E0.91935
G1 X104.705 Y106.281 E0.99911
G1 X104.942 Y106.817 E1.03288
G1 X105.294 Y107.76 E1.09088
G1 X105.464 Y108.284 E1.12262
G1 X105.655 Y108.971 E1.16371
G1 X105.805 Y109.609 E1.20148
G1 X105.922 Y110.216 E1.2371
G1 X106.021 Y110.891 E1.27641
G1 X106.074 Y111.416 E1.30682
G1 X106.126 Y112.135 E1.34836
G1 X106.15 Y112.648 E1.37795
G1 X106.151 Y113.229 E1.41143
G1 X106.127 Y113.879 E1.44891
G1 X106.09 Y114.379 E1.4778
G1 X106 Y115.168 E1.52356
G1 X105.922 Y115.679 E1.55335
G1 X105.781 Y116.399 E1.59562
G1 X105.588 Y117.169 E1.64137
G1 X105.222 Y118.332 E1.71162
G1 X105.006 Y118.925 E1.74799
G1 X104.61 Y119.836 E1.80523
G1 X104.349 Y120.365 E1.83922
G1 X104.026 Y120.96 E1.87823
G1 X103.731 Y121.455 E1.91144
G1 X103.402 Y121.966 E1.94646
G1 X103.066 Y122.446 E1.98022
G1 X102.088 Y123.652 E2.06969
G1 X101.694 Y124.092 E2.10372
G1 X101.005 Y124.772 E2.15951
G1 X100.539 Y125.189 E2.19554
G1 X99.972 Y125.655 E2.23783
G1 X99.436 Y126.059 E2.27651
G1 X98.977 Y126.377 E2.30868
G1 X98.538 Y126.66 E2.33878
G1 X97.206 Y127.396 E2.42647
G1 X96.668 Y127.66 E2.46101
G1 X95.746 Y128.044 E2.51856
G1 X95.178 Y128.248 E2.55334
G1 X94.526 Y128.454 E2.59274
G1 X94.015 Y128.594 E2.62327
G1 X92.559 Y128.888 E2.70886
G1 X91.852 Y128.993 E2.75005
G1 X90.963 Y129.073 E2.80148
G1 X90.329 Y129.098 E2.83804
G1 X89.647 Y129.098 E2.87734
G1 X89.143 Y129.08 E2.9064
G1 X88.411 Y129.023 E2.94871
G1 X87.867 Y128.96 E2.98027
G1 X86.407 Y128.689 E3.06583
G1 X85.797 Y128.544 E3.10196
G1 X85.286 Y128.397 E3.1326
G1 X84.647 Y128.189 E3.17132
G1 X84.124 Y127.995 E3.20347
G1 X83.651 Y127.801 E3.23293
G1 X83.116 Y127.561 E3.26672
G1 X82.517 Y127.265 E3.30522
G1 X82 Y126.982 E3.33918
G1 X80.781 Y126.204 E3.42251
G1 X80.289 Y125.856 E3.45723
G1 X79.492 Y125.214 E3.51621
G1 X79.049 Y124.824 E3.55022
G1 X78.545 Y124.338 E3.59056
G1 X78.169 Y123.948 E3.62178
G1 X77.717 Y123.439 E3.661
G1 X77.361 Y123.007 E3.69326
G1 X77.047 Y122.589 E3.72338
G1 X76.469 Y121.758 E3.78171
G1 X76.133 Y121.23 E3.81778
G1 X75.651 Y120.366 E3.87479
G1 X75.406 Y119.872 E3.90656
G1 X75.111 Y119.211 E3.94827
G1 X74.922 Y118.746 E3.97719
G1 X74.668 Y118.034 E4.02075
G1 X74.471 Y117.392 E4.05945
G1 X74.165 Y116.103 E4.13579
G1 X74.033 Y115.386 E4.1778
G1 X73.918 Y114.475 E4.23071
G1 X73.87 Y113.836 E4.26764
G1 X73.848 Y113.194 E4.30465
G1 X73.849 Y112.597 E4.33906
G1 X73.877 Y111.939 E4.37701
G1 X73.955 Y111.116 E4.42464
G1 X74.139 Y109.93 E4.4938
G1 X74.244 Y109.386 E4.52573
G1 X74.381 Y108.83 E4.55872
G1 X74.516 Y108.348 E4.58757
G1 X74.711 Y107.735 E4.62463
G1 X74.931 Y107.13 E4.66173
G1 X75.26 Y106.352 E4.7104
G1 X75.785 Y105.293 E4.77851
G1 X76.103 Y104.716 E4.81648
G1 X76.614 Y103.909 E4.87152
G1 X76.955 Y103.421 E4.90582
G1 X77.373 Y102.873 E4.94554
G1 X77.751 Y102.418 E4.97962
G1 X78.17 Y101.949 E5.01586
G1 X78.527 Y101.577 E5.04557
G1 X79.031 Y101.092 E5.08588
G1 X79.535 Y100.645 E5.1247
G1 X79.952 Y100.302 E5.15581
G1 X80.523 Y99.869 E5.1971
G1 X80.995 Y99.54 E5.23026
G1 X81.589 Y99.158 E5.27095
G1 X82.045 Y98.89 E5.30143
G1 X82.509 Y98.637 E5.33188
G1 X83.191 Y98.3 E5.37572
G1 X83.954 Y97.975 E5.42351
G1 X85.075 Y97.573 E5.49213
G1 X85.688 Y97.383 E5.52911
G1 X86.609 Y97.157 E5.58376
G1 X87.273 Y97.026 E5.62276
G1 X87.859 Y96.936 E5.65692
G1 X88.481 Y96.865 E5.69299
G1 X89.154 Y96.815 E5.73188
G1 X89.815 Y96.794 E5.76999
G1 X91.155 Y96.842 E5.84725
M204 S5000
G0 X91.173 Y96.422
M204 S3000
G1 X91.777 Y96.47 E5.88217
G1 X92.41 Y96.551 E5.91894
G1 X93.066 Y96.66 E5.95726
G1 X93.599 Y96.77 E5.98862
G1 X94.153 Y96.903 E6.02145
G1 X94.659 Y97.041 E6.05167
G1 X95.343 Y97.259 E6.09304
G1 X95.939 Y97.474 E6.12955
G1 X96.472 Y97.691 E6.16271
G1 X97.117 Y97.982 E6.20349
G1 X97.64 Y98.242 E6.23714
G1 X98.101 Y98.489 E6.26728
G1 X98.771 Y98.885 E6.31213
G1 X99.249 Y99.195 E6.34495
G1 X99.825 Y99.601 E6.38556
G1 X100.402 Y100.047 E6.42759
G1 X101.411 Y100.941 E6.50527
G1 X101.85 Y101.363 E6.54036
G1 X102.223 Y101.758 E6.57166
G1 X102.577 Y102.157 E6.6024
G1 X102.941 Y102.595 E6.63521
G1 X103.389 Y103.182 E6.67776
G1 X103.727 Y103.663 E6.71164
G1 X104.109 Y104.253 E6.75214
G1 X104.457 Y104.846 E6.79176
G1 X105.082 Y106.096 E6.87229
G1 X105.328 Y106.651 E6.90727
G1 X105.688 Y107.616 E6.96662
G1 X105.865 Y108.157 E6.99942
G1 X106.06 Y108.861 E7.04152
G1 X106.217 Y109.529 E7.08106
G1 X106.334 Y110.136 E7.11668
G1 X106.437 Y110.836 E7.15745
G1 X106.493 Y111.386 E7.18931
G1 X106.545 Y112.105 E7.23085
G1 X106.569 Y112.631 E7.26119
G1 X106.571 Y113.232 E7.29582
G1 X106.546 Y113.896 E7.33411
G1 X106.509 Y114.413 E7.36398
G1 X106.418 Y115.218 E7.41066
G1 X106.336 Y115.747 E7.44151
G1 X106.192 Y116.482 E7.48466
G1 X105.988 Y117.295 E7.53296
G1 X105.622 Y118.458 E7.60322
G1 X105.399 Y119.074 E7.64097
G1 X104.994 Y120.007 E7.69958
G1 X104.724 Y120.555 E7.73478
G1 X104.395 Y121.162 E7.77457
G1 X104.084 Y121.683 E7.80953
G1 X103.755 Y122.194 E7.84455
G1 X103.408 Y122.69 E7.87943
G1 X102.412 Y123.919 E7.97059
G1 X102.003 Y124.376 E8.00593
G1 X101.297 Y125.073 E8.06309
G1 X100.816 Y125.504 E8.10031
G1 X100.237 Y125.981 E8.14354
G1 X99.675 Y126.404 E8.18407
G1 X99.216 Y126.722 E8.21625
G1 X98.763 Y127.015 E8.24733
G1 X97.406 Y127.765 E8.33668
G1 X96.847 Y128.039 E8.37255
G1 X95.904 Y128.433 E8.43144
G1 X95.315 Y128.645 E8.46751
G1 X94.65 Y128.855 E8.5077
G1 X94.123 Y129 E8.53919
G1 X92.639 Y129.3 E8.62643
G1 X91.91 Y129.409 E8.66891
G1 X90.996 Y129.491 E8.72179
G1 X90.342 Y129.518 E8.75951
G1 X89.645 Y129.518 E8.79967
G1 X89.124 Y129.5 E8.82971
G1 X88.377 Y129.442 E8.87288
G1 X87.815 Y129.377 E8.90548
G1 X86.327 Y129.101 E8.99269
G1 X85.684 Y128.948 E9.03077
G1 X85.157 Y128.797 E9.06236
G1 X84.504 Y128.584 E9.10194
G1 X83.965 Y128.384 E9.13507
G1 X83.492 Y128.19 E9.16453
G1 X82.93 Y127.937 E9.20005
G1 X82.331 Y127.641 E9.23855
G1 X81.794 Y127.348 E9.2738
G1 X80.552 Y126.556 E9.35868
G1 X80.043 Y126.196 E9.3946
G1 X79.226 Y125.539 E9.45501
G1 X78.768 Y125.135 E9.49021
G1 X78.252 Y124.639 E9.53145
G1 X77.865 Y124.238 E9.56356
G1 X77.401 Y123.717 E9.60376
G1 X77.027 Y123.263 E9.63766
G1 X76.702 Y122.829 E9.6689
G1 X76.124 Y121.998 E9.72723
G1 X75.776 Y121.451 E9.76459
G1 X75.283 Y120.568 E9.82286
G1 X75.027 Y120.054 E9.85595
G1 X74.727 Y119.38 E9.89846
G1 X74.532 Y118.902 E9.92821
G1 X74.271 Y118.173 E9.97283
G1 X74.065 Y117.499 E10.01344
G1 X73.755 Y116.196 E10.09062
G1 X73.619 Y115.457 E10.13392
G1 X73.501 Y114.524 E10.18811
G1 X73.451 Y113.863 E10.22631
G1 X73.428 Y113.207 E10.26413
G1 X73.429 Y112.58 E10.30026
G1 X73.457 Y111.922 E10.33821
G1 X73.54 Y111.052 E10.38857
G1 X73.724 Y109.866 E10.45773
G1 X73.832 Y109.302 E10.49082
G1 X73.977 Y108.717 E10.52555
G1 X74.112 Y108.235 E10.55439
G1 X74.316 Y107.591 E10.59332
G1 X74.536 Y106.986 E10.63041
G1 X74.726 Y106.513 E10.65979
G1 X75.409 Y105.106 E10.74991
G1 X75.738 Y104.509 E10.78919
G1 X76.261 Y103.681 E10.84562
G1 X76.614 Y103.177 E10.88108
G1 X77.04 Y102.617 E10.92162
G1 X77.431 Y102.146 E10.9569
G1 X77.858 Y101.668 E10.99383
G1 X78.226 Y101.284 E11.02448
G1 X78.742 Y100.788 E11.06572
G1 X79.269 Y100.321 E11.10629
G1 X79.686 Y99.978 E11.13741
G1 X80.088 Y99.666 E11.16673
G1 X80.755 Y99.195 E11.21378
G1 X81.184 Y98.915 E11.2433
G1 X81.832 Y98.528 E11.28679
G1 X82.31 Y98.267 E11.31818
G1 X83.006 Y97.923 E11.36291
G1 X83.469 Y97.716 E11.39214
G1 X84.934 Y97.177 E11.48209
G1 X85.57 Y96.98 E11.52045
G1 X86.512 Y96.749 E11.57634
G1 X87.209 Y96.611 E11.61729
G1 X87.795 Y96.521 E11.65145
G1 X88.438 Y96.448 E11.68874
G1 X89.125 Y96.396 E11.72844
G1 X89.819 Y96.374 E11.76845
G1 X91.173 Y96.422 E11.84652
M204 S5000
G1 F2700 E-1.15348
;MESH:CONECTORDEMEDIA.stl
G0 F1200 X91.152 Y101.388
G0 X91.07 Y102.7
G0 X91.8 Y103.21
M204 S3000
;TYPE:WALL-INNER
G1 F2100 E11.84652
G1 F1200 X92.561 Y103.381 E11.89147
G1 X93.3 Y103.608 E11.93601
G1 X93.918 Y103.854 E11.97434
G1 X94.65 Y104.205 E12.02112
G1 X95.316 Y104.591 E12.06548
G1 X95.929 Y105.016 E12.10846
G1 X96.497 Y105.478 E12.15065
G1 X97.055 Y106.002 E12.19476
G1 X97.578 Y106.573 E12.23938
G1 X98.049 Y107.177 E12.28351
G1 X98.477 Y107.829 E12.32845
G1 X98.812 Y108.434 E12.3683
G1 X99.138 Y109.134 E12.4128
G1 X99.411 Y109.871 E12.45809
G1 X99.625 Y110.622 E12.50309
G1 X99.777 Y111.357 E12.54633
G1 X99.862 Y112.077 E12.58811
G1 X99.903 Y112.834 E12.6318
G1 X99.881 Y113.607 E12.67636
G1 X99.798 Y114.393 E12.7219
G1 X99.66 Y115.134 E12.76533
G1 X99.477 Y115.821 E12.8063
G1 X99.226 Y116.544 E12.8504
G1 X98.911 Y117.266 E12.89579
G1 X98.552 Y117.943 E12.93995
G1 X98.139 Y118.591 E12.98423
G1 X97.721 Y119.147 E13.02431
G1 X97.197 Y119.749 E13.0703
G1 X96.666 Y120.271 E13.11321
G1 X96.059 Y120.779 E13.15882
G1 X95.437 Y121.225 E13.20292
G1 X94.824 Y121.595 E13.24418
G1 X94.152 Y121.938 E13.28766
G1 X93.419 Y122.242 E13.33338
G1 X92.689 Y122.479 E13.37761
G1 X92.021 Y122.64 E13.4172
G1 X91.242 Y122.772 E13.46273
G1 X90.486 Y122.84 E13.50647
G1 X89.71 Y122.848 E13.55119
G1 X88.919 Y122.794 E13.59687
G1 X88.242 Y122.693 E13.63632
G1 X87.494 Y122.529 E13.68044
G1 X86.748 Y122.301 E13.72539
G1 X86.017 Y122.014 E13.77064
G1 X85.322 Y121.679 E13.8151
G1 X84.734 Y121.333 E13.85442
G1 X84.082 Y120.888 E13.8999
G1 X83.471 Y120.394 E13.94518
G1 X82.926 Y119.879 E13.98839
G1 X82.396 Y119.295 E14.03383
G1 X81.976 Y118.75 E14.07348
G1 X81.546 Y118.103 E14.11824
G1 X81.168 Y117.425 E14.16297
G1 X80.837 Y116.705 E14.20864
G1 X80.578 Y116 E14.25192
G1 X80.388 Y115.318 E14.29271
G1 X80.232 Y114.57 E14.33674
G1 X80.133 Y113.799 E14.38153
G1 X80.097 Y113.006 E14.42728
G1 X80.12 Y112.234 E14.47178
G1 X80.193 Y111.57 E14.51027
G1 X80.335 Y110.789 E14.55601
G1 X80.534 Y110.034 E14.60101
G1 X80.786 Y109.313 E14.64502
G1 X81.062 Y108.688 E14.68439
G1 X81.436 Y107.98 E14.73053
G1 X81.854 Y107.316 E14.77574
G1 X82.295 Y106.726 E14.81818
G1 X82.813 Y106.133 E14.86355
G1 X83.316 Y105.644 E14.90398
G1 X83.91 Y105.141 E14.94883
G1 X84.546 Y104.683 E14.99399
G1 X85.199 Y104.286 E15.03803
G1 X85.88 Y103.942 E15.08199
G1 X86.535 Y103.674 E15.12277
G1 X87.272 Y103.43 E15.16751
G1 X88.033 Y103.244 E15.21265
G1 X88.776 Y103.119 E15.25607
G1 X89.567 Y103.053 E15.3018
G1 X90.254 Y103.049 E15.34139
G1 X91.023 Y103.099 E15.3858
G1 X91.8 Y103.21 E15.43102
M204 S5000
G0 X96.021 Y107.842
G0 X96.868 Y109.055
G0 X97.473 Y110.404
G0 X97.817 Y111.841
G0 X97.886 Y113.318
G0 X97.678 Y114.783
G0 X97.203 Y116.181
G0 X96.473 Y117.467
G0 X95.517 Y118.595
G0 X94.366 Y119.525
G0 X93.629 Y119.921
G0 X90.968 Y121.169
M204 S3000
G1 X91.733 Y121.041 E15.47572
G1 X92.483 Y120.843 E15.52042
G1 X93.212 Y120.575 E15.56517
G1 X93.912 Y120.24 E15.60989
G1 X94.576 Y119.842 E15.6545
G1 X95.202 Y119.385 E15.69916
G1 X95.784 Y118.868 E15.74402
G1 X96.312 Y118.301 E15.78866
G1 X96.786 Y117.686 E15.83341
G1 X97.2 Y117.031 E15.87806
G1 X97.551 Y116.337 E15.92287
G1 X97.834 Y115.615 E15.96756
G1 X98.049 Y114.872 E16.01213
G1 X98.194 Y114.109 E16.05688
G1 X98.267 Y113.337 E16.10156
G1 X98.267 Y112.559 E16.14639
G1 X98.194 Y111.787 E16.19108
G1 X98.049 Y111.025 E16.23578
G1 X97.834 Y110.281 E16.2804
G1 X97.551 Y109.559 E16.32509
G1 X97.2 Y108.867 E16.3698
G1 X96.786 Y108.21 E16.41455
G1 X96.312 Y107.595 E16.45929
G1 X95.784 Y107.028 E16.50393
G1 X95.202 Y106.512 E16.54875
G1 X94.578 Y106.054 E16.59336
G1 X93.912 Y105.656 E16.63806
G1 X93.212 Y105.321 E16.68278
G1 X92.483 Y105.053 E16.72754
G1 X91.733 Y104.855 E16.77223
G1 X90.968 Y104.728 E16.81692
G1 X90.194 Y104.675 E16.86162
G1 X89.418 Y104.693 E16.90635
G1 X88.648 Y104.783 E16.95102
G1 X87.889 Y104.945 E16.99575
G1 X87.149 Y105.178 E17.04045
G1 X86.434 Y105.48 E17.08518
G1 X85.75 Y105.846 E17.12988
G1 X85.104 Y106.276 E17.17459
G1 X84.501 Y106.764 E17.21929
G1 X83.945 Y107.305 E17.264
G1 X83.444 Y107.897 E17.30869
G1 X82.999 Y108.534 E17.35346
G1 X82.617 Y109.208 E17.3981
G1 X82.299 Y109.916 E17.44283
G1 X82.049 Y110.65 E17.48751
G1 X81.869 Y111.406 E17.53229
G1 X81.76 Y112.174 E17.57699
G1 X81.725 Y112.948 E17.62163
G1 X81.76 Y113.723 E17.66634
G1 X81.869 Y114.49 E17.71098
G1 X82.049 Y115.246 E17.75576
G1 X82.299 Y115.98 E17.80044
G1 X82.617 Y116.688 E17.84516
G1 X82.999 Y117.362 E17.88981
G1 X83.444 Y118 E17.93463
G1 X83.946 Y118.591 E17.97931
G1 X84.501 Y119.132 E18.02397
G1 X85.104 Y119.62 E18.06867
G1 X85.75 Y120.05 E18.11339
G1 X86.434 Y120.416 E18.15809
G1 X87.149 Y120.718 E18.20282
G1 X87.889 Y120.951 E18.24752
G1 X88.648 Y121.113 E18.29224
G1 X89.418 Y121.203 E18.33691
G1 X90.193 Y121.221 E18.38158
G1 X90.968 Y121.169 E18.42634
M204 S5000
G0 X90.919 Y120.751
M204 S3000
G1 X91.645 Y120.63 E18.46875
G1 X92.357 Y120.442 E18.51119
G1 X93.049 Y120.188 E18.55366
G1 X93.713 Y119.87 E18.59609
G1 X94.344 Y119.492 E18.63847
G1 X94.938 Y119.058 E18.68086
G1 X95.49 Y118.567 E18.72343
G1 X95.991 Y118.029 E18.7658
G1 X96.441 Y117.445 E18.80828
G1 X96.834 Y116.824 E18.85063
G1 X97.167 Y116.165 E18.89317
G1 X97.436 Y115.48 E18.93558
G1 X97.64 Y114.774 E18.97793
G1 X97.778 Y114.05 E19.0204
G1 X97.847 Y113.317 E19.06282
G1 X97.847 Y112.579 E19.10535
G1 X97.778 Y111.846 E19.14777
G1 X97.64 Y111.123 E19.19019
G1 X97.436 Y110.416 E19.23259
G1 X97.167 Y109.731 E19.27499
G1 X96.834 Y109.074 E19.31744
G1 X96.441 Y108.451 E19.35988
G1 X95.991 Y107.867 E19.40237
G1 X95.49 Y107.329 E19.44473
G1 X94.938 Y106.839 E19.48726
G1 X94.345 Y106.404 E19.52964
G1 X93.713 Y106.026 E19.57207
G1 X93.049 Y105.708 E19.6145
G1 X92.357 Y105.454 E19.65697
G1 X91.645 Y105.266 E19.69941
G1 X90.919 Y105.146 E19.74181
G1 X90.184 Y105.095 E19.78426
G1 X89.447 Y105.112 E19.82674
G1 X88.717 Y105.198 E19.8691
G1 X87.996 Y105.352 E19.91158
G1 X87.294 Y105.573 E19.95399
G1 X86.615 Y105.859 E19.99645
G1 X85.966 Y106.207 E20.03888
G1 X85.353 Y106.615 E20.08131
G1 X84.78 Y107.078 E20.12376
G1 X84.253 Y107.592 E20.16618
G1 X83.777 Y108.154 E20.20862
G1 X83.355 Y108.758 E20.25108
G1 X82.992 Y109.398 E20.29348
G1 X82.69 Y110.07 E20.33593
G1 X82.453 Y110.767 E20.37835
G1 X82.282 Y111.484 E20.42083
G1 X82.179 Y112.213 E20.46325
G1 X82.145 Y112.948 E20.50565
G1 X82.179 Y113.684 E20.5481
G1 X82.282 Y114.412 E20.59047
G1 X82.453 Y115.129 E20.63295
G1 X82.69 Y115.826 E20.67537
G1 X82.992 Y116.498 E20.71782
G1 X83.355 Y117.138 E20.76022
G1 X83.777 Y117.743 E20.80272
G1 X84.253 Y118.304 E20.84512
G1 X84.78 Y118.818 E20.88754
G1 X85.353 Y119.281 E20.92999
G1 X85.966 Y119.689 E20.97242
G1 X86.615 Y120.037 E21.01486
G1 X87.294 Y120.323 E21.05731
G1 X87.996 Y120.544 E21.09972
G1 X88.717 Y120.698 E21.1422
G1 X89.447 Y120.784 E21.18456
G1 X90.184 Y120.801 E21.22704
G1 X90.919 Y120.751 E21.26949
M204 S5000
G0 X90.93 Y120.85
G0 X92.369 Y120.48
G0 X93.731 Y119.905
G0 X94.963 Y119.089
G0 X96.021 Y118.054
G0 X96.868 Y116.843
G0 X97.473 Y115.492
G0 X97.817 Y114.055
G0 X97.886 Y112.578
G0 X97.678 Y111.114
G0 X97.203 Y109.715
G0 X96.473 Y108.429
G0 X91.857 Y102.894
G0 X91.875 Y102.796
M204 S3000
G1 X92.663 Y102.973 E21.31603
G1 X93.439 Y103.212 E21.36282
G1 X94.097 Y103.473 E21.40361
G1 X94.84 Y103.83 E21.45111
G1 X95.539 Y104.235 E21.49766
