;FLAVOR:Marlin
;TIME:11245
;Filament used: 15.7677m
;Layer height: 0.2
;MINX:46.87
;MINY:76.87
;MINZ:0.3
;MAXX:133.119
;MAXY:163.13
;MAXZ:36.9
;Generated with Cura_SteamEngine 4.6.2
M140 S70
M105
M190 S70
M104 S237
M105
M109 S237
M82 ;absolute extrusion mode
G28 ;Home
G1 Z15.0 F6000 ;Move the platform down 15mm
G92 E0
G1 F200 E3
G92 E0
G92 E0
G92 E0
G1 F2700 E-13
;LAYER_COUNT:184
;LAYER:0
M107
G0 F1200 X127.566 Y77.301 Z0.3
;TYPE:SKIRT
G1 F2100 E0
G1 F1200 X128.209 Y77.35 E0.03716
G1 X128.841 Y77.478 E0.07432
G1 X129.453 Y77.684 E0.11153
G1 X130.035 Y77.963 E0.14872
G1 X130.577 Y78.312 E0.18586
G1 X131.072 Y78.726 E0.22305
G1 X131.513 Y79.198 E0.26027
G1 X131.891 Y79.721 E0.29745
G1 X132.202 Y80.286 E0.33462
G1 X132.441 Y80.885 E0.37178
G1 X132.604 Y81.51 E0.409
G1 X132.699 Y82.359 E0.45823
G1 X132.69 Y119.786 E2.61489
G1 X132.679 Y120.568 E2.65996
G1 X132.63 Y121.212 E2.69717
G1 X132.502 Y121.844 E2.73433
G1 X132.297 Y122.456 E2.77152
G1 X132.018 Y123.037 E2.80866
G1 X131.668 Y123.58 E2.84589
G1 X131.255 Y124.075 E2.88303
G1 X130.743 Y124.549 E2.92324
G1 X128.825 Y126.064 E3.06408
G1 X126.791 Y127.756 E3.21654
G1 X124.767 Y129.54 E3.372
G1 X122.796 Y131.377 E3.52726
G1 X120.899 Y133.25 E3.68087
G1 X119.051 Y135.18 E3.83485
G1 X117.23 Y137.192 E3.99122
G1 X115.517 Y139.196 E4.14314
G1 X113.813 Y141.307 E4.29946
G1 X112.193 Y143.437 E4.45367
G1 X110.641 Y145.601 E4.60712
G1 X109.129 Y147.84 E4.7628
G1 X107.697 Y150.095 E4.91672
G1 X106.327 Y152.395 E5.07099
G1 X105.012 Y154.75 E5.22641
G1 X103.776 Y157.119 E5.38039
G1 X102.573 Y159.593 E5.53891
G1 X102.007 Y160.551 E5.60302
G1 X101.596 Y161.048 E5.64019
G1 X101.128 Y161.492 E5.67736
G1 X100.607 Y161.874 E5.71459
G1 X100.044 Y162.188 E5.75173
G1 X99.446 Y162.431 E5.78893
G1 X98.823 Y162.598 E5.82609
G1 X97.939 Y162.699 E5.87736
G1 X53.207 Y162.71 E8.45496
G1 X52.434 Y162.699 E8.49951
G1 X51.791 Y162.65 E8.53667
G1 X51.159 Y162.522 E8.57383
G1 X50.547 Y162.316 E8.61104
G1 X49.965 Y162.037 E8.64823
G1 X49.423 Y161.688 E8.68538
G1 X48.928 Y161.274 E8.72256
G1 X48.487 Y160.802 E8.75978
G1 X48.109 Y160.279 E8.79697
G1 X47.798 Y159.714 E8.83413
G1 X47.559 Y159.115 E8.87129
G1 X47.396 Y158.49 E8.90851
G1 X47.301 Y157.631 E8.95831
G1 X47.29 Y112.887 E11.5366
G1 X47.301 Y112.122 E11.58069
G1 X47.35 Y111.479 E11.61785
G1 X47.478 Y110.847 E11.65501
G1 X47.684 Y110.235 E11.69222
G1 X47.964 Y109.653 E11.72943
G1 X48.313 Y109.111 E11.76658
G1 X48.727 Y108.616 E11.80376
G1 X49.199 Y108.176 E11.84095
G1 X49.721 Y107.797 E11.87812
G1 X50.217 Y107.519 E11.91088
G1 X51.168 Y107.053 E11.97191
G1 X51.687 Y106.81 E12.00493
G1 X54.076 Y105.604 E12.15914
G1 X56.415 Y104.341 E12.31231
G1 X58.749 Y102.994 E12.46759
G1 X61.041 Y101.583 E12.62269
G1 X63.283 Y100.114 E12.77714
G1 X65.479 Y98.584 E12.93137
G1 X67.622 Y97 E13.08492
G1 X69.761 Y95.322 E13.24158
G1 X71.797 Y93.632 E13.39405
G1 X73.824 Y91.848 E13.54965
G1 X75.77 Y90.036 E13.70287
G1 X77.693 Y88.141 E13.85844
G1 X79.541 Y86.216 E14.01221
G1 X81.343 Y84.227 E14.16686
G1 X83.084 Y82.191 E14.32123
G1 X84.881 Y79.966 E14.48603
G1 X85.406 Y79.296 E14.53508
G1 X85.835 Y78.813 E14.5723
G1 X86.32 Y78.388 E14.60946
G1 X86.854 Y78.025 E14.64667
G1 X87.428 Y77.732 E14.68381
G1 X88.035 Y77.511 E14.72103
G1 X88.664 Y77.368 E14.7582
G1 X89.362 Y77.301 E14.79861
G1 X126.793 Y77.29 E16.9555
G1 X127.566 Y77.301 E17.00005
G0 X127.572 Y76.881
G1 X128.241 Y76.93 E17.0387
G1 X128.899 Y77.059 E17.07734
G1 X129.537 Y77.265 E17.11597
G1 X130.147 Y77.546 E17.15467
G1 X130.718 Y77.897 E17.19329
G1 X131.244 Y78.313 E17.23194
G1 X131.717 Y78.79 E17.27064
G1 X132.129 Y79.319 E17.30928
G1 X132.476 Y79.893 E17.34793
G1 X132.752 Y80.504 E17.38656
G1 X132.953 Y81.144 E17.42522
G1 X133.077 Y81.804 E17.46392
G1 X133.119 Y82.347 E17.4953
G1 X133.11 Y119.786 E19.65265
G1 X133.099 Y120.574 E19.69806
G1 X133.05 Y121.243 E19.73672
G1 X132.921 Y121.901 E19.77536
G1 X132.716 Y122.54 E19.81403
G1 X132.435 Y123.149 E19.85267
G1 X132.084 Y123.721 E19.89134
G1 X131.668 Y124.247 E19.92999
G1 X131.007 Y124.876 E19.98257
G1 X129.112 Y126.371 E20.12165
G1 X127.041 Y128.095 E20.27693
G1 X125.052 Y129.848 E20.4297
G1 X123.098 Y131.669 E20.58361
G1 X121.2 Y133.543 E20.73731
G1 X119.351 Y135.473 E20.89132
G1 X117.564 Y137.448 E21.0448
G1 X115.833 Y139.474 E21.19835
G1 X114.13 Y141.584 E21.3546
G1 X112.536 Y143.679 E21.50629
G1 X110.986 Y145.84 E21.65953
G1 X109.471 Y148.083 E21.8155
G1 X108.052 Y150.319 E21.9681
G1 X106.685 Y152.614 E22.12203
G1 X105.389 Y154.932 E22.27506
G1 X104.15 Y157.309 E22.42952
G1 X102.95 Y159.777 E22.58765
G1 X102.363 Y160.776 E22.65442
G1 X101.939 Y161.296 E22.69308
G1 X101.457 Y161.763 E22.73176
G1 X100.923 Y162.169 E22.77041
G1 X100.345 Y162.508 E22.80902
G1 X99.73 Y162.776 E22.84768
G1 X99.087 Y162.969 E22.88636
G1 X98.427 Y163.085 E22.92498
G1 X97.636 Y163.128 E22.97063
G1 X53.207 Y163.13 E25.53077
G1 X52.428 Y163.119 E25.57566
G1 X51.759 Y163.07 E25.61431
G1 X51.101 Y162.941 E25.65295
G1 X50.463 Y162.735 E25.69158
G1 X49.853 Y162.454 E25.73028
G1 X49.282 Y162.103 E25.7689
G1 X48.756 Y161.687 E25.80755
G1 X48.283 Y161.21 E25.84626
G1 X47.871 Y160.681 E25.88489
G1 X47.524 Y160.107 E25.92354
G1 X47.248 Y159.496 E25.96218
G1 X47.047 Y158.856 E26.00083
G1 X46.923 Y158.196 E26.03953
G1 X46.881 Y157.643 E26.07149
G1 X46.87 Y112.887 E28.65047
G1 X46.881 Y112.116 E28.6949
G1 X46.93 Y111.447 E28.73355
G1 X47.059 Y110.789 E28.77219
G1 X47.265 Y110.151 E28.81082
G1 X47.546 Y109.541 E28.84952
G1 X47.897 Y108.97 E28.88815
G1 X48.314 Y108.444 E28.92683
G1 X48.79 Y107.972 E28.96545
G1 X49.319 Y107.559 E29.00413
G1 X50.033 Y107.142 E29.05177
G1 X50.984 Y106.676 E29.1128
G1 X51.521 Y106.423 E29.147
G1 X53.861 Y105.243 E29.29802
G1 X56.221 Y103.968 E29.45258
G1 X58.535 Y102.632 E29.60655
G1 X60.816 Y101.228 E29.76089
G1 X63.045 Y99.767 E29.91447
G1 X65.229 Y98.245 E30.06786
G1 X67.392 Y96.647 E30.22282
G1 X69.474 Y95.014 E30.3753
G1 X71.527 Y93.309 E30.52907
G1 X73.54 Y91.539 E30.68353
G1 X75.487 Y89.725 E30.83687
G1 X77.392 Y87.848 E30.99098
G1 X79.241 Y85.922 E31.14483
G1 X81.026 Y83.951 E31.29805
G1 X82.767 Y81.917 E31.45233
G1 X84.525 Y79.739 E31.61362
G1 X85.075 Y79.037 E31.66501
G1 X85.52 Y78.534 E31.70371
G1 X86.021 Y78.088 E31.74236
G1 X86.572 Y77.705 E31.78102
G1 X87.164 Y77.39 E31.81967
G1 X87.789 Y77.147 E31.85831
G1 X88.439 Y76.981 E31.89696
G1 X89.35 Y76.881 E31.94977
G1 X126.793 Y76.87 E34.10736
G1 X127.572 Y76.881 E34.15225
G1 F2700 E21.15225
G0 F1200 X118.485 Y86.845
G0 X103.903 Y86.903
G0 X103.847 Y102.896
G0 X74.063 Y135.558
;TYPE:SUPPORT
G1 F2100 E34.15225
G1 F1200 X74.369 Y135.855 E34.17677
G1 X74.637 Y136.192 E34.20152
G1 X74.857 Y136.565 E34.22641
G1 X75.019 Y136.945 E34.25016
G1 X75.132 Y137.365 E34.27516
G1 X75.19 Y137.789 E34.29976
G1 X75.19 Y138.211 E34.32402
G1 X75.132 Y138.635 E34.34862
G1 X75.019 Y139.055 E34.37362
G1 X74.857 Y139.435 E34.39737
G1 X74.637 Y139.808 E34.42227
G1 X74.369 Y140.145 E34.44702
G1 X74.063 Y140.442 E34.47153
G1 X73.719 Y140.696 E34.49611
G1 X73.351 Y140.897 E34.52022
G1 X72.937 Y141.057 E34.54573
G1 X72.534 Y141.153 E34.56955
G1 X72.116 Y141.195 E34.5937
G1 X71.671 Y141.179 E34.6193
G1 X71.266 Y141.112 E34.64289
G1 X70.848 Y140.982 E34.66806
G1 X70.466 Y140.805 E34.69226
G1 X70.101 Y140.572 E34.71715
G1 X69.777 Y140.295 E34.74166
G1 X69.497 Y139.988 E34.76554
G1 X69.247 Y139.623 E34.79098
G1 X69.052 Y139.24 E34.81568
G1 X68.92 Y138.858 E34.83892
G1 X68.832 Y138.429 E34.86409
G1 X68.805 Y138 E34.8888
G1 X68.832 Y137.571 E34.91351
G1 X68.92 Y137.142 E34.93869
G1 X69.052 Y136.76 E34.96192
G1 X69.247 Y136.377 E34.98663
G1 X69.497 Y136.012 E35.01206
G1 X69.777 Y135.705 E35.03595
G1 X70.101 Y135.428 E35.06045
G1 X70.466 Y135.195 E35.08534
G1 X70.848 Y135.018 E35.10955
G1 X71.266 Y134.888 E35.13471
G1 X71.671 Y134.821 E35.15831
G1 X72.116 Y134.805 E35.18391
G1 X72.534 Y134.847 E35.20806
G1 X72.937 Y134.943 E35.23187
G1 X73.351 Y135.103 E35.25739
G1 X73.719 Y135.304 E35.28149
G1 X74.063 Y135.558 E35.30607
G0 X74.05 Y135.564
G1 X73.437 Y135.161 E35.34824
G1 X72.944 Y134.958 E35.37889
G1 X72.212 Y134.826 E35.42165
G1 X71.68 Y134.832 E35.45224
G1 X70.938 Y135 E35.49597
G1 X70.462 Y135.214 E35.52597
G1 X69.858 Y135.647 E35.56869
G1 X69.495 Y136.034 E35.5992
G1 X69.109 Y136.67 E35.64196
G1 X68.926 Y137.173 E35.67273
G1 X68.82 Y137.898 E35.71485
G1 X68.906 Y138.737 E35.76334
G1 X69.066 Y139.241 E35.79374
G1 X69.437 Y139.882 E35.83631
G1 X69.781 Y140.286 E35.86681
G1 X70.389 Y140.744 E35.91057
G1 X70.868 Y140.974 E35.94112
G1 X71.57 Y141.153 E35.98276
G1 X72.108 Y141.183 E36.01374
G1 X72.848 Y141.066 E36.05681
G1 X73.341 Y140.887 E36.08696
G1 X73.977 Y140.495 E36.12991
G1 X74.364 Y140.134 E36.16033
G1 X74.793 Y139.524 E36.2032
G1 X75.009 Y139.041 E36.23362
G1 X75.165 Y138.31 E36.27659
G1 X75.179 Y137.783 E36.30689
G1 X75.04 Y137.067 E36.34882
G1 X74.847 Y136.569 E36.37952
G1 X74.424 Y135.938 E36.42319
G1 X74.05 Y135.564 E36.4536
G1 F2700 E23.4536
;MESH:PARTE 1 ESTANTERIA.stl
G0 F1200 X74.838 Y139.951
G0 X75.909 Y140.682
G0 X75.877 Y142.585
;TYPE:WALL-INNER
G1 F2100 E36.4536
G1 F1200 X76.451 Y142.025 E36.49981
G1 X76.95 Y141.399 E36.54594
G1 X77.359 Y140.708 E36.59221
G1 X77.673 Y139.968 E36.63853
G1 X77.885 Y139.194 E36.68477
G1 X77.99 Y138.399 E36.73098
G1 X77.99 Y137.601 E36.77696
G1 X77.885 Y136.806 E36.82317
G1 X77.673 Y136.032 E36.86941
G1 X77.359 Y135.292 E36.91573
G1 X76.95 Y134.601 E36.962
G1 X76.451 Y133.975 E37.00813
G1 X75.877 Y133.415 E37.05434
G1 X75.228 Y132.94 E37.10069
G1 X74.53 Y132.554 E37.14665
G1 X73.778 Y132.266 E37.19305
G1 X72.998 Y132.08 E37.23926
G1 X72.2 Y131.999 E37.28548
G1 X71.399 Y132.026 E37.33166
G1 X70.607 Y132.162 E37.37796
G1 X69.844 Y132.397 E37.42397
G1 X69.117 Y132.736 E37.47019
G1 X68.438 Y133.167 E37.51653
G1 X67.827 Y133.685 E37.56269
G1 X67.289 Y134.279 E37.60887
G1 X66.836 Y134.943 E37.65519
G1 X66.475 Y135.656 E37.70124
G1 X66.21 Y136.412 E37.7474
G1 X66.05 Y137.202 E37.79385
G1 X65.997 Y138 E37.83994
G1 X66.05 Y138.798 E37.88602
G1 X66.21 Y139.588 E37.93247
G1 X66.475 Y140.344 E37.97863
G1 X66.836 Y141.057 E38.02468
G1 X67.289 Y141.721 E38.071
G1 X67.827 Y142.315 E38.11718
G1 X68.438 Y142.833 E38.16334
G1 X69.117 Y143.264 E38.20968
G1 X69.844 Y143.603 E38.2559
G1 X70.607 Y143.838 E38.30191
G1 X71.399 Y143.974 E38.34821
G1 X72.2 Y144.001 E38.39439
G1 X72.998 Y143.92 E38.44061
G1 X73.778 Y143.734 E38.48682
G1 X74.53 Y143.446 E38.53322
G1 X75.228 Y143.06 E38.57918
G1 X75.877 Y142.585 E38.62553
G0 X101.36 Y108.64
G1 X125.61 Y108.64 E40.02289
G1 X125.61 Y118.61 E40.59739
G1 X103.168 Y118.61 E41.89057
G1 X101.758 Y118.685 E41.97194
G1 X100.681 Y118.941 E42.03572
G1 X99.681 Y119.357 E42.09813
G1 X98.757 Y119.921 E42.16051
G1 X97.935 Y120.623 E42.2228
G1 X97.232 Y121.446 E42.28517
G1 X96.668 Y122.37 E42.34755
G1 X96.252 Y123.37 E42.40996
G1 X96.001 Y124.421 E42.47223
G1 X95.923 Y125.417 E42.5298
G1 X95.921 Y155.61 E44.26961
G1 X54.39 Y155.61 E46.66276
G1 X54.39 Y114.079 E49.05591
G1 X84.45 Y114.079 E50.78806
G1 X85.57 Y114.003 E50.85275
G1 X86.63 Y113.748 E50.91557
G1 X87.63 Y113.332 E50.97798
G1 X88.554 Y112.768 E51.04036
G1 X89.377 Y112.065 E51.10273
G1 X90.079 Y111.243 E51.16502
G1 X90.643 Y110.319 E51.2274
G1 X91.059 Y109.319 E51.28981
G1 X91.31 Y108.268 E51.35207
G1 X91.388 Y107.272 E51.40964
G1 X91.39 Y84.39 E52.72818
G1 X101.36 Y84.39 E53.30268
G1 X101.36 Y108.64 E54.70004
G0 X101.78 Y108.22
G1 X125.22 Y108.22 E56.05073
G1 X125.22 Y84.78 E57.40142
G1 X101.78 Y84.78 E58.7521
G1 X101.78 Y108.22 E60.10279
G0 X101.818 Y119.102
G1 X100.811 Y119.342 E60.16244
G1 X99.872 Y119.732 E60.22103
G1 X99.004 Y120.262 E60.27964
G1 X98.233 Y120.921 E60.33808
G1 X97.573 Y121.693 E60.39661
G1 X97.043 Y122.561 E60.45521
G1 X96.653 Y123.5 E60.5138
G1 X96.417 Y124.487 E60.57228
G1 X96.343 Y125.433 E60.62696
G1 X96.341 Y156.03 E62.39005
G1 X53.97 Y156.03 E64.8316
G1 X53.97 Y113.659 E67.27316
G1 X84.436 Y113.659 E69.0287
G1 X85.506 Y113.586 E69.0905
G1 X86.5 Y113.347 E69.14941
G1 X87.439 Y112.957 E69.208
G1 X88.307 Y112.427 E69.26661
G1 X89.079 Y111.767 E69.32513
G1 X89.738 Y110.996 E69.38358
G1 X90.268 Y110.128 E69.44218
G1 X90.658 Y109.189 E69.50077
G1 X90.894 Y108.202 E69.55925
G1 X90.968 Y107.256 E69.61393
G1 X90.97 Y83.97 E70.95574
G1 X126.03 Y83.97 E72.97601
G1 X126.03 Y119.03 E74.99628
G1 X103.179 Y119.03 E76.31303
G1 X101.818 Y119.102 E76.39156
G0 X99.103 Y121.25
G0 X75.605 Y142.264
G1 X76.139 Y141.743 E76.43455
G1 X76.603 Y141.16 E76.47749
G1 X76.983 Y140.518 E76.52047
G1 X77.275 Y139.83 E76.56354
G1 X77.472 Y139.111 E76.6065
G1 X77.57 Y138.371 E76.64951
G1 X77.57 Y137.629 E76.69227
G1 X77.472 Y136.889 E76.73528
G1 X77.275 Y136.17 E76.77824
G1 X76.983 Y135.482 E76.82131
G1 X76.603 Y134.84 E76.8643
G1 X76.139 Y134.257 E76.90723
G1 X75.605 Y133.736 E76.95022
G1 X75.002 Y133.295 E76.99327
G1 X74.352 Y132.936 E77.03606
G1 X73.654 Y132.668 E77.07914
G1 X72.928 Y132.495 E77.12215
G1 X72.186 Y132.42 E77.16512
G1 X71.442 Y132.445 E77.20802
G1 X70.705 Y132.571 E77.2511
G1 X69.995 Y132.79 E77.29392
G1 X69.319 Y133.105 E77.33689
G1 X68.688 Y133.506 E77.37997
G1 X68.12 Y133.987 E77.42286
G1 X67.62 Y134.54 E77.46582
G1 X67.198 Y135.157 E77.5089
G1 X66.862 Y135.821 E77.55178
G1 X66.616 Y136.524 E77.5947
G1 X66.467 Y137.258 E77.63785
G1 X66.418 Y138 E77.6807
G1 X66.467 Y138.742 E77.72355
G1 X66.616 Y139.476 E77.76671
G1 X66.862 Y140.179 E77.80963
G1 X67.198 Y140.843 E77.85251
G1 X67.62 Y141.46 E77.89558
G1 X68.12 Y142.013 E77.93854
G1 X68.688 Y142.494 E77.98143
G1 X69.319 Y142.895 E78.02451
G1 X69.995 Y143.21 E78.06749
G1 X70.705 Y143.429 E78.1103
G1 X71.442 Y143.555 E78.15339
G1 X72.186 Y143.58 E78.19628
G1 X72.928 Y143.505 E78.23926
G1 X73.654 Y143.332 E78.28226
G1 X74.352 Y143.064 E78.32535
G1 X75.002 Y142.705 E78.36814
G1 X75.605 Y142.264 E78.41118
G0 X75.333 Y141.943
G1 X75.827 Y141.461 E78.45095
G1 X76.256 Y140.921 E78.49069
G1 X76.607 Y140.328 E78.5304
G1 X76.877 Y139.692 E78.57022
G1 X77.059 Y139.027 E78.60994
G1 X77.15 Y138.343 E78.64971
G1 X77.15 Y137.657 E78.68924
G1 X77.059 Y136.973 E78.729
G1 X76.877 Y136.308 E78.76873
G1 X76.607 Y135.672 E78.80854
G1 X76.256 Y135.079 E78.84825
G1 X75.827 Y134.539 E78.88799
G1 X75.333 Y134.057 E78.92776
G1 X74.776 Y133.65 E78.96751
G1 X74.174 Y133.318 E79.00713
G1 X73.529 Y133.07 E79.04695
G1 X72.858 Y132.91 E79.08669
G1 X72.172 Y132.841 E79.12642
G1 X71.484 Y132.864 E79.16609
G1 X70.803 Y132.98 E79.2059
G1 X70.146 Y133.183 E79.24552
G1 X69.521 Y133.474 E79.28525
G1 X68.938 Y133.845 E79.32507
G1 X68.413 Y134.29 E79.36473
G1 X67.95 Y134.801 E79.40446
G1 X67.56 Y135.371 E79.44426
G1 X67.249 Y135.986 E79.48397
G1 X67.022 Y136.636 E79.52364
G1 X66.884 Y137.314 E79.56351
G1 X66.839 Y138 E79.60313
G1 X66.884 Y138.686 E79.64274
G1 X67.022 Y139.364 E79.68261
G1 X67.249 Y140.014 E79.72228
G1 X67.56 Y140.629 E79.762
G1 X67.95 Y141.199 E79.80179
G1 X68.413 Y141.71 E79.84153
G1 X68.938 Y142.155 E79.88119
G1 X69.521 Y142.526 E79.92101
G1 X70.146 Y142.817 E79.96073
G1 X70.803 Y143.02 E80.00036
G1 X71.484 Y143.136 E80.04016
G1 X72.172 Y143.159 E80.07983
G1 X72.858 Y143.09 E80.11956
G1 X73.529 Y142.93 E80.15931
G1 X74.174 Y142.682 E80.19913
G1 X74.776 Y142.35 E80.23874
G1 X75.333 Y141.943 E80.27849
G0 X99.477 Y120.912
G0 X101.878 Y119.519
G1 X100.941 Y119.743 E80.33401
G1 X100.063 Y120.107 E80.38878
G1 X99.252 Y120.603 E80.44356
G1 X98.531 Y121.219 E80.4982
G1 X97.914 Y121.941 E80.55293
G1 X97.418 Y122.752 E80.60771
G1 X97.054 Y123.63 E80.66248
G1 X96.833 Y124.553 E80.71717
G1 X96.763 Y125.449 E80.76895
G1 X96.761 Y156.45 E82.55533
G1 X53.55 Y156.45 E85.04528
G1 X53.55 Y113.239 E87.53524
G1 X84.422 Y113.239 E89.31418
G1 X85.442 Y113.169 E89.3731
G1 X86.37 Y112.946 E89.42809
G1 X87.248 Y112.582 E89.48286
G1 X88.059 Y112.086 E89.53764
G1 X88.781 Y111.469 E89.59237
G1 X89.397 Y110.748 E89.64701
G1 X89.893 Y109.937 E89.70179
G1 X90.257 Y109.059 E89.75656
G1 X90.478 Y108.136 E89.81125
G1 X90.548 Y107.24 E89.86304
G1 X90.55 Y83.55 E91.22813
G1 X126.45 Y83.55 E93.2968
G1 X126.45 Y119.45 E95.36548
G1 X103.19 Y119.45 E96.70579
G1 X101.878 Y119.519 E96.7815
G0 X102.2 Y107.8
