;FLAVOR:Marlin
;TIME:7423
;Filament used: 8.26762m
;Layer height: 0.2
;MINX:41.47
;MINY:73.47
;MINZ:0.3
;MAXX:138.53
;MAXY:142.83
;MAXZ:12.9
;Generated with Cura_SteamEngine 4.6.2
M140 S70
M105
M190 S70
M104 S237
M105
M109 S237
M82 ;absolute extrusion mode
G28 ;Home
G1 Z15.0 F6000 ;Move the platform down 15mm
G92 E0
G1 F200 E3
G92 E0
G92 E0
G92 E0
G1 F2700 E-13
;LAYER_COUNT:64
;LAYER:0
M107
M204 S5000
G0 F1200 X102.969 Y73.901 Z0.3
M204 S3000
;TYPE:SKIRT
G1 F2100 E0
G1 F1200 X103.613 Y73.95 E0.03722
G1 X104.245 Y74.078 E0.07437
G1 X104.857 Y74.283 E0.11157
G1 X105.438 Y74.563 E0.14873
G1 X105.981 Y74.912 E0.18592
G1 X106.476 Y75.326 E0.22311
G1 X106.916 Y75.798 E0.26029
G1 X107.701 Y76.868 E0.33676
G1 X109.332 Y79.071 E0.49471
G1 X110.961 Y81.145 E0.64668
G1 X112.691 Y83.223 E0.80248
G1 X114.465 Y85.234 E0.95701
G1 X116.299 Y87.201 E1.11198
G1 X118.175 Y89.101 E1.26584
G1 X120.121 Y90.965 E1.42111
G1 X122.092 Y92.747 E1.57423
G1 X124.14 Y94.496 E1.72942
G1 X126.219 Y96.174 E1.88337
G1 X128.357 Y97.8 E2.03815
G1 X130.55 Y99.372 E2.19363
G1 X132.76 Y100.863 E2.34725
G1 X134.998 Y102.285 E2.50004
G1 X135.618 Y102.666 E2.54197
G1 X136.146 Y103.037 E2.57916
G1 X136.623 Y103.471 E2.61632
G1 X137.044 Y103.96 E2.6535
G1 X137.401 Y104.498 E2.6907
G1 X137.689 Y105.076 E2.72792
G1 X137.903 Y105.684 E2.76506
G1 X138.04 Y106.315 E2.80227
G1 X138.098 Y106.945 E2.83872
G1 X138.11 Y132.236 E4.29607
G1 X138.1 Y132.963 E4.33797
G1 X138.051 Y133.606 E4.37512
G1 X137.923 Y134.239 E4.41234
G1 X137.718 Y134.85 E4.44947
G1 X137.438 Y135.432 E4.48669
G1 X137.089 Y135.975 E4.52389
G1 X136.676 Y136.47 E4.56103
G1 X136.204 Y136.911 E4.59826
G1 X135.682 Y137.29 E4.63543
G1 X135.117 Y137.601 E4.67259
G1 X134.517 Y137.84 E4.70981
G1 X133.893 Y138.004 E4.74698
G1 X133.036 Y138.099 E4.79667
G1 X131.896 Y138.11 E4.86236
G1 X129.218 Y138.148 E5.01669
G1 X126.548 Y138.261 E5.17069
G1 X123.872 Y138.451 E5.32527
G1 X121.18 Y138.718 E5.48116
G1 X118.536 Y139.056 E5.63475
G1 X115.868 Y139.475 E5.79037
G1 X113.243 Y139.963 E5.94423
G1 X110.639 Y140.524 E6.09772
G1 X108.056 Y141.157 E6.25097
G1 X105.307 Y141.915 E6.41528
G1 X104.367 Y142.189 E6.4717
G1 X103.737 Y142.331 E6.50892
G1 X103.109 Y142.393 E6.54528
G1 X102.57 Y142.41 E6.57635
G1 X77.807 Y142.41 E8.00328
G1 X77.034 Y142.399 E8.04782
G1 X76.391 Y142.35 E8.08498
G1 X75.758 Y142.222 E8.1222
G1 X73.318 Y141.52 E8.2685
G1 X70.682 Y140.834 E8.42546
G1 X68.079 Y140.233 E8.57939
G1 X65.468 Y139.711 E8.73283
G1 X62.83 Y139.259 E8.88705
G1 X60.178 Y138.881 E9.04141
G1 X57.481 Y138.574 E9.19783
G1 X54.853 Y138.35 E9.34981
G1 X52.146 Y138.197 E9.50604
G1 X49.458 Y138.12 E9.661
G1 X47.777 Y138.11 E9.75786
G1 X47.027 Y138.098 E9.80109
G1 X46.384 Y138.048 E9.83825
G1 X45.751 Y137.919 E9.87548
G1 X45.14 Y137.713 E9.91263
G1 X44.559 Y137.432 E9.94982
G1 X44.017 Y137.082 E9.987
G1 X43.522 Y136.668 E10.02418
G1 X43.082 Y136.195 E10.06141
G1 X42.705 Y135.672 E10.09856
G1 X42.394 Y135.106 E10.13577
G1 X42.156 Y134.507 E10.17291
G1 X41.994 Y133.882 E10.21012
G1 X41.901 Y133.031 E10.25945
G1 X41.89 Y107.807 E11.71293
G1 X41.901 Y107.034 E11.75748
G1 X41.95 Y106.391 E11.79464
G1 X42.078 Y105.759 E11.8318
G1 X42.284 Y105.147 E11.86901
G1 X42.563 Y104.565 E11.9062
G1 X42.912 Y104.023 E11.94334
G1 X43.326 Y103.528 E11.98053
G1 X43.798 Y103.087 E12.01775
G1 X44.295 Y102.725 E12.05318
G1 X44.795 Y102.404 E12.08742
G1 X46.225 Y101.52 E12.1843
G1 X48.47 Y100.047 E12.33902
G1 X50.677 Y98.506 E12.49413
G1 X52.815 Y96.922 E12.64745
G1 X54.926 Y95.264 E12.80213
G1 X56.976 Y93.558 E12.95581
G1 X59 Y91.774 E13.11128
G1 X60.968 Y89.939 E13.26633
G1 X62.865 Y88.065 E13.41998
G1 X64.717 Y86.131 E13.57428
G1 X66.529 Y84.129 E13.72988
G1 X68.262 Y82.099 E13.88368
G1 X69.945 Y80.013 E14.03813
G1 X71.568 Y77.88 E14.19257
G1 X72.866 Y76.078 E14.32055
G1 X73.275 Y75.579 E14.35772
G1 X73.742 Y75.134 E14.39489
G1 X74.261 Y74.751 E14.43206
G1 X74.824 Y74.434 E14.46929
G1 X75.421 Y74.19 E14.50646
G1 X76.044 Y74.021 E14.54365
G1 X76.723 Y73.927 E14.58315
G1 X77.43 Y73.89 E14.62395
G1 X102.193 Y73.89 E16.05087
G1 X102.969 Y73.901 E16.09559
M204 S5000
G0 X102.975 Y73.481
M204 S3000
G1 X103.644 Y73.53 E16.13424
G1 X104.303 Y73.659 E16.17294
G1 X104.941 Y73.865 E16.21157
G1 X105.55 Y74.145 E16.25019
G1 X106.122 Y74.497 E16.2889
G1 X106.648 Y74.913 E16.32754
G1 X107.12 Y75.389 E16.36617
G1 X107.466 Y75.823 E16.39815
G1 X108.051 Y76.637 E16.45591
G1 X109.655 Y78.802 E16.61117
G1 X111.297 Y80.892 E16.76433
G1 X113.016 Y82.956 E16.91911
G1 X114.773 Y84.95 E17.07225
G1 X116.591 Y86.898 E17.22579
G1 X118.468 Y88.8 E17.37977
G1 X120.396 Y90.647 E17.53362
G1 X122.388 Y92.448 E17.68837
G1 X124.398 Y94.164 E17.84066
G1 X126.496 Y95.857 E17.99601
G1 X128.599 Y97.457 E18.14827
G1 X130.789 Y99.026 E18.30351
G1 X132.979 Y100.504 E18.45576
G1 X135.24 Y101.941 E18.61013
G1 X135.838 Y102.308 E18.65056
G1 X136.387 Y102.693 E18.6892
G1 X136.887 Y103.14 E18.72785
G1 X137.33 Y103.644 E18.76651
G1 X137.711 Y104.196 E18.80516
G1 X138.022 Y104.79 E18.8438
G1 X138.261 Y105.417 E18.88246
G1 X138.424 Y106.068 E18.92113
G1 X138.517 Y106.932 E18.97121
G1 X138.53 Y132.164 E20.42516
G1 X138.519 Y132.968 E20.47149
G1 X138.47 Y133.637 E20.51014
G1 X138.342 Y134.296 E20.54883
G1 X138.136 Y134.934 E20.58746
G1 X137.856 Y135.544 E20.62613
G1 X137.505 Y136.116 E20.66481
G1 X137.089 Y136.642 E20.70345
G1 X136.613 Y137.114 E20.74208
G1 X136.084 Y137.527 E20.78075
G1 X135.51 Y137.874 E20.8194
G1 X134.899 Y138.15 E20.85803
G1 X134.259 Y138.352 E20.8967
G1 X133.6 Y138.476 E20.93534
G1 X133.048 Y138.519 E20.96725
G1 X131.902 Y138.53 E21.03329
G1 X129.242 Y138.568 E21.18658
G1 X126.558 Y138.682 E21.34138
G1 X123.908 Y138.87 E21.49447
G1 X121.209 Y139.137 E21.65075
G1 X118.615 Y139.469 E21.80144
G1 X115.941 Y139.889 E21.95742
G1 X113.332 Y140.374 E22.11033
G1 X110.725 Y140.935 E22.26399
G1 X108.166 Y141.563 E22.41583
G1 X105.383 Y142.33 E22.58217
G1 X104.484 Y142.592 E22.63613
G1 X103.83 Y142.741 E22.67478
G1 X103.125 Y142.813 E22.71562
G1 X102.57 Y142.83 E22.74761
G1 X77.807 Y142.83 E24.17454
G1 X77.028 Y142.819 E24.21943
G1 X76.359 Y142.77 E24.25808
G1 X75.649 Y142.627 E24.29982
G1 X73.173 Y141.916 E24.44826
G1 X70.625 Y141.253 E24.59997
G1 X67.971 Y140.64 E24.75693
G1 X65.383 Y140.123 E24.909
G1 X62.774 Y139.675 E25.06154
G1 X60.105 Y139.295 E25.21689
G1 X57.467 Y138.995 E25.36988
G1 X54.791 Y138.767 E25.52464
G1 X52.147 Y138.617 E25.67724
G1 X49.444 Y138.54 E25.83306
G1 X47.775 Y138.53 E25.92923
G1 X47.02 Y138.518 E25.97274
G1 X46.351 Y138.468 E26.0114
G1 X45.693 Y138.338 E26.05005
G1 X45.055 Y138.131 E26.0887
G1 X44.446 Y137.85 E26.12735
G1 X43.875 Y137.498 E26.166
G1 X43.35 Y137.08 E26.20467
G1 X42.878 Y136.603 E26.24334
G1 X42.466 Y136.074 E26.28198
G1 X42.121 Y135.499 E26.32061
G1 X41.846 Y134.887 E26.35928
G1 X41.645 Y134.247 E26.39793
G1 X41.522 Y133.587 E26.43662
G1 X41.481 Y133.042 E26.46811
G1 X41.47 Y107.807 E27.92223
G1 X41.481 Y107.028 E27.96713
G1 X41.53 Y106.359 E28.00578
G1 X41.659 Y105.701 E28.04442
G1 X41.865 Y105.063 E28.08305
G1 X42.146 Y104.453 E28.12175
G1 X42.497 Y103.882 E28.16037
G1 X42.913 Y103.356 E28.19901
G1 X43.39 Y102.883 E28.23772
G1 X44.068 Y102.371 E28.28668
G1 X44.568 Y102.05 E28.32092
G1 X46.015 Y101.155 E28.41896
G1 X48.239 Y99.696 E28.57223
G1 X50.401 Y98.186 E28.72419
G1 X52.585 Y96.569 E28.88078
G1 X54.655 Y94.942 E29.03249
G1 X56.726 Y93.219 E29.18773
G1 X58.715 Y91.466 E29.3405
G1 X60.666 Y89.647 E29.49421
G1 X62.564 Y87.772 E29.64794
G1 X64.416 Y85.837 E29.80229
G1 X66.212 Y83.853 E29.9565
G1 X67.944 Y81.825 E30.11017
G1 X69.615 Y79.753 E30.26356
G1 X71.224 Y77.639 E30.41664
G1 X72.525 Y75.833 E30.5449
G1 X72.949 Y75.313 E30.58356
G1 X73.432 Y74.847 E30.62224
G1 X73.967 Y74.442 E30.6609
G1 X74.546 Y74.103 E30.69956
G1 X75.161 Y73.836 E30.7382
G1 X75.804 Y73.644 E30.77687
G1 X76.693 Y73.508 E30.82869
G1 X77.43 Y73.47 E30.87121
G1 X102.193 Y73.47 E32.29814
G1 X102.975 Y73.481 E32.3432
M204 S5000
G1 F2700 E19.3432
;MESH:alum20mmtapa.stl(2)
G0 F1200 X76.447 Y78.447
G0 X72.256 Y106.435
G0 X72.256 Y107.744
G0 X48.15 Y131.85
M204 S3000
;TYPE:WALL-INNER
G1 F2100 E32.3432
G1 F1200 X48.15 Y108.15 E33.70887
G1 X71.85 Y108.15 E35.07454
G1 X71.85 Y131.85 E36.44021
G1 X48.15 Y131.85 E37.80588
M204 S5000
G0 X47.73 Y132.27
M204 S3000
G1 X47.73 Y107.73 E39.21995
G1 X72.27 Y107.73 E40.63403
G1 X72.27 Y132.27 E42.0481
G1 X47.73 Y132.27 E43.46217
M204 S5000
G0 X47.31 Y132.69
M204 S3000
;TYPE:WALL-OUTER
G1 X47.31 Y107.31 E44.92465
G1 X72.69 Y107.31 E46.38713
G1 X72.69 Y132.69 E47.8496
G1 X47.31 Y132.69 E49.31208
M204 S5000
G0 X47.31 Y132.49
G0 X47.8 Y132.2
G0 X48.56 Y131.44
M204 S3000
;TYPE:SKIN
G1 X48.56 Y108.56 E50.6305
G1 X71.44 Y108.56 E51.94892
G1 X71.44 Y131.44 E53.26733
G1 X48.56 Y131.44 E54.58575
M204 S5000
G0 X59.88 Y120.12
M204 S3000
G1 X59.88 Y119.88 E54.59958
G1 X60.12 Y119.88 E54.61341
G1 X60.12 Y120.12 E54.62724
G1 X59.88 Y120.12 E54.64107
M204 S5000
G0 X59.46 Y120.54
M204 S3000
G1 X59.46 Y119.46 E54.7033
G1 X60.54 Y119.46 E54.76554
G1 X60.54 Y120.54 E54.82777
G1 X59.46 Y120.54 E54.89
M204 S5000
G0 X59.04 Y120.96
M204 S3000
G1 X59.04 Y119.04 E55.00064
G1 X60.96 Y119.04 E55.11128
G1 X60.96 Y120.96 E55.22191
G1 X59.04 Y120.96 E55.33255
M204 S5000
G0 X58.62 Y121.38
M204 S3000
G1 X58.62 Y118.62 E55.49159
G1 X61.38 Y118.62 E55.65063
G1 X61.38 Y121.38 E55.80967
G1 X58.62 Y121.38 E55.96871
M204 S5000
G0 X58.2 Y121.8
M204 S3000
G1 X58.2 Y118.2 E56.17615
G1 X61.8 Y118.2 E56.3836
G1 X61.8 Y121.8 E56.59104
G1 X58.2 Y121.8 E56.79848
M204 S5000
G0 X57.78 Y122.22
M204 S3000
G1 X57.78 Y117.78 E57.05433
G1 X62.22 Y117.78 E57.31018
G1 X62.22 Y122.22 E57.56602
G1 X57.78 Y122.22 E57.82187
M204 S5000
G0 X57.36 Y122.64
M204 S3000
G1 X57.36 Y117.36 E58.12612
G1 X62.64 Y117.36 E58.43037
G1 X62.64 Y122.64 E58.73462
G1 X57.36 Y122.64 E59.03887
M204 S5000
G0 X56.94 Y123.06
M204 S3000
G1 X56.94 Y116.94 E59.39153
G1 X63.06 Y116.94 E59.74418
G1 X63.06 Y123.06 E60.09683
G1 X56.94 Y123.06 E60.44949
M204 S5000
G0 X56.52 Y123.48
M204 S3000
G1 X56.52 Y116.52 E60.85055
G1 X63.48 Y116.52 E61.2516
G1 X63.48 Y123.48 E61.65266
G1 X56.52 Y123.48 E62.05372
M204 S5000
G0 X56.1 Y123.9
M204 S3000
G1 X56.1 Y116.1 E62.50318
G1 X63.9 Y116.1 E62.95264
G1 X63.9 Y123.9 E63.4021
G1 X56.1 Y123.9 E63.85156
M204 S5000
G0 X55.68 Y124.32
M204 S3000
G1 X55.68 Y115.68 E64.34942
G1 X64.32 Y115.68 E64.84729
G1 X64.32 Y124.32 E65.34515
G1 X55.68 Y124.32 E65.84302
M204 S5000
G0 X55.26 Y124.74
M204 S3000
G1 X55.26 Y115.26 E66.38929
G1 X64.74 Y115.26 E66.93555
G1 X64.74 Y124.74 E67.48182
G1 X55.26 Y124.74 E68.02809
M204 S5000
G0 X54.84 Y125.16
M204 S3000
G1 X54.84 Y114.84 E68.62276
G1 X65.16 Y114.84 E69.21743
G1 X65.16 Y125.16 E69.8121
G1 X54.84 Y125.16 E70.40677
M204 S5000
G0 X54.42 Y125.58
M204 S3000
G1 X54.42 Y114.42 E71.04985
G1 X65.58 Y114.42 E71.69292
G1 X65.58 Y125.58 E72.336
G1 X54.42 Y125.58 E72.97907
M204 S5000
G0 X54 Y126
M204 S3000
G1 X54 Y114 E73.67055
G1 X66 Y114 E74.36203
G1 X66 Y126 E75.05351
G1 X54 Y126 E75.74499
M204 S5000
G0 X53.58 Y126.42
M204 S3000
G1 X53.58 Y113.58 E76.48487
G1 X66.42 Y113.58 E77.22475
G1 X66.42 Y126.42 E77.96463
G1 X53.58 Y126.42 E78.70451
M204 S5000
G0 X53.16 Y126.84
M204 S3000
G1 X53.16 Y113.16 E79.4928
G1 X66.84 Y113.16 E80.28108
G1 X66.84 Y126.84 E81.06937
G1 X53.16 Y126.84 E81.85765
M204 S5000
G0 X52.74 Y127.26
M204 S3000
G1 X52.74 Y112.74 E82.69434
G1 X67.26 Y112.74 E83.53103
G1 X67.26 Y127.26 E84.36772
G1 X52.74 Y127.26 E85.20441
M204 S5000
G0 X52.32 Y127.68
M204 S3000
G1 X52.32 Y112.32 E86.0895
G1 X67.68 Y112.32 E86.97459
G1 X67.68 Y127.68 E87.85968
G1 X52.32 Y127.68 E88.74478
M204 S5000
G0 X51.9 Y128.1
M204 S3000
G1 X51.9 Y111.9 E89.67827
G1 X68.1 Y111.9 E90.61177
G1 X68.1 Y128.1 E91.54526
G1 X51.9 Y128.1 E92.47876
M204 S5000
G0 X51.48 Y128.52
M204 S3000
G1 X51.48 Y111.48 E93.46066
G1 X68.52 Y111.48 E94.44256
G1 X68.52 Y128.52 E95.42446
G1 X51.48 Y128.52 E96.40635
M204 S5000
G0 X51.06 Y128.94
M204 S3000
G1 X51.06 Y111.06 E97.43666
G1 X68.94 Y111.06 E98.46696
G1 X68.94 Y128.94 E99.49726
G1 X51.06 Y128.94 E100.52756
M204 S5000
G0 X50.64 Y129.36
M204 S3000
G1 X50.64 Y110.64 E101.60627
G1 X69.36 Y110.64 E102.68498
G1 X69.36 Y129.36 E103.76368
G1 X50.64 Y129.36 E104.84239
M204 S5000
G0 X50.22 Y129.78
M204 S3000
G1 X50.22 Y110.22 E105.9695
G1 X69.78 Y110.22 E107.09661
G1 X69.78 Y129.78 E108.22372
G1 X50.22 Y129.78 E109.35083
M204 S5000
G0 X49.8 Y130.2
M204 S3000
G1 X49.8 Y109.8 E110.52634
G1 X70.2 Y109.8 E111.70185
G1 X70.2 Y130.2 E112.87737
G1 X49.8 Y130.2 E114.05288
M204 S5000
G0 X49.38 Y130.62
M204 S3000
G1 X49.38 Y109.38 E115.27679
G1 X70.62 Y109.38 E116.50071
G1 X70.62 Y130.62 E117.72463
G1 X49.38 Y130.62 E118.94854
M204 S5000
G0 X48.96 Y131.04
M204 S3000
G1 X48.96 Y108.96 E120.22086
G1 X71.04 Y108.96 E121.49318
G1 X71.04 Y131.04 E122.7655
G1 X48.96 Y131.04 E124.03782
M204 S5000
G1 F2700 E111.03782
;MESH:alum20mmtapa.stl
G0 F1200 X72.256 Y132.256
G0 X73.565 Y132.256
G0 X76.435 Y132.256
G0 X77.75 Y132.256
G0 X78.15 Y136.15
M204 S3000
;TYPE:WALL-INNER
G1 F2100 E124.03782
G1 F1200 X78.15 Y112.45 E125.40349
G1 X101.85 Y112.45 E126.76916
G1 X101.85 Y136.15 E128.13483
G1 X78.15 Y136.15 E129.5005
M204 S5000
G0 X77.73 Y136.57
M204 S3000
G1 X77.73 Y112.03 E130.91457
G1 X102.27 Y112.03 E132.32865
G1 X102.27 Y136.57 E133.74272
G1 X77.73 Y136.57 E135.15679
M204 S5000
G0 X77.31 Y136.99
M204 S3000
;TYPE:WALL-OUTER
G1 X77.31 Y111.61 E136.61927
G1 X102.69 Y111.61 E138.08175
G1 X102.69 Y136.99 E139.54422
G1 X77.31 Y136.99 E141.0067
M204 S5000
G0 X77.31 Y136.79
G0 X77.8 Y136.5
G0 X78.56 Y135.74
M204 S3000
;TYPE:SKIN
G1 X78.56 Y112.86 E142.32512
G1 X101.44 Y112.86 E143.64354
G1 X101.44 Y135.74 E144.96195
G1 X78.56 Y135.74 E146.28037
M204 S5000
G0 X89.88 Y124.42
M204 S3000
G1 X89.88 Y124.18 E146.2942
G1 X90.12 Y124.18 E146.30803
G1 X90.12 Y124.42 E146.32186
G1 X89.88 Y124.42 E146.33569
M204 S5000
G0 X89.46 Y124.84
M204 S3000
G1 X89.46 Y123.76 E146.39792
G1 X90.54 Y123.76 E146.46016
G1 X90.54 Y124.84 E146.52239
G1 X89.46 Y124.84 E146.58462
M204 S5000
G0 X89.04 Y125.26
M204 S3000
G1 X89.04 Y123.34 E146.69526
G1 X90.96 Y123.34 E146.8059
G1 X90.96 Y125.26 E146.91653
G1 X89.04 Y125.26 E147.02717
M204 S5000
G0 X88.62 Y125.68
M204 S3000
G1 X88.62 Y122.92 E147.18621
G1 X91.38 Y122.92 E147.34525
G1 X91.38 Y125.68 E147.50429
G1 X88.62 Y125.68 E147.66333
M204 S5000
G0 X88.2 Y126.1
M204 S3000
G1 X88.2 Y122.5 E147.87077
G1 X91.8 Y122.5 E148.07822
G1 X91.8 Y126.1 E148.28566
G1 X88.2 Y126.1 E148.4931
M204 S5000
G0 X87.78 Y126.52
M204 S3000
G1 X87.78 Y122.08 E148.74895
G1 X92.22 Y122.08 E149.0048
G1 X92.22 Y126.52 E149.26064
G1 X87.78 Y126.52 E149.51649
M204 S5000
G0 X87.36 Y126.94
M204 S3000
G1 X87.36 Y121.66 E149.82074
G1 X92.64 Y121.66 E150.12499
G1 X92.64 Y126.94 E150.42924
G1 X87.36 Y126.94 E150.73349
M204 S5000
G0 X86.94 Y127.36
M204 S3000
G1 X86.94 Y121.24 E151.08615
G1 X93.06 Y121.24 E151.4388
G1 X93.06 Y127.36 E151.79145
G1 X86.94 Y127.36 E152.14411
M204 S5000
G0 X86.52 Y127.78
M204 S3000
G1 X86.52 Y120.82 E152.54517
G1 X93.48 Y120.82 E152.94622
G1 X93.48 Y127.78 E153.34728
G1 X86.52 Y127.78 E153.74834
M204 S5000
G0 X86.1 Y128.2
M204 S3000
G1 X86.1 Y120.4 E154.1978
G1 X93.9 Y120.4 E154.64726
G1 X93.9 Y128.2 E155.09672
G1 X86.1 Y128.2 E155.54618
M204 S5000
G0 X85.68 Y128.62
M204 S3000
G1 X85.68 Y119.98 E156.04404
G1 X94.32 Y119.98 E156.54191
G1 X94.32 Y128.62 E157.03977
G1 X85.68 Y128.62 E157.53764
M204 S5000
G0 X85.26 Y129.04
M204 S3000
G1 X85.26 Y119.56 E158.08391
G1 X94.74 Y119.56 E158.63017
G1 X94.74 Y129.04 E159.17644
G1 X85.26 Y129.04 E159.72271
M204 S5000
G0 X84.84 Y129.46
M204 S3000
G1 X84.84 Y119.14 E160.31738
G1 X95.16 Y119.14 E160.91205
G1 X95.16 Y129.46 E161.50672
G1 X84.84 Y129.46 E162.10139
M204 S5000
G0 X84.42 Y129.88
M204 S3000
G1 X84.42 Y118.72 E162.74447
G1 X95.58 Y118.72 E163.38754
G1 X95.58 Y129.88 E164.03062
G1 X84.42 Y129.88 E164.67369
M204 S5000
G0 X84 Y130.3
M204 S3000
G1 X84 Y118.3 E165.36517
G1 X96 Y118.3 E166.05665
G1 X96 Y130.3 E166.74813
G1 X84 Y130.3 E167.43961
M204 S5000
G0 X83.58 Y130.72
M204 S3000
G1 X83.58 Y117.88 E168.17949
