;FLAVOR:Marlin
;TIME:1586
;Filament used: 1.32904m
;Layer height: 0.2
;MINX:66.369
;MINY:96.369
;MINZ:0.3
;MAXX:113.631
;MAXY:143.631
;MAXZ:11.9
;Generated with Cura_SteamEngine 4.6.2
M140 S45
M105
M190 S45
M104 S217
M105
M109 S217
M82 ;absolute extrusion mode
G28 ;Home
G1 Z15.0 F6000 ;Move the platform down 15mm
G92 E0
G1 F200 E3
G92 E0
G92 E0
G92 E0
G1 F2700 E-13
;LAYER_COUNT:59
;LAYER:0
M107
M204 S5000
G0 F2400 X91.236 Y96.821 Z0.3
M204 S3000
;TYPE:SKIRT
G1 F2100 E0
G1 F1500 X92.079 Y96.881 E0.04649
G1 X92.634 Y96.938 E0.07717
G1 X93.468 Y97.05 E0.12346
G1 X93.993 Y97.135 E0.15271
G1 X94.873 Y97.306 E0.20202
G1 X95.506 Y97.451 E0.23774
G1 X96.199 Y97.632 E0.27714
G1 X96.807 Y97.809 E0.31197
G1 X97.519 Y98.04 E0.35314
G1 X98.022 Y98.219 E0.38251
G1 X98.883 Y98.556 E0.43336
G1 X99.357 Y98.758 E0.4617
G1 X100.144 Y99.123 E0.50942
G1 X100.617 Y99.359 E0.5385
G1 X101.389 Y99.775 E0.58673
G1 X101.85 Y100.042 E0.61603
G1 X102.597 Y100.505 E0.66437
G1 X103.027 Y100.788 E0.69269
G1 X103.739 Y101.292 E0.74067
G1 X104.201 Y101.64 E0.77248
G1 X104.81 Y102.127 E0.81538
G1 X105.273 Y102.521 E0.84882
G1 X105.891 Y103.083 E0.89476
G1 X106.3 Y103.475 E0.92592
G1 X106.866 Y104.054 E0.97046
G1 X107.26 Y104.48 E1.00238
G1 X107.82 Y105.127 E1.04944
G1 X108.149 Y105.528 E1.07797
G1 X108.698 Y106.246 E1.12769
G1 X109.064 Y106.759 E1.16235
G1 X109.494 Y107.401 E1.20485
G1 X109.842 Y107.955 E1.24084
G1 X110.21 Y108.584 E1.28092
G1 X110.477 Y109.069 E1.31137
G1 X110.864 Y109.828 E1.35823
G1 X111.082 Y110.285 E1.38608
G1 X111.443 Y111.114 E1.43582
G1 X111.694 Y111.743 E1.47307
G1 X111.943 Y112.432 E1.51337
G1 X112.115 Y112.949 E1.54333
G1 X112.346 Y113.722 E1.58771
G1 X112.486 Y114.243 E1.61738
G1 X112.691 Y115.115 E1.66666
G1 X112.803 Y115.658 E1.69715
G1 X112.939 Y116.46 E1.74189
G1 X113.024 Y117.055 E1.77495
G1 X113.114 Y117.862 E1.81962
G1 X113.157 Y118.398 E1.84919
G1 X113.2 Y119.288 E1.8982
G1 X113.211 Y119.818 E1.92736
G1 X113.203 Y120.654 E1.97335
G1 X113.179 Y121.24 E2.00561
G1 X113.12 Y122.065 E2.0511
G1 X113.063 Y122.626 E2.08212
G1 X112.95 Y123.468 E2.12885
G1 X112.865 Y123.993 E2.1581
G1 X112.694 Y124.873 E2.20741
G1 X112.549 Y125.506 E2.24313
G1 X112.368 Y126.199 E2.28252
G1 X112.191 Y126.807 E2.31735
G1 X111.961 Y127.516 E2.35835
G1 X111.782 Y128.021 E2.38782
G1 X111.444 Y128.883 E2.43875
G1 X111.242 Y129.357 E2.46709
G1 X110.886 Y130.125 E2.51365
G1 X110.642 Y130.617 E2.54386
G1 X110.229 Y131.382 E2.59168
G1 X109.961 Y131.845 E2.6211
G1 X109.494 Y132.599 E2.66989
G1 X109.215 Y133.023 E2.69781
G1 X108.714 Y133.731 E2.74551
G1 X108.36 Y134.2 E2.77783
G1 X107.877 Y134.804 E2.82037
G1 X107.484 Y135.267 E2.85377
G1 X106.917 Y135.891 E2.90015
G1 X106.525 Y136.3 E2.93131
G1 X105.946 Y136.866 E2.97585
G1 X105.52 Y137.26 E3.00776
G1 X104.873 Y137.82 E3.05483
G1 X104.472 Y138.149 E3.08336
G1 X103.763 Y138.692 E3.13248
G1 X103.245 Y139.062 E3.1675
G1 X102.61 Y139.488 E3.20956
G1 X102.185 Y139.757 E3.23722
G1 X101.416 Y140.21 E3.28631
G1 X100.931 Y140.477 E3.31676
G1 X100.172 Y140.864 E3.36363
G1 X99.709 Y141.084 E3.39182
G1 X98.889 Y141.442 E3.44104
G1 X98.257 Y141.694 E3.47846
G1 X97.568 Y141.943 E3.51876
G1 X97.046 Y142.117 E3.54902
G1 X96.28 Y142.345 E3.59298
G1 X95.753 Y142.487 E3.623
G1 X94.886 Y142.691 E3.67199
G1 X94.342 Y142.803 E3.70254
G1 X93.528 Y142.941 E3.74796
G1 X92.938 Y143.025 E3.78073
G1 X92.139 Y143.113 E3.82495
G1 X91.599 Y143.157 E3.85475
G1 X90.712 Y143.2 E3.9036
G1 X90.181 Y143.211 E3.93281
G1 X89.325 Y143.201 E3.9799
G1 X88.764 Y143.179 E4.01078
G1 X87.921 Y143.119 E4.05726
G1 X87.366 Y143.062 E4.08795
G1 X86.532 Y142.95 E4.13423
G1 X86.007 Y142.865 E4.16349
G1 X85.127 Y142.694 E4.2128
G1 X84.494 Y142.549 E4.24852
G1 X83.801 Y142.368 E4.28791
G1 X83.193 Y142.191 E4.32274
G1 X82.481 Y141.96 E4.36392
G1 X81.978 Y141.781 E4.39328
G1 X81.117 Y141.444 E4.44414
G1 X80.643 Y141.242 E4.47248
G1 X79.856 Y140.877 E4.5202
G1 X79.383 Y140.641 E4.54927
G1 X78.61 Y140.225 E4.59756
G1 X78.148 Y139.957 E4.62693
G1 X77.403 Y139.495 E4.67515
G1 X76.973 Y139.212 E4.70347
G1 X76.261 Y138.708 E4.75145
G1 X75.799 Y138.36 E4.78326
G1 X75.19 Y137.873 E4.82615
G1 X74.727 Y137.479 E4.85959
G1 X74.109 Y136.917 E4.90554
G1 X73.699 Y136.524 E4.93678
G1 X73.134 Y135.946 E4.98124
G1 X72.739 Y135.52 E5.01319
G1 X72.18 Y134.872 E5.06026
G1 X71.851 Y134.473 E5.08871
G1 X71.302 Y133.753 E5.13851
G1 X70.934 Y133.239 E5.17328
G1 X70.505 Y132.598 E5.21571
G1 X70.158 Y132.045 E5.25162
G1 X69.79 Y131.416 E5.2917
G1 X69.524 Y130.935 E5.32193
G1 X69.134 Y130.169 E5.36921
G1 X68.916 Y129.709 E5.39721
G1 X68.554 Y128.879 E5.44702
G1 X68.306 Y128.257 E5.48385
G1 X68.057 Y127.568 E5.52415
G1 X67.883 Y127.046 E5.55441
G1 X67.655 Y126.28 E5.59837
G1 X67.513 Y125.753 E5.62839
G1 X67.309 Y124.886 E5.67738
G1 X67.197 Y124.342 E5.70793
G1 X67.059 Y123.528 E5.75334
G1 X66.975 Y122.938 E5.78612
G1 X66.887 Y122.139 E5.83034
G1 X66.843 Y121.599 E5.86014
G1 X66.8 Y120.712 E5.90898
G1 X66.789 Y120.182 E5.93814
G1 X66.799 Y119.325 E5.98528
G1 X66.821 Y118.764 E6.01616
G1 X66.882 Y117.909 E6.06331
G1 X66.938 Y117.365 E6.09339
G1 X67.05 Y116.532 E6.13962
G1 X67.135 Y116.007 E6.16888
G1 X67.306 Y115.127 E6.21819
G1 X67.451 Y114.494 E6.2539
G1 X67.632 Y113.801 E6.2933
G1 X67.809 Y113.193 E6.32813
G1 X68.042 Y112.476 E6.3696
G1 X68.218 Y111.982 E6.39844
G1 X68.556 Y111.117 E6.44953
G1 X68.758 Y110.643 E6.47787
G1 X69.123 Y109.856 E6.52558
G1 X69.359 Y109.383 E6.55466
G1 X69.775 Y108.61 E6.60294
G1 X70.039 Y108.154 E6.63193
G1 X70.506 Y107.401 E6.68066
G1 X70.785 Y106.977 E6.70858
G1 X71.293 Y106.26 E6.75691
G1 X71.64 Y105.799 E6.78865
G1 X72.127 Y105.19 E6.83154
G1 X72.521 Y104.727 E6.86498
G1 X73.083 Y104.107 E6.91101
G1 X73.481 Y103.694 E6.94256
G1 X74.055 Y103.132 E6.98674
G1 X74.481 Y102.739 E7.01862
G1 X75.127 Y102.18 E7.06561
G1 X75.528 Y101.851 E7.09414
G1 X76.246 Y101.302 E7.14386
G1 X76.759 Y100.936 E7.17852
G1 X77.401 Y100.506 E7.22102
G1 X77.955 Y100.158 E7.25701
G1 X78.584 Y99.79 E7.29709
G1 X79.069 Y99.523 E7.32754
G1 X79.828 Y99.136 E7.3744
G1 X80.291 Y98.916 E7.4026
G1 X81.111 Y98.558 E7.45181
G1 X81.743 Y98.306 E7.48924
G1 X82.432 Y98.057 E7.52953
G1 X82.954 Y97.883 E7.5598
G1 X83.72 Y97.655 E7.60376
G1 X84.247 Y97.513 E7.63378
G1 X85.114 Y97.309 E7.68277
G1 X85.658 Y97.197 E7.71332
G1 X86.472 Y97.059 E7.75873
G1 X87.062 Y96.975 E7.79151
G1 X87.861 Y96.887 E7.83573
G1 X88.401 Y96.843 E7.86553
G1 X89.288 Y96.8 E7.91437
G1 X89.819 Y96.789 E7.94359
G1 X90.675 Y96.799 E7.99067
G1 X91.236 Y96.821 E8.02155
M204 S5000
G0 F2400 X91.255 Y96.402
M204 S3000
G1 F1500 X92.11 Y96.462 E8.0687
G1 X92.679 Y96.52 E8.10016
G1 X93.525 Y96.633 E8.1471
G1 X94.062 Y96.72 E8.17703
G1 X94.954 Y96.894 E8.22701
G1 X95.448 Y97.004 E8.25485
G1 X96.305 Y97.226 E8.30355
G1 X96.925 Y97.406 E8.33906
G1 X97.65 Y97.641 E8.38098
G1 X98.165 Y97.824 E8.41104
G1 X99.037 Y98.165 E8.46254
G1 X99.524 Y98.373 E8.49167
G1 X100.322 Y98.743 E8.54005
G1 X100.806 Y98.983 E8.56976
G1 X101.589 Y99.406 E8.61871
G1 X102.062 Y99.68 E8.64878
G1 X102.819 Y100.148 E8.69773
G1 X103.26 Y100.439 E8.7268
G1 X103.983 Y100.95 E8.77549
G1 X104.455 Y101.306 E8.80801
G1 X105.073 Y101.799 E8.8515
G1 X105.546 Y102.203 E8.88571
G1 X106.174 Y102.773 E8.93236
G1 X106.592 Y103.173 E8.96418
G1 X107.167 Y103.761 E9.00942
G1 X107.569 Y104.196 E9.042
G1 X108.139 Y104.853 E9.08984
G1 X108.475 Y105.263 E9.119
G1 X109.032 Y105.992 E9.16946
G1 X109.413 Y106.525 E9.2055
G1 X109.843 Y107.167 E9.248
G1 X110.204 Y107.743 E9.28539
G1 X110.572 Y108.372 E9.32547
G1 X110.846 Y108.867 E9.35659
G1 X111.239 Y109.638 E9.40419
G1 X111.462 Y110.106 E9.43271
G1 X111.828 Y110.947 E9.48316
G1 X112.019 Y111.418 E9.51111
G1 X112.338 Y112.289 E9.56213
G1 X112.514 Y112.818 E9.5928
G1 X112.749 Y113.603 E9.63787
G1 X112.892 Y114.135 E9.66817
G1 X113.1 Y115.02 E9.71817
G1 X113.215 Y115.575 E9.74935
G1 X113.354 Y116.391 E9.79488
G1 X113.44 Y116.998 E9.8286
G1 X113.531 Y117.816 E9.87387
G1 X113.575 Y118.367 E9.90428
G1 X113.62 Y119.268 E9.9539
G1 X113.631 Y119.811 E9.98377
G1 X113.623 Y120.659 E10.03041
G1 X113.598 Y121.259 E10.06345
G1 X113.539 Y122.096 E10.1096
G1 X113.48 Y122.67 E10.14134
G1 X113.367 Y123.525 E10.18877
G1 X113.28 Y124.062 E10.2187
G1 X113.106 Y124.954 E10.26868
G1 X112.996 Y125.448 E10.29652
G1 X112.774 Y126.305 E10.34522
G1 X112.594 Y126.925 E10.38073
G1 X112.361 Y127.647 E10.42246
G1 X112.177 Y128.163 E10.45259
G1 X111.835 Y129.037 E10.50421
G1 X111.627 Y129.524 E10.53334
G1 X111.267 Y130.302 E10.58049
G1 X111.017 Y130.805 E10.61139
G1 X110.598 Y131.582 E10.65994
G1 X110.324 Y132.057 E10.69011
G1 X109.851 Y132.821 E10.73953
G1 X109.565 Y133.255 E10.76812
G1 X109.056 Y133.975 E10.81662
G1 X108.695 Y134.455 E10.84965
G1 X108.205 Y135.067 E10.89278
G1 X107.803 Y135.54 E10.92692
G1 X107.227 Y136.174 E10.97404
G1 X106.827 Y136.592 E11.00586
G1 X106.239 Y137.167 E11.0511
G1 X105.804 Y137.569 E11.08367
G1 X105.147 Y138.139 E11.13152
G1 X104.737 Y138.475 E11.16067
G1 X104.017 Y139.026 E11.21054
G1 X103.61 Y139.32 E11.23816
G1 X102.844 Y139.836 E11.28896
G1 X102.408 Y140.113 E11.31737
G1 X101.628 Y140.572 E11.36715
G1 X101.133 Y140.846 E11.39827
G1 X100.362 Y141.239 E11.44587
G1 X99.887 Y141.465 E11.47481
G1 X99.055 Y141.827 E11.52471
G1 X98.582 Y142.019 E11.55279
G1 X97.711 Y142.338 E11.60381
G1 X97.177 Y142.516 E11.63477
G1 X96.399 Y142.748 E11.67943
G1 X95.86 Y142.893 E11.71013
G1 X94.981 Y143.1 E11.7598
G1 X94.425 Y143.215 E11.79103
G1 X93.597 Y143.356 E11.83723
G1 X92.995 Y143.441 E11.87067
G1 X92.185 Y143.531 E11.9155
G1 X91.631 Y143.575 E11.94607
G1 X90.732 Y143.62 E11.99558
G1 X90.188 Y143.631 E12.0255
G1 X89.319 Y143.621 E12.07331
G1 X88.745 Y143.598 E12.1049
G1 X87.89 Y143.538 E12.15205
G1 X87.321 Y143.48 E12.18351
G1 X86.475 Y143.367 E12.23045
G1 X85.938 Y143.28 E12.26038
G1 X85.046 Y143.106 E12.31036
G1 X84.552 Y142.996 E12.3382
G1 X83.695 Y142.774 E12.3869
G1 X83.075 Y142.594 E12.42241
G1 X82.35 Y142.359 E12.46433
G1 X81.835 Y142.176 E12.49439
G1 X80.963 Y141.835 E12.54589
G1 X80.476 Y141.627 E12.57502
G1 X79.678 Y141.257 E12.6234
G1 X79.194 Y141.017 E12.65311
G1 X78.409 Y140.594 E12.70216
G1 X77.936 Y140.319 E12.73226
G1 X77.181 Y139.852 E12.78109
G1 X76.74 Y139.561 E12.81015
G1 X76.017 Y139.05 E12.85885
G1 X75.545 Y138.694 E12.89136
G1 X74.927 Y138.201 E12.93485
G1 X74.454 Y137.797 E12.96906
G1 X73.826 Y137.227 E13.01571
G1 X73.407 Y136.826 E13.04761
G1 X72.833 Y136.239 E13.09277
G1 X72.43 Y135.804 E13.12539
G1 X71.861 Y135.146 E13.17324
G1 X71.526 Y134.738 E13.20227
G1 X70.967 Y134.007 E13.25289
G1 X70.585 Y133.472 E13.28905
G1 X70.156 Y132.831 E13.33147
G1 X69.796 Y132.257 E13.36874
G1 X69.428 Y131.628 E13.40883
G1 X69.156 Y131.137 E13.4397
G1 X68.759 Y130.359 E13.48774
G1 X68.535 Y129.887 E13.51648
G1 X68.168 Y129.046 E13.56695
G1 X67.978 Y128.574 E13.59494
G1 X67.662 Y127.711 E13.64549
G1 X67.484 Y127.177 E13.67645
G1 X67.252 Y126.399 E13.7211
G1 X67.107 Y125.86 E13.7518
G1 X66.9 Y124.981 E13.80148
G1 X66.785 Y124.425 E13.8327
G1 X66.644 Y123.597 E13.8789
G1 X66.559 Y122.995 E13.91234
G1 X66.469 Y122.185 E13.95717
G1 X66.425 Y121.631 E13.98774
G1 X66.38 Y120.732 E14.03725
G1 X66.369 Y120.189 E14.06712
G1 X66.379 Y119.319 E14.11498
G1 X66.402 Y118.745 E14.14658
G1 X66.463 Y117.878 E14.19438
G1 X66.521 Y117.32 E14.22524
G1 X66.633 Y116.475 E14.27213
G1 X66.72 Y115.938 E14.30205
G1 X66.894 Y115.046 E14.35204
G1 X67.004 Y114.552 E14.37987
G1 X67.226 Y113.695 E14.42857
G1 X67.406 Y113.075 E14.46408
G1 X67.642 Y112.345 E14.50628
G1 X67.823 Y111.839 E14.53584
G1 X68.165 Y110.963 E14.58756
G1 X68.373 Y110.476 E14.61669
G1 X68.743 Y109.678 E14.66507
G1 X68.983 Y109.194 E14.69479
G1 X69.406 Y108.409 E14.74384
G1 X69.677 Y107.941 E14.77358
G1 X70.149 Y107.179 E14.82288
G1 X70.435 Y106.745 E14.85147
G1 X70.951 Y106.016 E14.9006
G1 X71.306 Y105.545 E14.93304
G1 X71.799 Y104.927 E14.97652
G1 X72.203 Y104.454 E15.01074
G1 X72.773 Y103.825 E15.05743
G1 X73.179 Y103.402 E15.08968
G1 X73.763 Y102.831 E15.1346
G1 X74.197 Y102.43 E15.16711
G1 X74.853 Y101.861 E15.21487
G1 X75.263 Y101.525 E15.24403
G1 X75.992 Y100.968 E15.29449
G1 X76.525 Y100.587 E15.33053
G1 X77.167 Y100.157 E15.37303
G1 X77.743 Y99.796 E15.41042
G1 X78.372 Y99.428 E15.4505
G1 X78.867 Y99.154 E15.48162
G1 X79.638 Y98.761 E15.52922
G1 X80.113 Y98.535 E15.55816
G1 X80.945 Y98.173 E15.60806
G1 X81.418 Y97.981 E15.63614
G1 X82.289 Y97.662 E15.68716
G1 X82.823 Y97.484 E15.71812
G1 X83.601 Y97.252 E15.76278
G1 X84.14 Y97.107 E15.79348
G1 X85.019 Y96.9 E15.84315
G1 X85.575 Y96.785 E15.87438
G1 X86.403 Y96.644 E15.92058
G1 X87.005 Y96.559 E15.95402
G1 X87.815 Y96.469 E15.99885
G1 X88.369 Y96.425 E16.02941
G1 X89.268 Y96.38 E16.07892
G1 X89.812 Y96.369 E16.10885
G1 X90.681 Y96.379 E16.15665
G1 X91.255 Y96.402 E16.18825
M204 S5000
G0 F2400 X90.831 Y111.687
M204 S3000
;TYPE:SUPPORT
G1 F1500 X91.336 Y111.712 E16.216
G1 X91.534 Y111.733 E16.22692
G1 X90.779 Y112.316 E16.27927
G1 X86.255 Y112.995 E16.53029
G1 X86.599 Y112.782 E16.55249
G1 X87.003 Y112.561 E16.57776
G1 X87.43 Y112.36 E16.60366
G1 X87.894 Y112.174 E16.63109
G1 X88.335 Y112.029 E16.65656
G1 X88.839 Y111.896 E16.68517
G1 X89.308 Y111.802 E16.71141
G1 X89.841 Y111.729 E16.74093
G1 X90.309 Y111.694 E16.76669
G1 X90.831 Y111.687 E16.79533
M204 S5000
G0 F2400 X85.474 Y113.567
M204 S3000
G1 F1500 X84.999 Y114.203 E16.83889
G1 X82.597 Y117.422 E17.05928
G1 X82.743 Y117.017 E17.08291
G1 X83.036 Y116.388 E17.12098
G1 X83.35 Y115.835 E17.15588
G1 X83.883 Y115.085 E17.20637
G1 X84.168 Y114.747 E17.23063
G1 X84.474 Y114.426 E17.25496
G1 X84.813 Y114.11 E17.28039
G1 X85.474 Y113.567 E17.32733
M204 S5000
G0 F2400 X82.58 Y117.467
M204 S3000
G1 F1500 X82.52 Y120.147 E17.47443
G1 X82.416 Y120.567 E17.49817
G1 X82.883 Y123.288 E17.64966
G1 X82.706 Y122.893 E17.67342
G1 X82.518 Y122.375 E17.70365
G1 X82.328 Y121.642 E17.74521
G1 X82.22 Y121.038 E17.77887
G1 X82.158 Y120.294 E17.81984
G1 X82.159 Y119.686 E17.8532
G1 X82.223 Y118.969 E17.8927
G1 X82.334 Y118.332 E17.92819
G1 X82.516 Y117.646 E17.96713
G1 X82.58 Y117.467 E17.97756
M204 S5000
G0 F2400 X86.17 Y127.058
M204 S3000
G1 F1500 X86.818 Y126.92 E18.01392
G1 X90.444 Y127.803 E18.2187
G1 X95.456 Y125.939 E18.51213
G1 X95.804 Y125.6 E18.53879
G1 X97.134 Y122.28 E18.73504
G1 X97.995 Y119.34 E18.90314
G1 X95.877 Y113.468 E19.24568
G1 X96.171 Y113.699 E19.26619
G1 X96.559 Y114.043 E19.29465
G1 X96.935 Y114.42 E19.32386
G1 X97.278 Y114.806 E19.3522
G1 X97.618 Y115.24 E19.38245
G1 X97.887 Y115.625 E19.40822
G1 X98.19 Y116.115 E19.43984
G1 X98.421 Y116.548 E19.46677
G1 X98.653 Y117.045 E19.49686
G1 X98.833 Y117.502 E19.52382
G1 X99.007 Y118.019 E19.55375
G1 X99.116 Y118.522 E19.58199
G1 X99.226 Y119.57 E19.63981
G1 X99.235 Y120.105 E19.66917
G1 X99.216 Y120.607 E19.69674
G1 X99.16 Y121.164 E19.72746
G1 X99.076 Y121.71 E19.75777
G1 X98.96 Y122.239 E19.78749
G1 X98.826 Y122.721 E19.81494
G1 X98.663 Y123.15 E19.84012
G1 X98.448 Y123.588 E19.8669
G1 X98.212 Y124.018 E19.89381
G1 X97.946 Y124.446 E19.92146
G1 X97.645 Y124.87 E19.95
G1 X97.313 Y125.29 E19.97937
G1 X96.97 Y125.671 E20.00751
G1 X96.597 Y126.042 E20.03637
G1 X96.191 Y126.398 E20.066
G1 X95.756 Y126.737 E20.09627
G1 X95.326 Y127.034 E20.12494
G1 X94.866 Y127.309 E20.15435
G1 X94.4 Y127.551 E20.18316
G1 X93.905 Y127.772 E20.21291
G1 X93.41 Y127.954 E20.24185
G1 X92.725 Y128.149 E20.28093
G1 X92.227 Y128.258 E20.3089
G1 X91.67 Y128.343 E20.33982
G1 X91.169 Y128.388 E20.36743
G1 X90.615 Y128.403 E20.39784
G1 X90.092 Y128.381 E20.42656
G1 X89.545 Y128.324 E20.45674
G1 X89.022 Y128.237 E20.48583
G1 X88.525 Y128.118 E20.51387
G1 X87.986 Y127.952 E20.54482
G1 X87.399 Y127.724 E20.57938
G1 X86.893 Y127.484 E20.61011
G1 X86.508 Y127.273 E20.6342
G1 X86.17 Y127.058 E20.65618
M204 S5000
G0 F2400 X92 Y127.405
M204 S3000
G1 F1500 X92 Y128.121 E20.69547
M204 S5000
G0 F2400 X97.394 Y122
M204 S3000
G1 F1500 X98.838 Y122 E20.7747
M204 S5000
G1 F2700 E7.7747
;MESH:filtro encajevidrio.stl
G0 F2400 X100.775 Y120.115
G0 X100.737 Y118.264
G0 X100.639 Y118.279
M204 S3000
;TYPE:WALL-INNER
G1 F2100 E20.7747
G1 F1500 X100.491 Y117.603 E20.81277
