;FLAVOR:Marlin
;TIME:4556
;Filament used: 4.51229m
;Layer height: 0.3
;MINX:50.652
;MINY:84.779
;MINZ:0.3
;MAXX:125.068
;MAXY:159.221
;MAXZ:16.5
;Generated with Cura_SteamEngine 4.6.2
M140 S70
M105
M190 S70
M104 S235
M105
M109 S235
M82 ;absolute extrusion mode
G28 ;Home
G1 Z15.0 F6000 ;Move the platform down 15mm
G92 E0
G1 F200 E3
G92 E0
G92 E0
G92 E0
G1 F2700 E-10
;LAYER_COUNT:55
;LAYER:0
M106 S25.5
G0 F2160 X88.554 Y85.341 Z0.3
;TYPE:SKIRT
G1 F2100 E0
G1 F900 X91.692 Y86.171 E0.16194
G1 X94.296 Y86.783 E0.29539
G1 X96.906 Y87.32 E0.42833
G1 X100.836 Y87.983 E0.62717
G1 X101.858 Y88.135 E0.67872
G1 X102.488 Y88.269 E0.71086
G1 X103.184 Y88.518 E0.74773
G1 X103.727 Y88.765 E0.7775
G1 X104.494 Y89.156 E0.82045
G1 X105.27 Y89.561 E0.86412
G1 X105.974 Y89.942 E0.90405
G1 X106.475 Y90.232 E0.93293
G1 X107.612 Y90.933 E0.99957
G1 X108.244 Y91.336 E1.03697
G1 X108.747 Y91.677 E1.06729
G1 X109.801 Y92.438 E1.13215
G1 X110.46 Y92.929 E1.17315
G1 X110.867 Y93.251 E1.19904
G1 X111.901 Y94.121 E1.26645
G1 X112.514 Y94.651 E1.30688
G1 X112.944 Y95.046 E1.33601
G1 X113.902 Y95.98 E1.40276
G1 X114.413 Y96.49 E1.43878
G1 X114.845 Y96.949 E1.47023
G1 X115.706 Y97.922 E1.53505
G1 X116.216 Y98.514 E1.57403
G1 X116.535 Y98.902 E1.59909
G1 X117.413 Y100.048 E1.67112
G1 X117.856 Y100.645 E1.70821
G1 X118.151 Y101.066 E1.73385
G1 X118.898 Y102.206 E1.80185
G1 X119.354 Y102.926 E1.84437
G1 X119.635 Y103.399 E1.87182
G1 X120.282 Y104.564 E1.9383
G1 X120.641 Y105.232 E1.97614
G1 X120.909 Y105.771 E2.00617
G1 X121.455 Y106.947 E2.07085
G1 X121.795 Y107.711 E2.11257
G1 X121.997 Y108.201 E2.13902
G1 X122.475 Y109.468 E2.20658
G1 X122.737 Y110.193 E2.24504
G1 X122.915 Y110.738 E2.27364
G1 X123.297 Y112.032 E2.34095
G1 X123.501 Y112.76 E2.37867
G1 X123.651 Y113.359 E2.40948
G1 X123.923 Y114.606 E2.47315
G1 X124.087 Y115.407 E2.51394
G1 X124.182 Y115.967 E2.54228
G1 X124.37 Y117.285 E2.6087
G1 X124.47 Y118.069 E2.64813
G1 X124.529 Y118.67 E2.67826
G1 X124.62 Y120.004 E2.74497
G1 X124.647 Y120.511 E2.7703
G1 X124.668 Y121.358 E2.81257
G1 X124.642 Y122.002 E2.84473
G1 X124.497 Y122.798 E2.88509
G1 X124.222 Y123.84 E2.93886
G1 X123.541 Y126.477 E3.07473
G1 X122.933 Y129.132 E3.21062
G1 X122.421 Y131.723 E3.34239
G1 X121.97 Y134.385 E3.47709
G1 X121.764 Y135.81 E3.54892
G1 X121.565 Y136.667 E3.59281
G1 X121.222 Y137.592 E3.64203
G1 X120.578 Y138.901 E3.71481
G1 X120.072 Y139.822 E3.76724
G1 X119.65 Y140.563 E3.80978
G1 X119.232 Y141.274 E3.85093
G1 X118.906 Y141.794 E3.88155
G1 X118.167 Y142.898 E3.94783
G1 X117.77 Y143.474 E3.98273
G1 X117.388 Y143.996 E4.015
G1 X116.607 Y144.997 E4.07835
G1 X116.097 Y145.632 E4.11898
G1 X115.721 Y146.073 E4.14789
G1 X114.826 Y147.06 E4.21436
G1 X114.294 Y147.632 E4.25334
G1 X113.878 Y148.053 E4.28286
G1 X112.93 Y148.958 E4.34825
G1 X112.357 Y149.491 E4.38729
G1 X111.919 Y149.873 E4.41629
G1 X110.942 Y150.678 E4.47945
G1 X110.038 Y151.403 E4.53726
G1 X109.379 Y151.889 E4.57811
G1 X108.048 Y152.77 E4.65774
G1 X106.803 Y153.581 E4.73187
G1 X106.213 Y153.934 E4.76617
G1 X105.482 Y154.334 E4.80775
G1 X104.062 Y155.057 E4.88724
G1 X103.433 Y155.366 E4.92221
G1 X102.858 Y155.627 E4.95371
G1 X101.672 Y156.125 E5.01789
G1 X100.932 Y156.425 E5.05772
G1 X100.377 Y156.628 E5.08721
G1 X99.109 Y157.054 E5.15394
G1 X98.397 Y157.281 E5.19123
G1 X97.908 Y157.425 E5.21666
G1 X96.574 Y157.768 E5.28538
G1 X95.728 Y157.972 E5.32879
G1 X95.217 Y158.08 E5.35485
G1 X93.931 Y158.311 E5.42004
G1 X93.098 Y158.448 E5.46215
G1 X92.524 Y158.526 E5.49105
G1 X91.186 Y158.666 E5.55817
G1 X90.473 Y158.73 E5.59388
G1 X89.583 Y158.786 E5.63837
G1 X88.636 Y158.821 E5.68565
G1 X87.992 Y158.803 E5.7178
G1 X87.159 Y158.659 E5.75997
G1 X84.179 Y157.871 E5.91375
G1 X81.616 Y157.266 E6.04514
G1 X78.933 Y156.712 E6.18181
G1 X75.03 Y156.053 E6.37929
G1 X74.186 Y155.928 E6.42186
G1 X73.49 Y155.79 E6.45726
G1 X72.87 Y155.616 E6.48939
G1 X72.335 Y155.396 E6.51825
G1 X71.807 Y155.142 E6.54748
G1 X71.201 Y154.834 E6.58139
G1 X70.423 Y154.428 E6.62517
G1 X69.736 Y154.057 E6.66413
G1 X69.248 Y153.775 E6.69225
G1 X68.1 Y153.067 E6.75954
G1 X67.466 Y152.662 E6.79707
G1 X66.966 Y152.322 E6.82723
G1 X65.913 Y151.562 E6.89202
G1 X65.251 Y151.07 E6.93317
G1 X64.76 Y150.678 E6.96452
G1 X63.806 Y149.874 E7.02676
G1 X63.198 Y149.347 E7.0669
G1 X62.778 Y148.963 E7.0953
G1 X61.867 Y148.075 E7.15877
G1 X61.268 Y147.475 E7.20106
G1 X60.805 Y146.979 E7.23491
G1 X60.017 Y146.091 E7.29415
G1 X59.483 Y145.47 E7.33501
G1 X59.148 Y145.061 E7.36138
G1 X58.355 Y144.024 E7.42651
G1 X57.843 Y143.332 E7.46946
G1 X57.481 Y142.814 E7.50099
G1 X56.782 Y141.742 E7.56483
G1 X56.377 Y141.102 E7.60262
G1 X56.051 Y140.554 E7.63443
G1 X55.448 Y139.465 E7.69654
G1 X55.058 Y138.738 E7.73769
G1 X54.792 Y138.205 E7.76741
G1 X54.257 Y137.051 E7.83087
G1 X53.918 Y136.286 E7.87262
G1 X53.711 Y135.785 E7.89966
G1 X53.238 Y134.527 E7.96671
G1 X52.975 Y133.801 E8.00524
G1 X52.786 Y133.222 E8.03563
G1 X52.407 Y131.938 E8.10242
G1 X52.206 Y131.221 E8.13957
G1 X52.067 Y130.659 E8.16845
G1 X51.791 Y129.396 E8.23295
G1 X51.626 Y128.593 E8.27385
G1 X51.509 Y127.877 E8.31004
G1 X51.348 Y126.744 E8.36714
G1 X51.242 Y125.907 E8.40923
G1 X51.185 Y125.323 E8.4385
G1 X51.094 Y123.998 E8.50476
G1 X51.053 Y123.25 E8.54214
G1 X51.052 Y122.407 E8.58419
G1 X51.1 Y121.764 E8.61636
G1 X51.205 Y121.219 E8.64405
G1 X51.887 Y118.67 E8.7757
G1 X52.509 Y116.086 E8.90829
G1 X53.069 Y113.436 E9.04342
G1 X53.542 Y110.827 E9.17571
G1 X53.813 Y109.112 E9.26233
G1 X53.93 Y108.324 E9.30208
G1 X54.073 Y107.611 E9.33836
G1 X54.248 Y106.991 E9.3705
G1 X54.444 Y106.509 E9.39646
G1 X54.666 Y106.042 E9.42225
G1 X55.39 Y104.636 E9.50115
G1 X55.639 Y104.183 E9.52694
G1 X56.059 Y103.442 E9.56944
G1 X56.325 Y102.991 E9.59556
G1 X57.133 Y101.716 E9.67087
G1 X57.436 Y101.26 E9.69818
G1 X57.86 Y100.641 E9.73561
G1 X58.464 Y99.913 E9.78281
G1 X59.196 Y99.235 E9.83258
G1 X59.944 Y98.747 E9.87714
G1 X60.71 Y98.337 E9.92049
G1 X61.926 Y97.71 E9.98874
G1 X64.23 Y96.44 E10.12
G1 X66.576 Y95.058 E10.25584
G1 X68.846 Y93.633 E10.38955
G1 X71.06 Y92.154 E10.52239
G1 X73.255 Y90.597 E10.65665
G1 X75.392 Y88.987 E10.79014
G1 X76.416 Y88.166 E10.85562
G1 X77.572 Y87.254 E10.92908
G1 X78.024 Y86.923 E10.95703
G1 X78.571 Y86.581 E10.98921
G1 X79.155 Y86.309 E11.02135
G1 X79.727 Y86.115 E11.05149
G1 X80.267 Y85.975 E11.07932
G1 X81.181 Y85.79 E11.12584
G1 X81.82 Y85.678 E11.15821
G1 X82.374 Y85.59 E11.1862
G1 X83.75 Y85.416 E11.25539
G1 X84.499 Y85.337 E11.29297
G1 X85.259 Y85.268 E11.33104
G1 X86.111 Y85.214 E11.37363
G1 X87.075 Y85.179 E11.42176
G1 X87.72 Y85.197 E11.45395
G1 X88.554 Y85.341 E11.49617
G0 F2160 X88.654 Y84.953
G1 F900 X91.781 Y85.781 E11.65756
G1 X94.397 Y86.395 E11.79161
G1 X97.001 Y86.931 E11.92425
G1 X100.853 Y87.581 E12.11915
G1 X101.917 Y87.739 E12.17281
G1 X102.572 Y87.877 E12.20621
G1 X103.345 Y88.151 E12.24712
G1 X103.908 Y88.409 E12.27802
G1 X104.675 Y88.8 E12.32097
G1 X105.455 Y89.206 E12.36484
G1 X106.165 Y89.59 E12.40511
G1 X106.685 Y89.891 E12.43509
G1 X107.822 Y90.592 E12.50173
G1 X108.46 Y90.999 E12.53948
G1 X108.981 Y91.353 E12.57091
G1 X110.035 Y92.114 E12.63577
G1 X110.699 Y92.608 E12.67706
G1 X111.124 Y92.945 E12.70412
G1 X112.158 Y93.815 E12.77153
G1 X112.776 Y94.349 E12.81228
G1 X113.223 Y94.759 E12.84254
G1 X114.181 Y95.693 E12.90929
G1 X114.696 Y96.207 E12.94559
G1 X115.145 Y96.684 E12.97828
G1 X116.006 Y97.657 E13.0431
G1 X116.519 Y98.253 E13.08233
G1 X116.845 Y98.65 E13.10796
G1 X117.731 Y99.805 E13.18058
G1 X118.177 Y100.407 E13.21796
G1 X118.484 Y100.844 E13.2446
G1 X119.233 Y101.987 E13.31278
G1 X119.693 Y102.712 E13.35562
G1 X119.985 Y103.205 E13.3842
G1 X120.632 Y104.37 E13.45069
G1 X120.994 Y105.043 E13.48881
G1 X121.272 Y105.603 E13.52
G1 X121.818 Y106.779 E13.58469
G1 X122.161 Y107.549 E13.62675
G1 X122.372 Y108.06 E13.65433
G1 X122.85 Y109.327 E13.72189
G1 X123.114 Y110.057 E13.76062
G1 X123.299 Y110.624 E13.79037
G1 X123.681 Y111.918 E13.85768
G1 X123.886 Y112.652 E13.8957
G1 X124.041 Y113.274 E13.92768
G1 X124.313 Y114.521 E13.99136
G1 X124.479 Y115.327 E14.03242
G1 X124.578 Y115.91 E14.06192
G1 X124.766 Y117.228 E14.12834
G1 X124.867 Y118.019 E14.16812
G1 X124.928 Y118.643 E14.1994
G1 X125.019 Y119.977 E14.26611
G1 X125.046 Y120.49 E14.29174
G1 X125.068 Y121.349 E14.33461
G1 X125.042 Y122.018 E14.36801
G1 X124.884 Y122.9 E14.41271
G1 X124.609 Y123.942 E14.46648
G1 X123.932 Y126.56 E14.60139
G1 X123.329 Y129.195 E14.73625
G1 X122.815 Y131.796 E14.86852
G1 X122.362 Y134.471 E15.00388
G1 X122.16 Y135.867 E15.07425
G1 X121.946 Y136.79 E15.12152
G1 X121.584 Y137.762 E15.17327
G1 X120.936 Y139.079 E15.2465
G1 X120.421 Y140.017 E15.29988
G1 X119.998 Y140.761 E15.34258
G1 X119.576 Y141.478 E15.38409
G1 X119.239 Y142.016 E15.41576
G1 X118.5 Y143.12 E15.48204
G1 X118.099 Y143.701 E15.51726
G1 X117.703 Y144.242 E15.55071
G1 X116.922 Y145.243 E15.61405
G1 X116.409 Y145.882 E15.65493
G1 X116.017 Y146.342 E15.68508
G1 X115.122 Y147.329 E15.75156
G1 X114.587 Y147.905 E15.79078
G1 X114.154 Y148.343 E15.8215
G1 X113.206 Y149.248 E15.88689
G1 X112.629 Y149.784 E15.92618
G1 X112.173 Y150.182 E15.95638
G1 X111.196 Y150.987 E16.01954
G1 X110.288 Y151.715 E16.0776
G1 X109.615 Y152.212 E16.11934
G1 X108.217 Y153.137 E16.20297
G1 X107.021 Y153.916 E16.27418
G1 X106.587 Y154.181 E16.29955
G1 X105.674 Y154.685 E16.35158
G1 X104.243 Y155.414 E16.4317
G1 X103.609 Y155.725 E16.46693
G1 X103.013 Y155.996 E16.4996
G1 X101.827 Y156.494 E16.56377
G1 X101.081 Y156.796 E16.60392
G1 X100.504 Y157.007 E16.63457
G1 X99.236 Y157.433 E16.70131
G1 X98.518 Y157.663 E16.73892
G1 X98.019 Y157.809 E16.76486
G1 X96.673 Y158.156 E16.83421
G1 X95.821 Y158.361 E16.87793
G1 X95.288 Y158.474 E16.90511
G1 X94.002 Y158.705 E16.9703
G1 X93.162 Y158.843 E17.01277
G1 X92.566 Y158.924 E17.04277
G1 X91.228 Y159.064 E17.10989
G1 X90.509 Y159.129 E17.14591
G1 X89.607 Y159.186 E17.191
G1 X88.65 Y159.221 E17.23878
G1 X87.981 Y159.204 E17.27216
G1 X87.059 Y159.047 E17.31883
G1 X84.123 Y158.269 E17.47036
G1 X81.48 Y157.646 E17.60583
G1 X78.895 Y157.112 E17.73752
G1 X74.947 Y156.445 E17.93728
G1 X74.128 Y156.324 E17.97858
G1 X73.407 Y156.181 E18.01525
G1 X72.762 Y156.002 E18.04865
G1 X72.162 Y155.757 E18.08098
G1 X71.626 Y155.498 E18.11068
G1 X71.02 Y155.19 E18.1446
G1 X70.238 Y154.782 E18.1886
G1 X69.545 Y154.409 E18.22787
G1 X69.038 Y154.115 E18.2571
G1 X67.89 Y153.407 E18.3244
G1 X67.25 Y152.999 E18.36226
G1 X66.732 Y152.647 E18.39351
G1 X65.679 Y151.887 E18.45829
G1 X65.012 Y151.39 E18.49979
G1 X64.509 Y150.988 E18.53192
G1 X63.548 Y150.18 E18.59456
G1 X62.936 Y149.649 E18.63498
G1 X62.499 Y149.249 E18.66454
G1 X61.588 Y148.361 E18.72801
G1 X60.985 Y147.757 E18.77059
G1 X60.511 Y147.25 E18.80521
G1 X59.718 Y146.356 E18.86483
G1 X59.18 Y145.731 E18.90598
G1 X58.831 Y145.305 E18.93345
G1 X58.037 Y144.267 E18.99865
G1 X57.521 Y143.57 E19.04192
G1 X57.146 Y143.033 E19.07459
G1 X56.447 Y141.961 E19.13844
G1 X56.039 Y141.316 E19.17652
G1 X55.701 Y140.748 E19.20949
G1 X55.098 Y139.659 E19.2716
G1 X54.705 Y138.926 E19.31309
G1 X54.429 Y138.373 E19.34393
G1 X53.894 Y137.219 E19.40738
G1 X53.552 Y136.448 E19.44946
G1 X53.336 Y135.926 E19.47765
G1 X52.863 Y134.668 E19.5447
G1 X52.598 Y133.937 E19.58349
G1 X52.402 Y133.335 E19.61508
G1 X52.023 Y132.051 E19.68187
G1 X51.821 Y131.328 E19.71932
G1 X51.676 Y130.745 E19.74929
G1 X51.4 Y129.482 E19.81379
G1 X51.234 Y128.673 E19.85499
G1 X51.113 Y127.939 E19.89211
G1 X50.952 Y126.799 E19.94955
G1 X50.845 Y125.957 E19.99189
G1 X50.786 Y125.351 E20.02227
G1 X50.695 Y124.026 E20.08853
G1 X50.654 Y123.271 E20.12625
G1 X50.652 Y122.402 E20.16961
G1 X50.7 Y121.735 E20.20297
G1 X50.816 Y121.123 E20.23405
G1 X51.498 Y118.578 E20.3655
G1 X52.115 Y116.015 E20.49702
G1 X52.671 Y113.387 E20.63103
G1 X53.151 Y110.737 E20.76539
G1 X53.426 Y109.001 E20.85308
G1 X53.535 Y108.266 E20.89015
G1 X53.682 Y107.527 E20.92774
G1 X53.862 Y106.882 E20.96115
G1 X54.081 Y106.34 E20.99032
G1 X54.31 Y105.859 E21.01689
G1 X55.034 Y104.453 E21.09579
G1 X55.289 Y103.989 E21.12221
G1 X55.711 Y103.244 E21.16492
G1 X55.981 Y102.787 E21.19141
G1 X56.795 Y101.501 E21.26734
G1 X57.104 Y101.038 E21.29511
G1 X57.53 Y100.415 E21.33276
G1 X57.941 Y99.887 E21.36614
G1 X58.43 Y99.38 E21.40129
G1 X58.93 Y98.935 E21.43468
G1 X59.755 Y98.395 E21.48387
G1 X60.521 Y97.985 E21.52722
G1 X61.702 Y97.376 E21.59351
G1 X64.066 Y96.073 E21.72818
G1 X66.356 Y94.724 E21.86078
G1 X68.617 Y93.304 E21.99398
G1 X70.836 Y91.822 E22.12711
G1 X73.005 Y90.283 E22.25979
G1 X75.167 Y88.655 E22.39482
G1 X76.166 Y87.854 E22.4587
G1 X77.324 Y86.94 E22.5323
G1 X77.791 Y86.598 E22.56118
G1 X78.358 Y86.241 E22.59461
G1 X78.962 Y85.955 E22.62795
G1 X79.606 Y85.734 E22.66191
G1 X80.188 Y85.583 E22.69191
G1 X81.102 Y85.398 E22.73844
G1 X81.752 Y85.284 E22.77136
G1 X82.312 Y85.195 E22.79965
G1 X83.701 Y85.019 E22.8695
G1 X84.457 Y84.939 E22.90743
G1 X85.224 Y84.869 E22.94585
G1 X86.087 Y84.815 E22.98899
G1 X87.061 Y84.779 E23.03762
G1 X87.73 Y84.796 E23.07101
G1 X88.654 Y84.953 E23.11777
G1 F2700 E13.11777
;MESH:Bottom.STL
G0 F2160 X87.621 Y89.779
G0 X87.334 Y90.775
G0 X86.377 Y91.409
;TYPE:WALL-INNER
G1 F2100 E23.11777
G1 F900 X86.378 Y91.408 E23.11784
G1 X86.635 Y91.397 E23.13067
G1 X86.583 Y91.649 E23.13845
G1 X85.406 Y97.255 E23.42423
G1 X85.307 Y97.726 E23.44824
G1 X85.044 Y97.323 E23.46116
G1 X81.723 Y92.236 E23.76425
G1 X81.603 Y92.051 E23.77525
G1 X81.584 Y92.023 E23.77694
G1 X81.694 Y91.991 E23.77986
G1 X81.911 Y91.954 E23.7875
G1 X83.559 Y91.669 E23.87094
G1 X85.792 Y91.437 E23.98294
G1 X86.377 Y91.409 E24.01216
G0 F2160 X85.598 Y99.161
G0 X83.512 Y110.155
G0 X83.603 Y111.039
G0 X83.957 Y111.827
G0 X85.287 Y114.228
G0 X89.213 Y114.281
G0 X89.434 Y113.484
G0 X89.013 Y112.726
G0 X84.682 Y111.411
G0 X85.311 Y109.858
G0 X94.808 Y111.664
G0 X95.393 Y110.883
G0 X85.413 Y107.932
G0 X86.039 Y106.378
G0 X95.538 Y108.183
G0 X96.123 Y107.401
G0 X91.362 Y105.547
G0 X91.522 Y101.699
G1 F900 X91.713 Y101.65 E24.022
G1 X92.115 Y101.72 E24.04236
G1 X92.645 Y101.851 E24.06959
G1 X93.386 Y102.122 E24.10896
G1 X94.683 Y102.644 E24.17871
G1 X95.984 Y103.351 E24.25258
G1 X95.99 Y103.428 E24.25644
G1 X95.94 Y103.929 E24.28155
G1 X95.822 Y104.483 E24.30981
G1 X88.759 Y103.001 E24.66986
G1 X88.354 Y102.379 E24.70689
G1 X88.108 Y102.014 E24.72885
G1 X88.031 Y101.899 E24.73576
G1 X87.893 Y101.682 E24.74859
G1 X87.894 Y101.679 E24.74874
G1 X88.006 Y101.668
G1 X88.144 Y101.654 E24.75442
G1 X88.863 Y101.577 E24.79049
G1 X89.386 Y101.533 E24.81668
G1 X90.745 Y101.576 E24.88451
G1 X91.522 Y101.699 E24.92376
G0 F2160 X91.591 Y105.838
G0 X95.703 Y106.864
G0 X96.081 Y107.756
G0 X86.269 Y106.731
G0 X85.689 Y107.512
G0 X94.974 Y110.344
G0 X95.342 Y111.249
G0 X85.558 Y110.21
G0 X84.954 Y110.924
G0 X89.013 Y112.726
G0 X89.434 Y113.484
G0 X89.213 Y114.281
G0 X87.119 Y114.791
G1 F900 X87.12 Y114.79 E24.92383
G1 X87.84 Y114.769 E24.95977
G1 X87.234 Y115.159 E24.97839
G1 X86.542 Y115.604 E25.01944
G1 X86.29 Y115.219 E25.04239
G1 X86.127 Y114.969 E25.05728
G1 X86.42 Y114.914 E25.06598
G1 X87.06 Y114.793 E25.09848
G1 X87.119 Y114.791 E25.10142
G0 F2160 X88.964 Y115.38
G0 X93.014 Y116.77
G1 F900 X93.143 Y116.687 E25.10907
G1 X96.982 Y114.199 E25.33731
G1 X97.226 Y113.75 E25.3628
G1 X101.214 Y94.724 E26.33264
G1 X101.268 Y94.466 E26.34579
G1 X101.502 Y94.588 E26.3537
G1 X103.011 Y95.376 E26.43863
G1 X104.898 Y96.544 E26.54935
G1 X106.706 Y97.853 E26.66071
G1 X108.448 Y99.319 E26.7743
G1 X110.021 Y100.853 E26.88392
G1 X111.508 Y102.532 E26.99581
G1 X112.878 Y104.325 E27.10839
G1 X114.093 Y106.188 E27.21935
G1 X115.18 Y108.149 E27.33121
G1 X116.122 Y110.188 E27.44327
G1 X116.9 Y112.254 E27.55341
G1 X117.54 Y114.434 E27.66676
G1 X118.012 Y116.608 E27.77775
G1 X118.325 Y118.82 E27.8892
G1 X118.44 Y120.516 E27.97401
G1 X118.457 Y120.778 E27.98711
G1 X118.2 Y120.725 E27.99499
G1 X98.841 Y116.664 E28.98184
G1 X95.185 Y119.05 E29.19965
G1 X94.912 Y119.381 E29.22105
G1 X94.756 Y119.571 E29.23332
G1 X94.789 Y119.751 E29.24245
G1 X95.021 Y120.983 E29.30499
G1 X95.063 Y121.201 E29.31607
G1 X95.095 Y122.237 E29.36778
