;FLAVOR:Marlin
;TIME:5798
;Filament used: 5.82126m
;Layer height: 0.2
;MINX:46.37
;MINY:99.005
;MINZ:0.3
;MAXX:133.63
;MAXY:187.906
;MAXZ:37.9
;Generated with Cura_SteamEngine 4.6.2
M140 S70
M105
M190 S70
M104 S237
M105
M109 S237
M82 ;absolute extrusion mode
G28 ;Home
G1 Z15.0 F6000 ;Move the platform down 15mm
G92 E0
G1 F200 E3
G92 E0
G92 E0
G92 E0
G1 F2700 E-13
;LAYER_COUNT:189
;LAYER:0
M107
M204 S5000
G0 F1200 X104.135 Y99.475 Z0.3
M204 S3000
;TYPE:SKIRT
G1 F2100 E0
G1 F1200 X104.769 Y99.598 E0.03721
G1 X105.382 Y99.798 E0.07437
G1 X105.966 Y100.073 E0.11157
G1 X106.512 Y100.417 E0.14875
G1 X107.01 Y100.827 E0.18592
G1 X107.455 Y101.295 E0.22314
G1 X107.985 Y102.056 E0.27657
G1 X108.249 Y102.518 E0.30724
G1 X109.607 Y104.821 E0.46129
G1 X111.043 Y107.108 E0.6169
G1 X112.528 Y109.328 E0.77081
G1 X114.072 Y111.502 E0.92446
G1 X115.707 Y113.671 E1.08098
G1 X117.358 Y115.736 E1.23333
G1 X119.09 Y117.782 E1.38779
G1 X120.912 Y119.814 E1.54506
G1 X122.729 Y121.729 E1.69718
G1 X124.63 Y123.623 E1.85181
G1 X126.601 Y125.479 E2.00781
G1 X128.59 Y127.248 E2.1612
G1 X130.642 Y128.972 E2.31563
G1 X131.308 Y129.518 E2.36526
G1 X131.778 Y129.96 E2.40243
G1 X132.19 Y130.457 E2.43963
G1 X132.537 Y131.001 E2.47681
G1 X132.814 Y131.583 E2.51396
G1 X133.018 Y132.196 E2.55118
G1 X133.144 Y132.829 E2.58837
G1 X133.202 Y133.574 E2.63143
G1 X133.21 Y177.859 E5.18328
G1 X133.201 Y178.586 E5.22517
G1 X133.153 Y179.23 E5.26238
G1 X133.026 Y179.863 E5.29959
G1 X132.821 Y180.475 E5.33678
G1 X132.543 Y181.057 E5.37394
G1 X132.195 Y181.6 E5.41111
G1 X131.782 Y182.096 E5.4483
G1 X131.311 Y182.537 E5.48548
G1 X130.789 Y182.917 E5.52268
G1 X130.224 Y183.229 E5.55988
G1 X129.625 Y183.469 E5.59706
G1 X129.001 Y183.633 E5.63424
G1 X128.137 Y183.73 E5.68434
G1 X95.889 Y183.741 E7.54257
G1 X93.211 Y183.779 E7.6969
G1 X90.541 Y183.892 E7.85089
G1 X87.865 Y184.082 E8.00548
G1 X85.173 Y184.349 E8.16136
G1 X82.529 Y184.687 E8.31496
G1 X79.861 Y185.106 E8.47058
G1 X77.236 Y185.594 E8.62443
G1 X74.632 Y186.155 E8.77793
G1 X72.039 Y186.791 E8.93177
G1 X71.192 Y187.024 E8.98239
G1 X70.108 Y187.307 E9.04695
G1 X69.474 Y187.431 E9.08417
G1 X68.969 Y187.472 E9.11337
G1 X68.465 Y187.486 E9.14242
G1 X56.289 Y187.486 E9.84404
G1 X55.514 Y187.475 E9.88871
G1 X54.87 Y187.426 E9.92592
G1 X54.238 Y187.298 E9.96308
G1 X53.626 Y187.093 E10.00027
G1 X53.045 Y186.813 E10.03744
G1 X52.502 Y186.464 E10.07463
G1 X51.78 Y185.822 E10.1303
G1 X50.006 Y183.922 E10.28009
G1 X48.3 Y182.187 E10.4203
G1 X47.877 Y181.699 E10.45752
G1 X47.517 Y181.164 E10.49467
G1 X47.227 Y180.587 E10.53189
G1 X47.01 Y179.98 E10.56903
G1 X46.869 Y179.35 E10.60623
G1 X46.81 Y178.764 E10.64017
G1 X46.79 Y178.195 E10.67298
G1 X46.79 Y134.238 E13.20592
G1 X46.801 Y133.465 E13.25047
G1 X46.85 Y132.822 E13.28763
G1 X46.978 Y132.19 E13.32478
G1 X47.184 Y131.578 E13.36199
G1 X47.463 Y130.996 E13.39918
G1 X47.812 Y130.454 E13.43633
G1 X48.178 Y130.01 E13.46949
G1 X48.611 Y129.54 E13.50631
G1 X49.754 Y128.345 E13.6016
G1 X50.676 Y127.339 E13.68023
G1 X51.621 Y126.293 E13.76146
G1 X52.036 Y125.882 E13.79512
G1 X53.096 Y124.945 E13.87664
G1 X55.103 Y123.122 E14.03288
G1 X56.999 Y121.298 E14.18448
G1 X58.899 Y119.365 E14.34066
G1 X60.722 Y117.402 E14.49503
G1 X62.497 Y115.378 E14.65016
G1 X64.19 Y113.335 E14.80305
G1 X65.828 Y111.24 E14.95629
G1 X67.442 Y109.052 E15.11296
G1 X68.984 Y106.832 E15.26871
G1 X70.446 Y104.595 E15.4227
G1 X71.363 Y103.115 E15.52303
G1 X72.016 Y102.04 E15.59551
G1 X72.385 Y101.51 E15.63272
G1 X72.816 Y101.03 E15.66989
G1 X73.303 Y100.607 E15.70706
G1 X73.839 Y100.248 E15.74424
G1 X74.415 Y99.957 E15.78142
G1 X75.023 Y99.74 E15.81862
G1 X75.652 Y99.599 E15.85577
G1 X76.195 Y99.542 E15.88723
G1 X76.734 Y99.52 E15.91831
G1 X80.908 Y99.504 E16.15884
G1 X81.999 Y99.51 E16.2217
G1 X84.518 Y99.655 E16.3671
G1 X87.222 Y99.761 E16.52303
G1 X89.934 Y99.789 E16.67931
G1 X92.605 Y99.743 E16.83325
G1 X95.241 Y99.622 E16.9853
G1 X96.731 Y99.511 E17.0714
G1 X97.546 Y99.461 E17.11845
G1 X98.158 Y99.441 E17.15373
G1 X102.413 Y99.425 E17.39892
G1 X103.491 Y99.431 E17.46104
G1 X104.135 Y99.475 E17.49824
M204 S5000
G0 X104.163 Y99.055
M204 S3000
G1 X104.823 Y99.178 E17.53692
G1 X105.463 Y99.379 E17.57558
G1 X106.074 Y99.654 E17.61419
G1 X106.649 Y100.001 E17.65289
G1 X107.178 Y100.413 E17.69152
G1 X107.655 Y100.885 E17.73019
G1 X108.072 Y101.41 E17.76882
G1 X108.349 Y101.848 E17.79869
G1 X109.979 Y104.624 E17.98419
G1 X111.393 Y106.876 E18.13741
G1 X112.871 Y109.085 E18.29057
G1 X114.422 Y111.27 E18.44497
G1 X116.039 Y113.414 E18.59971
G1 X117.675 Y115.461 E18.75071
G1 X119.426 Y117.53 E18.9069
G1 X121.198 Y119.504 E19.05975
G1 X123.033 Y121.44 E19.21346
G1 X124.917 Y123.316 E19.36666
G1 X126.889 Y125.173 E19.52275
G1 X128.843 Y126.911 E19.67344
G1 X130.924 Y128.659 E19.83004
G1 X131.576 Y129.195 E19.87868
G1 X132.066 Y129.653 E19.91733
G1 X132.497 Y130.167 E19.95598
G1 X132.865 Y130.728 E19.99464
G1 X133.164 Y131.329 E20.03332
G1 X133.388 Y131.961 E20.07196
G1 X133.536 Y132.615 E20.1106
G1 X133.602 Y133.212 E20.14521
G1 X133.63 Y133.866 E20.18293
G1 X133.63 Y177.865 E22.71829
G1 X133.621 Y178.592 E22.76019
G1 X133.572 Y179.261 E22.79884
G1 X133.445 Y179.919 E22.83746
G1 X133.24 Y180.558 E22.87613
G1 X132.96 Y181.168 E22.9148
G1 X132.61 Y181.74 E22.95344
G1 X132.195 Y182.267 E22.9921
G1 X131.72 Y182.74 E23.03072
G1 X131.191 Y183.154 E23.06943
G1 X130.618 Y183.502 E23.10806
G1 X130.007 Y183.779 E23.14672
G1 X129.367 Y183.981 E23.18539
G1 X128.708 Y184.106 E23.22404
G1 X128.149 Y184.15 E23.25635
G1 X95.895 Y184.161 E25.11493
G1 X93.235 Y184.199 E25.26822
G1 X90.551 Y184.313 E25.42302
G1 X87.901 Y184.501 E25.57611
G1 X85.202 Y184.768 E25.73239
G1 X82.608 Y185.1 E25.88309
G1 X79.934 Y185.52 E26.03906
G1 X77.325 Y186.005 E26.19198
G1 X74.718 Y186.566 E26.34564
G1 X72.14 Y187.199 E26.4986
G1 X71.303 Y187.429 E26.54862
G1 X70.214 Y187.713 E26.61347
G1 X69.555 Y187.843 E26.65218
G1 X68.983 Y187.892 E26.68526
G1 X68.465 Y187.906 E26.71512
G1 X56.289 Y187.906 E27.41674
G1 X55.508 Y187.895 E27.46175
G1 X54.839 Y187.846 E27.5004
G1 X54.18 Y187.717 E27.53909
G1 X53.542 Y187.511 E27.57773
G1 X52.933 Y187.23 E27.61637
G1 X52.361 Y186.879 E27.65505
G1 X51.835 Y186.463 E27.69369
G1 X51.473 Y186.108 E27.72291
G1 X49.715 Y184.225 E27.87135
G1 X48 Y182.481 E28.01229
G1 X47.559 Y181.976 E28.05093
G1 X47.182 Y181.421 E28.08959
G1 X46.873 Y180.826 E28.12822
G1 X46.637 Y180.198 E28.16688
G1 X46.477 Y179.546 E28.20556
G1 X46.391 Y178.783 E28.24981
G1 X46.37 Y178.195 E28.28371
G1 X46.37 Y134.238 E30.81666
G1 X46.381 Y133.459 E30.86155
G1 X46.43 Y132.79 E30.9002
G1 X46.559 Y132.132 E30.93884
G1 X46.765 Y131.494 E30.97747
G1 X47.046 Y130.884 E31.01617
G1 X47.397 Y130.313 E31.05479
G1 X47.869 Y129.725 E31.09824
G1 X48.302 Y129.255 E31.13507
G1 X49.437 Y128.068 E31.2297
G1 X50.392 Y127.027 E31.31111
G1 X51.309 Y126.012 E31.38993
G1 X51.758 Y125.568 E31.42632
G1 X52.818 Y124.631 E31.50784
G1 X54.772 Y122.856 E31.65995
G1 X56.722 Y120.981 E31.81584
G1 X58.588 Y119.082 E31.96925
G1 X60.412 Y117.118 E32.1237
G1 X62.171 Y115.112 E32.27744
G1 X63.867 Y113.066 E32.43057
G1 X65.504 Y110.973 E32.58369
G1 X67.103 Y108.804 E32.73896
G1 X68.62 Y106.62 E32.89219
G1 X70.105 Y104.348 E33.0486
G1 X71.004 Y102.897 E33.14696
G1 X71.657 Y101.822 E33.21943
G1 X72.039 Y101.271 E33.25807
G1 X72.484 Y100.768 E33.29677
G1 X72.985 Y100.323 E33.33538
G1 X73.536 Y99.94 E33.37405
G1 X74.128 Y99.625 E33.41269
G1 X74.754 Y99.383 E33.45136
G1 X75.404 Y99.217 E33.49002
G1 X76.173 Y99.123 E33.53466
G1 X76.732 Y99.1 E33.5669
G1 X80.906 Y99.084 E33.80742
G1 X82.001 Y99.09 E33.87052
G1 X84.562 Y99.237 E34.01834
G1 X87.242 Y99.341 E34.17288
G1 X89.931 Y99.369 E34.32784
G1 X92.578 Y99.323 E34.48039
G1 X95.263 Y99.2 E34.63527
G1 X96.7 Y99.093 E34.71831
G1 X97.52 Y99.042 E34.76565
G1 X98.157 Y99.021 E34.80237
G1 X102.412 Y99.005 E35.04756
G1 X103.494 Y99.011 E35.10991
G1 X104.163 Y99.055 E35.14854
M204 S5000
G1 F2700 E22.14854
;MESH:destornillador1.stl
G0 F1200 X103.022 Y103.969
G0 X103.026 Y105.077
G0 X102.445 Y112.008
M204 S3000
;TYPE:WALL-INNER
G1 F2100 E35.14854
G1 F1200 X102.446 Y112.01 E35.14867
G1 X102.446 Y112.528 E35.17852
G1 X102.085 Y112.157 E35.19452
G1 X102.084 Y112.156 E35.1946
G1 X101.862 Y111.927 E35.21298
G1 X101.145 Y111.628 E35.25774
G1 X100.621 Y111.582 E35.28805
G1 X99.86 Y111.748 E35.33294
G1 X99.326 Y112.129 E35.37074
G1 X99.183 Y112.231 E35.38086
G1 X98.947 Y112.618 E35.40698
G1 X98.946 Y112.232 E35.41253
G1 X98.946 Y112.056 E35.42071
G1 X98.922 Y105.907 E35.77504
G1 X98.922 Y105.697 E35.78714
G1 X99.132 Y105.697 E35.79498
G1 X102.422 Y105.685 E35.98456
G1 X102.445 Y112.008 E36.34891
M204 S5000
G0 X102.133 Y113.995
G0 X98.97 Y118.696
M204 S3000
G1 X98.957 Y115.236 E36.54829
G1 X98.957 Y115.231 E36.54858
G1 X98.955 Y114.708 E36.57872
G1 X99.37 Y115.229 E36.60063
G1 X99.374 Y115.231 E36.60089
G1 X100.102 Y115.625 E36.64859
G1 X100.934 Y115.699 E36.69672
G1 X101.727 Y115.439 E36.74481
G1 X102.09 Y115.119 E36.77269
G1 X102.352 Y114.888 E36.79282
G1 X102.454 Y114.675 E36.80643
G1 X102.454 Y114.887 E36.80758
G1 X102.455 Y115.237 E36.82081
G1 X102.47 Y119.24 E37.05148
G1 X102.471 Y119.705 E37.07828
G1 X102.473 Y120.069 E37.09925
G1 X102.375 Y119.706 E37.10216
G1 X102.085 Y119.343 E37.11918
G1 X101.855 Y119.054 E37.14046
G1 X101.124 Y118.658 E37.18837
G1 X100.292 Y118.584 E37.2365
G1 X99.498 Y118.844 E37.28464
G1 X98.874 Y119.395 E37.33261
G1 X98.516 Y120.146 E37.38055
G1 X98.482 Y120.978 E37.42853
G1 X98.612 Y121.315 E37.44935
G1 X98.72 Y121.598 E37.4668
G1 X98.418 Y121.598 E37.47703
G1 X98.416 Y121.599 E37.47716
G1 X92.077 Y121.623 E37.84243
G1 X91.978 Y121.623 E37.84814
G1 X91.827 Y121.624 E37.85684
G1 X91.977 Y121.376 E37.86559
G1 X91.99 Y121.278 E37.8704
G1 X92.093 Y120.551 E37.91271
G1 X91.875 Y119.747 E37.96071
G1 X91.389 Y119.135 E38.00574
G1 X91.355 Y119.092 E38.0089
G1 X90.681 Y118.728 E38.05304
G1 X91.353 Y118.726 E38.06912
G1 X91.408 Y118.726 E38.0721
G1 X98.97 Y118.696 E38.50785
M204 S5000
G0 X100.951 Y119.227
G0 X101.807 Y119.927
G0 X102.326 Y121.586
M204 S3000
G1 X102.367 Y121.518 E38.51243
G1 X102.477 Y121.338 E38.52458
G1 X102.478 Y121.585 E38.52809
G1 X102.326 Y121.586 E38.53187
M204 S5000
G0 X101.088 Y122.002
G0 X100.157 Y122.038
G0 X90.451 Y119.264
G0 X80.97 Y118.765
M204 S3000
G1 X88.637 Y118.735 E38.97367
G1 X88.997 Y118.734 E38.99442
G1 X89.457 Y118.732 E39.02092
G1 X88.998 Y118.883 E39.02669
G1 X88.728 Y119.121 E39.04116
G1 X88.374 Y119.433 E39.06835
G1 X88.016 Y120.184 E39.11629
G1 X87.982 Y121.018 E39.16439
G1 X88.111 Y121.352 E39.18502
G1 X88.219 Y121.636 E39.20253
G1 X87.916 Y121.636 E39.2128
G1 X87.915 Y121.637 E39.21288
G1 X80.578 Y121.665 E39.63567
G1 X80.478 Y121.665 E39.64143
G1 X80.327 Y121.666 E39.65013
G1 X80.477 Y121.419 E39.65881
G1 X80.49 Y121.32 E39.66366
G1 X80.593 Y120.594 E39.70591
G1 X80.375 Y119.787 E39.75408
G1 X79.855 Y119.135 E39.80214
G1 X79.124 Y118.739 E39.85004
G1 X78.292 Y118.665 E39.89817
G1 X77.842 Y118.813 E39.92547
G1 X77.569 Y118.902 E39.94202
G1 X77.569 Y118.615 E39.95187
G1 X77.568 Y118.614 E39.95195
G1 X77.556 Y115.356 E40.13969
G1 X77.556 Y115.31 E40.14234
G1 X77.554 Y114.848 E40.16896
G1 X77.921 Y115.308 E40.18668
G1 X77.961 Y115.329 E40.18914
G1 X78.652 Y115.704 E40.23444
G1 X79.484 Y115.778 E40.28257
G1 X80.278 Y115.518 E40.33072
G1 X80.599 Y115.234 E40.35541
G1 X80.902 Y114.967 E40.37868
G1 X80.955 Y114.855 E40.38582
G1 X80.955 Y114.966 E40.38604
G1 X80.956 Y115.37 E40.40007
G1 X80.97 Y118.765 E40.5957
M204 S5000
G0 X80.946 Y112.036
M204 S3000
G1 X80.947 Y112.038 E40.59583
G1 X80.947 Y112.555 E40.62562
G1 X80.586 Y112.185 E40.64159
G1 X80.585 Y112.184 E40.64168
G1 X80.412 Y112.006 E40.65598
G1 X79.695 Y111.707 E40.70074
G1 X79.171 Y111.661 E40.73105
G1 X78.41 Y111.827 E40.77594
G1 X77.915 Y112.18 E40.81097
G1 X77.733 Y112.31 E40.82386
G1 X77.546 Y112.618 E40.84462
G1 X77.545 Y112.311 E40.84795
G1 X77.545 Y112.087 E40.85769
G1 X77.522 Y105.776 E41.22136
G1 X80.922 Y105.764 E41.41728
G1 X80.946 Y112.036 E41.77869
M204 S5000
G0 X79.211 Y112.248
G0 X78.168 Y112.714
G0 X77.812 Y113.557
G0 X77.784 Y114.462
M204 S3000
G1 X78.196 Y114.979 E41.81679
G1 X78.776 Y115.293 E41.85479
G1 X79.435 Y115.352 E41.89292
G1 X80.065 Y115.146 E41.93111
G1 X80.56 Y114.709 E41.96916
G1 X80.844 Y114.113 E42.0072
G1 X80.871 Y113.453 E42.04527
G1 X80.634 Y112.835 E42.08341
G1 X80.171 Y112.361 E42.12159
G1 X79.593 Y112.12 E42.15767
G1 X79.198 Y112.085 E42.18052
G1 X78.584 Y112.219 E42.21674
G1 X78.047 Y112.602 E42.25474
G1 X77.703 Y113.168 E42.29291
G1 X77.611 Y113.823 E42.33102
G1 X77.784 Y114.462 E42.36917
M204 S5000
G0 X81.388 Y118.343
M204 S3000
G1 X81.598 Y118.343 E42.38127
G1 X98.548 Y118.278 E43.35799
G1 X98.5 Y105.489 E44.09494
G1 X98.5 Y105.279 E44.10704
G1 X98.71 Y105.279 E44.11488
G1 X102.63 Y105.263 E44.34076
G1 X102.84 Y105.263 E44.35286
G1 X102.84 Y105.473 E44.3607
G1 X102.9 Y121.794 E45.30117
G1 X102.9 Y122.004 E45.31327
G1 X102.69 Y122.004 E45.32111
G1 X101.884 Y122.007 E45.36756
G1 X101.73 Y122.007 E45.37643
G1 X101.38 Y122.009 E45.3966
G1 X101.729 Y121.76 E45.40619
G1 X101.809 Y121.629 E45.41343
G1 X102.073 Y121.194 E45.44276
G1 X102.165 Y120.539 E45.48087
G1 X101.992 Y119.9 E45.51902
G1 X101.58 Y119.383 E45.55711
G1 X101 Y119.069 E45.59512
G1 X100.341 Y119.01 E45.63324
G1 X99.711 Y119.216 E45.67143
G1 X99.216 Y119.653 E45.70948
G1 X98.932 Y120.249 E45.74753
G1 X98.905 Y120.909 E45.78559
G1 X99.142 Y121.527 E45.82373
G1 X99.27 Y121.659 E45.83432
G1 X99.605 Y122.001 E45.86191
G1 X99.639 Y122.015 E45.86403
G1 X99.606 Y122.015
G1 X99.127 Y122.016 E45.87935
G1 X91.385 Y122.045 E46.32547
G1 X91.23 Y122.045 E46.3344
G1 X90.881 Y122.047 E46.35451
G1 X91.229 Y121.799 E46.36405
G1 X91.309 Y121.667 E46.37133
G1 X91.573 Y121.232 E46.40066
G1 X91.665 Y120.578 E46.43871
G1 X91.492 Y119.94 E46.4768
G1 X91.08 Y119.421 E46.51499
G1 X90.499 Y119.107 E46.55304
G1 X89.84 Y119.049 E46.59116
G1 X89.211 Y119.255 E46.6293
G1 X88.716 Y119.691 E46.66731
G1 X88.432 Y120.287 E46.70536
G1 X88.405 Y120.949 E46.74353
G1 X88.642 Y121.567 E46.78167
G1 X88.769 Y121.696 E46.79211
G1 X89.105 Y122.039 E46.81977
G1 X89.139 Y122.053 E46.82189
G1 X89.106 Y122.053
G1 X88.625 Y122.054 E46.83728
G1 X79.885 Y122.087 E47.34092
G1 X79.73 Y122.087 E47.34985
G1 X79.382 Y122.089 E47.3699
G1 X79.729 Y121.841 E47.37942
G1 X79.809 Y121.709 E47.38671
G1 X80.073 Y121.275 E47.41598
G1 X80.165 Y120.621 E47.45404
G1 X79.992 Y119.981 E47.49224
G1 X79.58 Y119.464 E47.53033
G1 X79 Y119.15 E47.56834
G1 X78.341 Y119.091 E47.60646
G1 X77.711 Y119.297 E47.64466
G1 X77.51 Y119.475 E47.66013
G1 X77.216 Y119.734 E47.68271
G1 X77.152 Y119.868 E47.69126
G1 X77.152 Y119.735 E47.69163
G1 X77.151 Y119.343 E47.70552
G1 X77.1 Y105.358 E48.51138
G1 X81.13 Y105.342 E48.7436
G1 X81.34 Y105.342 E48.75571
G1 X81.34 Y105.552 E48.76354
G1 X81.388 Y118.133 E49.4885
G1 X81.388 Y118.343 E49.49634
M204 S5000
G0 X79.608 Y121.73
G0 X78.56 Y122.104
G0 X77.605 Y122.082
M204 S3000
G1 X77.636 Y122.095 E49.49828
G1 X77.606 Y122.095
G1 X77.16 Y122.097 E49.52398
G1 X77.159 Y121.625 E49.55118
G1 X77.395 Y121.867 E49.55745
G1 X77.605 Y122.082 E49.56295
M204 S5000
G0 X79.092 Y122.083
G0 X87.972 Y118.131
G0 X98.376 Y118.107
G0 X99.308 Y113.145
G0 X100.1 Y112.29
G0 X101.002 Y112.198
G0 X102.084 Y112.756
M204 S3000
G1 X101.621 Y112.282 E49.60113
G1 X101.043 Y112.041 E49.63722
G1 X100.648 Y112.006 E49.66007
G1 X100.034 Y112.14 E49.69628
G1 X99.497 Y112.523 E49.73429
G1 X99.153 Y113.088 E49.77241
G1 X99.06 Y113.743 E49.81053
G1 X99.234 Y114.383 E49.84875
G1 X99.645 Y114.9 E49.8868
G1 X100.226 Y115.214 E49.92486
G1 X100.885 Y115.273 E49.96299
G1 X101.514 Y115.067 E50.00113
G1 X102.01 Y114.63 E50.03922
G1 X102.294 Y114.034 E50.07726
G1 X102.321 Y113.374 E50.11532
G1 X102.084 Y112.756 E50.15346
M204 S5000
G0 X101.002 Y112.198
G0 X100.1 Y112.29
G0 X99.367 Y113.048
G0 X99.488 Y113.716
M204 S3000
;TYPE:WALL-OUTER
G1 X99.617 Y114.189 E50.18171
G1 X99.92 Y114.571 E50.20981
G1 X100.35 Y114.803 E50.23796
G1 X100.837 Y114.847 E50.26614
G1 X101.301 Y114.695 E50.29428
