;FLAVOR:Marlin
;TIME:3574
;Filament used: 4.91747m
;Layer height: 0.2
;MINX:62.62
;MINY:92.62
;MINZ:0.3
;MAXX:117.38
;MAXY:147.38
;MAXZ:43.5
;Generated with Cura_SteamEngine 4.6.2
M140 S70
M105
M190 S70
M104 S237
M105
M109 S237
M82 ;absolute extrusion mode
G28 ;Home
G1 Z15.0 F6000 ;Move the platform down 15mm
G92 E0
G1 F200 E3
G92 E0
G92 E0
G92 E0
G1 F2700 E-13
;LAYER_COUNT:217
;LAYER:0
M107
G0 F1200 X111.816 Y93.051 Z0.3
;TYPE:SKIRT
G1 F2100 E0
G1 F1200 X112.459 Y93.1 E0.03716
G1 X113.091 Y93.228 E0.07432
G1 X113.703 Y93.434 E0.11153
G1 X114.285 Y93.713 E0.14872
G1 X114.827 Y94.062 E0.18586
G1 X115.322 Y94.476 E0.22305
G1 X115.763 Y94.948 E0.26027
G1 X116.141 Y95.471 E0.29745
G1 X116.452 Y96.036 E0.33462
G1 X116.691 Y96.635 E0.37178
G1 X116.854 Y97.26 E0.409
G1 X116.949 Y98.114 E0.45851
G1 X116.96 Y118.088 E1.60948
G1 X116.95 Y118.813 E1.65126
G1 X116.863 Y119.692 E1.70216
G1 X116.631 Y120.942 E1.77542
G1 X116.098 Y123.99 E1.95372
G1 X115.725 Y126.621 E2.10684
G1 X115.419 Y129.32 E2.26336
G1 X115.196 Y131.953 E2.41563
G1 X115.045 Y134.637 E2.57053
G1 X114.96 Y138.695 E2.80442
G1 X114.96 Y140.971 E2.93557
G1 X114.95 Y141.696 E2.97735
G1 X114.901 Y142.339 E3.01451
G1 X114.773 Y142.972 E3.05172
G1 X114.567 Y143.584 E3.08893
G1 X114.288 Y144.165 E3.12607
G1 X113.939 Y144.708 E3.16327
G1 X113.488 Y145.243 E3.20359
G1 X112.9 Y145.794 E3.25002
G1 X112.374 Y146.168 E3.28721
G1 X111.805 Y146.473 E3.32441
G1 X111.203 Y146.706 E3.36161
G1 X110.577 Y146.863 E3.3988
G1 X109.722 Y146.949 E3.44831
G1 X109.165 Y146.959 E3.48042
G1 X94.074 Y146.96 E4.35001
G1 X93.301 Y146.949 E4.39455
G1 X92.658 Y146.9 E4.43171
G1 X92.026 Y146.772 E4.46887
G1 X91.414 Y146.566 E4.50608
G1 X90.832 Y146.287 E4.54327
G1 X90.29 Y145.938 E4.58042
G1 X89.706 Y145.438 E4.62472
G1 X89.029 Y144.671 E4.68367
G1 X88.607 Y144.09 E4.72505
G1 X87.791 Y142.938 E4.8064
G1 X86.169 Y140.777 E4.96209
G1 X84.52 Y138.707 E5.11459
G1 X82.772 Y136.635 E5.2708
G1 X81.002 Y134.654 E5.42388
G1 X79.156 Y132.701 E5.57874
G1 X77.257 Y130.805 E5.73337
G1 X75.307 Y128.962 E5.88798
G1 X73.306 Y127.176 E6.04253
G1 X71.268 Y125.459 E6.19609
G1 X69.15 Y123.773 E6.35208
G1 X67.008 Y122.166 E6.50638
G1 X65.358 Y120.99 E6.62314
G1 X64.728 Y120.462 E6.67051
G1 X64.176 Y119.863 E6.71744
G1 X63.807 Y119.333 E6.75466
G1 X63.507 Y118.762 E6.79182
G1 X63.28 Y118.158 E6.82901
G1 X63.129 Y117.53 E6.86622
G1 X63.051 Y116.722 E6.913
G1 X63.041 Y116.165 E6.9451
G1 X63.04 Y101.054 E7.81585
G1 X63.051 Y100.299 E7.85936
G1 X63.1 Y99.656 E7.89651
G1 X63.229 Y99.023 E7.93374
G1 X63.434 Y98.412 E7.97088
G1 X63.714 Y97.83 E8.00809
G1 X64.064 Y97.288 E8.04527
G1 X64.512 Y96.757 E8.0853
G1 X65.1 Y96.206 E8.13174
G1 X65.626 Y95.832 E8.16893
G1 X66.195 Y95.527 E8.20613
G1 X66.797 Y95.294 E8.24333
G1 X67.423 Y95.137 E8.28051
G1 X68.278 Y95.051 E8.33003
G1 X68.835 Y95.041 E8.36213
G1 X71.399 Y95.04 E8.50988
G1 X74.077 Y95.002 E8.66421
G1 X76.75 Y94.889 E8.81837
G1 X79.421 Y94.699 E8.97267
G1 X82.114 Y94.432 E9.12861
G1 X84.759 Y94.094 E9.28227
G1 X87.412 Y93.677 E9.43702
G1 X90.214 Y93.155 E9.60126
G1 X90.827 Y93.078 E9.63686
G1 X91.58 Y93.04 E9.6803
G1 X111.043 Y93.04 E10.80182
G1 X111.816 Y93.051 E10.84637
G0 X111.822 Y92.631
G1 X112.491 Y92.68 E10.88502
G1 X113.149 Y92.809 E10.92366
G1 X113.787 Y93.015 E10.96229
G1 X114.397 Y93.296 E11.00099
G1 X114.968 Y93.647 E11.03961
G1 X115.494 Y94.063 E11.07826
G1 X115.967 Y94.54 E11.11697
G1 X116.379 Y95.069 E11.1556
G1 X116.726 Y95.643 E11.19425
G1 X117.002 Y96.254 E11.23289
G1 X117.203 Y96.894 E11.27154
G1 X117.327 Y97.554 E11.31024
G1 X117.369 Y98.102 E11.34191
G1 X117.38 Y118.016 E12.48942
G1 X117.369 Y118.819 E12.53569
G1 X117.275 Y119.768 E12.59064
G1 X117.043 Y121.018 E12.6639
G1 X116.514 Y124.045 E12.84097
G1 X116.139 Y126.693 E12.99508
G1 X115.841 Y129.326 E13.14777
G1 X115.613 Y132.015 E13.30328
G1 X115.465 Y134.64 E13.45478
G1 X115.38 Y138.704 E13.68901
G1 X115.38 Y140.899 E13.81549
G1 X115.369 Y141.702 E13.86177
G1 X115.32 Y142.371 E13.90042
G1 X115.192 Y143.029 E13.93905
G1 X114.986 Y143.668 E13.97774
G1 X114.706 Y144.277 E14.01636
G1 X114.355 Y144.849 E14.05503
G1 X113.79 Y145.535 E14.10624
G1 X113.184 Y146.105 E14.15418
G1 X112.64 Y146.497 E14.19282
G1 X112.053 Y146.821 E14.23145
G1 X111.431 Y147.073 E14.27013
G1 X110.784 Y147.25 E14.30878
G1 X110.121 Y147.348 E14.3474
G1 X109.172 Y147.379 E14.40211
G1 X94.074 Y147.38 E15.2721
G1 X93.295 Y147.369 E15.317
G1 X92.626 Y147.32 E15.35565
G1 X91.968 Y147.191 E15.39429
G1 X91.33 Y146.985 E15.43292
G1 X90.72 Y146.704 E15.47162
G1 X90.149 Y146.353 E15.51024
G1 X89.41 Y145.736 E15.56572
G1 X88.689 Y144.918 E15.62855
G1 X88.267 Y144.337 E15.66993
G1 X87.473 Y143.215 E15.74913
G1 X85.848 Y141.05 E15.90512
G1 X84.17 Y138.943 E16.06033
G1 X82.484 Y136.944 E16.21102
G1 X80.679 Y134.925 E16.36707
G1 X78.851 Y132.99 E16.52046
G1 X76.968 Y131.11 E16.67379
G1 X75.017 Y129.266 E16.82848
G1 X73.034 Y127.496 E16.98164
G1 X70.994 Y125.777 E17.13537
G1 X68.916 Y124.123 E17.28841
G1 X66.744 Y122.493 E17.44489
G1 X65.114 Y121.332 E17.5602
G1 X64.433 Y120.761 E17.61141
G1 X63.863 Y120.144 E17.65982
G1 X63.476 Y119.596 E17.69848
G1 X63.157 Y119.006 E17.73712
G1 X62.91 Y118.382 E17.7758
G1 X62.74 Y117.733 E17.81445
G1 X62.647 Y117.069 E17.85309
G1 X62.621 Y116.172 E17.9048
G1 X62.62 Y101.054 E18.77595
G1 X62.631 Y100.293 E18.8198
G1 X62.68 Y99.624 E18.85846
G1 X62.809 Y98.966 E18.89709
G1 X63.016 Y98.327 E18.9358
G1 X63.297 Y97.718 E18.97445
G1 X63.648 Y97.147 E19.01307
G1 X64.21 Y96.465 E19.06399
G1 X64.816 Y95.895 E19.11193
G1 X65.36 Y95.503 E19.15057
G1 X65.947 Y95.179 E19.1892
G1 X66.569 Y94.927 E19.22788
G1 X67.216 Y94.75 E19.26653
G1 X67.879 Y94.652 E19.30515
G1 X68.828 Y94.621 E19.35986
G1 X71.393 Y94.62 E19.50766
G1 X74.053 Y94.582 E19.66096
G1 X76.737 Y94.468 E19.81576
G1 X79.388 Y94.28 E19.9689
G1 X82.089 Y94.013 E20.1253
G1 X84.675 Y93.682 E20.27553
G1 X87.339 Y93.263 E20.43092
G1 X90.137 Y92.742 E20.59492
G1 X90.8 Y92.659 E20.63343
G1 X91.58 Y92.62 E20.67843
G1 X111.043 Y92.62 E21.79995
G1 X111.822 Y92.631 E21.84484
G1 F2700 E8.84484
G0 F1200 X91.099 Y97.589
G0 X90.34 Y100.46
;TYPE:SUPPORT
G1 F2100 E21.84484
G1 F1200 X90.34 Y116.54 E22.76922
G1 X68.46 Y116.54 E24.02701
G1 X68.46 Y100.46 E24.95138
G1 X90.34 Y100.46 E26.20918
G0 X90.17 Y102
G1 X68.63 Y102 E27.44743
G0 X72 Y100.63
G1 X72 Y116.37 E28.35226
G0 X76 Y116.37
G1 X76 Y100.63 E29.25708
G0 X80 Y100.63
G1 X80 Y116.37 E30.16191
G0 X84 Y116.37
G1 X84 Y100.63 E31.06674
G0 X88 Y100.63
G1 X88 Y116.37 E31.97157
G0 X90.17 Y114
G1 X68.63 Y114 E33.20982
G0 X68.63 Y110
G1 X90.17 Y110 E34.44807
G0 X90.17 Y106
G1 X68.63 Y106 E35.68632
G1 F2700 E22.68632
G0 F1200 X91.099 Y119.411
G0 X93.46 Y119.66
G1 F2100 E35.68632
G1 F1200 X109.54 Y119.66 E36.61069
G1 X109.54 Y141.54 E37.86849
G1 X93.46 Y141.54 E38.79286
G1 X93.46 Y119.66 E40.05065
G0 X93.63 Y122
G1 X109.37 Y122 E40.95548
G0 X108 Y119.83
G1 X108 Y141.37 E42.19373
G0 X109.369 Y138
G1 X93.629 Y138 E43.09856
G0 X93.629 Y134
G1 X109.369 Y134 E44.00339
G0 X109.369 Y130
G1 X93.629 Y130 E44.90822
G0 X93.63 Y126
G1 X109.37 Y126 E45.81305
G0 X104 Y119.83
G1 X104 Y141.37 E47.0513
G0 X100 Y141.37
G1 X100 Y119.83 E48.28955
G0 X96 Y119.83
G1 X96 Y141.37 E49.52779
G1 F2700 E36.52779
;MESH:CRUZ.stl
G0 F1200 X96 Y119.415
G0 X96 Y118.1
G0 X92.3 Y117.7
;TYPE:WALL-INNER
G1 F2100 E49.52779
G1 F1200 X92.3 Y99.3 E50.58806
G1 X110.7 Y99.3 E51.64833
G1 X110.7 Y117.7 E52.70859
G1 X92.3 Y117.7 E53.76886
G0 X91.88 Y118.12
G1 X91.88 Y98.88 E54.87753
G1 X111.12 Y98.88 E55.9862
G1 X111.12 Y118.12 E57.09487
G1 X91.88 Y118.12 E58.20354
G0 X91.46 Y118.54
;TYPE:WALL-OUTER
G1 X91.46 Y98.46 E59.36061
G1 X111.54 Y98.46 E60.51769
G1 X111.54 Y118.54 E61.67476
G1 X91.46 Y118.54 E62.83183
G0 X91.46 Y118.34
G0 X91.95 Y118.05
G0 X92.71 Y117.29
;TYPE:SKIN
G1 X92.71 Y99.71 E63.84485
G1 X110.29 Y99.71 E64.85787
G1 X110.29 Y117.29 E65.87088
G1 X92.71 Y117.29 E66.8839
G0 X101.09 Y108.91
G1 X101.09 Y108.09 E66.93115
G1 X101.91 Y108.09 E66.9784
G1 X101.91 Y108.91 E67.02565
G1 X101.09 Y108.91 E67.0729
G0 X100.67 Y109.33
G1 X100.67 Y107.67 E67.16855
G1 X102.33 Y107.67 E67.26421
G1 X102.33 Y109.33 E67.35986
G1 X100.67 Y109.33 E67.45552
G0 X100.25 Y109.75
G1 X100.25 Y107.25 E67.59958
G1 X102.75 Y107.25 E67.74363
G1 X102.75 Y109.75 E67.88769
G1 X100.25 Y109.75 E68.03175
G0 X99.83 Y110.17
G1 X99.83 Y106.83 E68.22421
G1 X103.17 Y106.83 E68.41667
G1 X103.17 Y110.17 E68.60913
G1 X99.83 Y110.17 E68.8016
G0 X99.41 Y110.59
G1 X99.41 Y106.41 E69.04246
G1 X103.59 Y106.41 E69.28333
G1 X103.59 Y110.59 E69.52419
G1 X99.41 Y110.59 E69.76506
G0 X98.99 Y111.01
G1 X98.99 Y105.99 E70.05432
G1 X104.01 Y105.99 E70.34359
G1 X104.01 Y111.01 E70.63286
G1 X98.99 Y111.01 E70.92213
G0 X98.57 Y111.43
G1 X98.57 Y105.57 E71.2598
G1 X104.43 Y105.57 E71.59747
G1 X104.43 Y111.43 E71.93514
G1 X98.57 Y111.43 E72.27282
G0 X98.15 Y111.85
G1 X98.15 Y105.15 E72.65889
G1 X104.85 Y105.15 E73.04497
G1 X104.85 Y111.85 E73.43104
G1 X98.15 Y111.85 E73.81712
G0 X97.73 Y112.27
G1 X97.73 Y104.73 E74.2516
G1 X105.27 Y104.73 E74.68608
G1 X105.27 Y112.27 E75.12055
G1 X97.73 Y112.27 E75.55503
G0 X97.31 Y112.69
G1 X97.31 Y104.31 E76.03792
G1 X105.69 Y104.31 E76.5208
G1 X105.69 Y112.69 E77.00368
G1 X97.31 Y112.69 E77.48656
G0 X96.89 Y113.11
G1 X96.89 Y103.89 E78.01785
G1 X106.11 Y103.89 E78.54913
G1 X106.11 Y113.11 E79.08042
G1 X96.89 Y113.11 E79.61171
G0 X96.47 Y113.53
G1 X96.47 Y103.47 E80.19139
G1 X106.53 Y103.47 E80.77108
G1 X106.53 Y113.53 E81.35077
G1 X96.47 Y113.53 E81.93046
G0 X96.05 Y113.95
G1 X96.05 Y103.05 E82.55855
G1 X106.95 Y103.05 E83.18665
G1 X106.95 Y113.95 E83.81474
G1 X96.05 Y113.95 E84.44283
G0 X95.63 Y114.37
G1 X95.63 Y102.63 E85.11933
G1 X107.37 Y102.63 E85.79583
G1 X107.37 Y114.37 E86.47232
G1 X95.63 Y114.37 E87.14882
G0 X95.21 Y114.79
G1 X95.21 Y102.21 E87.87372
G1 X107.79 Y102.21 E88.59862
G1 X107.79 Y114.79 E89.32352
G1 X95.21 Y114.79 E90.04842
G0 X94.79 Y115.21
G1 X94.79 Y101.79 E90.82172
G1 X108.21 Y101.79 E91.59502
G1 X108.21 Y115.21 E92.36833
G1 X94.79 Y115.21 E93.14163
G0 X94.37 Y115.63
G1 X94.37 Y101.37 E93.96334
G1 X108.63 Y101.37 E94.78504
G1 X108.63 Y115.63 E95.60675
G1 X94.37 Y115.63 E96.42846
G0 X93.95 Y116.05
G1 X93.95 Y100.95 E97.29857
G1 X109.05 Y100.95 E98.16868
G1 X109.05 Y116.05 E99.03879
G1 X93.95 Y116.05 E99.9089
G0 X93.53 Y116.47
G1 X93.53 Y100.53 E100.82741
G1 X109.47 Y100.53 E101.74592
G1 X109.47 Y116.47 E102.66444
G1 X93.53 Y116.47 E103.58295
G0 X93.11 Y116.89
G1 X93.11 Y100.11 E104.54987
G1 X109.89 Y100.11 E105.51678
G1 X109.89 Y116.89 E106.4837
G1 X93.11 Y116.89 E107.45062
G0 X101.332 Y108.705
;TYPE:SKIN
G1 X101.294 Y108.666 E107.45211
G0 X101.294 Y108.384
G1 X101.615 Y108.705 E107.46457
G0 X101.704 Y108.511
G1 X101.488 Y108.294 E107.47297
G1 F2700 E94.47297
;MESH:NONMESH
G0 F600 X101.488 Y108.294 Z0.5
G0 F1200 X91.9 Y116.55
G0 X90.585 Y116.55
G0 X72 Y116.55
;TIME_ELAPSED:115.402601
;LAYER:1
M140 S70
M106 S204
;TYPE:SUPPORT
G1 F2100 E107.47297
G1 F1500 X76 Y116.55 E107.60601
G1 X76 Y100.45 E108.1415
G1 X80 Y100.45 E108.27454
G1 X80 Y116.55 E108.81003
G1 X84 Y116.55 E108.94307
G1 X84 Y100.45 E109.47856
G1 X88 Y100.45 E109.6116
G1 X90.35 Y100.45 E109.68976
G1 X90.35 Y116.55 E110.22525
G1 X88 Y116.55 E110.30341
G1 X88 Y100.45 E110.8389
G0 F2550 X72 Y116.55
G1 F1500 X68.45 Y116.55 E110.95697
G1 X68.45 Y100.45 E111.49246
G1 X72 Y100.45 E111.61053
G1 X72 Y116.55 E112.14602
G0 F2550 X96 Y141.55
G1 F1500 X100 Y141.55 E112.27906
G1 X100 Y119.65 E113.00746
G1 X104 Y119.65 E113.1405
G1 X104 Y141.55 E113.86889
G1 X108 Y141.55 E114.00193
G1 X109.55 Y141.55 E114.05349
G1 X109.55 Y119.65 E114.78188
G1 X108 Y119.65 E114.83344
G1 X108 Y141.55 E115.56183
G0 F2550 X96 Y141.55
G1 F1500 X93.45 Y141.55 E115.64665
G1 X93.45 Y119.65 E116.37505
G1 X96 Y119.65 E116.45986
G1 X96 Y141.55 E117.18826
G1 F2700 E104.18826
;MESH:CRUZ.stl
G0 F2550 X96 Y119.415
G0 X96 Y118.13
G0 X92.25 Y117.75
;TYPE:WALL-INNER
G1 F2100 E117.18826
G1 F1800 X92.25 Y99.25 E117.80357
G1 X110.75 Y99.25 E118.41888
G1 X110.75 Y117.75 E119.03419
G1 X92.25 Y117.75 E119.64951
G0 F2550 X91.85 Y118.15
G1 F1800 X91.85 Y98.85 E120.29143
G1 X111.15 Y98.85 E120.93335
G1 X111.15 Y118.15 E121.57527
G1 X91.85 Y118.15 E122.21719
G0 F2550 X91.45 Y118.55
;TYPE:WALL-OUTER
G1 F1350 X91.45 Y98.45 E122.88572
G1 X111.55 Y98.45 E123.55425
G1 X111.55 Y118.55 E124.22277
G1 X91.45 Y118.55 E124.8913
G0 F2550 X91.45 Y118.35
G0 X91.92 Y118.08
G0 X92.64 Y117.36
;TYPE:SKIN
G1 F1350 X92.64 Y99.64 E125.48067
G1 X110.36 Y99.64 E126.07004
G1 X110.36 Y117.36 E126.65941
G1 X92.64 Y117.36 E127.24878
G0 F2550 X93.26 Y99.82
G1 F1350 X92.819 Y100.261 E127.26952
G0 F2550 X92.819 Y100.827
G1 F1350 X93.826 Y99.82 E127.31689
G0 F2550 X94.392 Y99.82
G1 F1350 X92.819 Y101.392 E127.39086
G0 F2550 X92.819 Y101.958
G1 F1350 X94.957 Y99.82 E127.49142
G0 F2550 X95.523 Y99.82
G1 F1350 X92.819 Y102.524 E127.61861
G0 F2550 X92.819 Y103.089
G1 F1350 X96.089 Y99.82 E127.7724
G0 F2550 X96.654 Y99.82
G1 F1350 X92.819 Y103.655 E127.95278
G0 F2550 X92.819 Y104.221
G1 F1350 X97.22 Y99.82 E128.15979
G0 F2550 X97.786 Y99.82
G1 F1350 X92.819 Y104.786 E128.3934
G0 F2550 X92.819 Y105.352
G1 F1350 X98.351 Y99.82 E128.65361
G0 F2550 X98.917 Y99.82
G1 F1350 X92.819 Y105.918 E128.94044
G0 F2550 X92.819 Y106.484
G1 F1350 X99.483 Y99.82 E129.2539
G0 F2550 X100.049 Y99.82
G1 F1350 X92.819 Y107.049 E129.59395
G0 F2550 X92.819 Y107.615
G1 F1350 X100.614 Y99.82 E129.9606
G0 F2550 X101.18 Y99.82
G1 F1350 X92.819 Y108.181 E130.35388
G0 F2550 X92.819 Y108.746
G1 F1350 X101.746 Y99.82 E130.77375
G0 F2550 X102.311 Y99.82
G1 F1350 X92.819 Y109.312 E131.22023
G0 F2550 X92.819 Y109.878
G1 F1350 X102.877 Y99.82 E131.69332
G0 F2550 X103.443 Y99.82
G1 F1350 X92.819 Y110.443 E132.19302
G0 F2550 X92.819 Y111.009
G1 F1350 X104.008 Y99.82 E132.71932
G0 F2550 X104.574 Y99.82
G1 F1350 X92.819 Y111.575 E133.27224
G0 F2550 X92.819 Y112.14
G1 F1350 X105.14 Y99.82 E133.85176
G0 F2550 X105.705 Y99.82
G1 F1350 X92.819 Y112.706 E134.45787
G0 F2550 X92.819 Y113.272
G1 F1350 X106.271 Y99.82 E135.09061
G0 F2550 X106.837 Y99.82
G1 F1350 X92.819 Y113.837 E135.74995
G0 F2550 X92.819 Y114.403
G1 F1350 X107.402 Y99.82 E136.43589
G0 F2550 X107.968 Y99.82
G1 F1350 X92.819 Y114.969 E137.14846
G0 F2550 X92.819 Y115.534
G1 F1350 X108.534 Y99.82 E137.88762
G0 F2550 X109.1 Y99.82
G1 F1350 X92.819 Y116.1 E138.6534
G0 F2550 X92.819 Y116.666
G1 F1350 X109.665 Y99.82 E139.44579
G0 F2550 X110.179 Y99.872
G1 F1350 X92.871 Y117.179 E140.25988
G0 F2550 X93.437 Y117.179
G1 F1350 X110.179 Y100.438 E141.04735
G0 F2550 X110.179 Y101.003
G1 F1350 X94.003 Y117.179 E141.80822
G0 F2550 X94.568 Y117.179
G1 F1350 X110.179 Y101.569 E142.54249
G0 F2550 X110.179 Y102.135
G1 F1350 X95.134 Y117.179 E143.25013
G0 F2550 X95.7 Y117.179
G1 F1350 X110.179 Y102.7 E143.93118
G0 F2550 X110.179 Y103.266
G1 F1350 X96.266 Y117.179 E144.58561
G0 F2550 X96.831 Y117.179
G1 F1350 X110.179 Y103.832 E145.21343
G0 F2550 X110.179 Y104.398
G1 F1350 X97.397 Y117.179 E145.81464
G0 F2550 X97.963 Y117.179
G1 F1350 X110.179 Y104.963 E146.38924
G0 F2550 X110.179 Y105.529
G1 F1350 X98.528 Y117.179 E146.93724
G0 F2550 X99.094 Y117.179
G1 F1350 X110.179 Y106.095 E147.45862
G0 F2550 X110.179 Y106.66
G1 F1350 X99.66 Y117.179 E147.9534
G0 F2550 X100.225 Y117.179
G1 F1350 X110.179 Y107.226 E148.42159
G0 F2550 X110.179 Y107.792
G1 F1350 X100.791 Y117.179 E148.86315
G0 F2550 X101.357 Y117.179
G1 F1350 X110.179 Y108.357 E149.27811
G0 F2550 X110.179 Y108.923
G1 F1350 X101.922 Y117.179 E149.66647
G0 F2550 X102.488 Y117.179
G1 F1350 X110.179 Y109.489 E150.0282
G0 F2550 X110.179 Y110.054
G1 F1350 X103.054 Y117.179 E150.36334
G0 F2550 X103.619 Y117.179
G1 F1350 X110.179 Y110.62 E150.67188
G0 F2550 X110.179 Y111.186
G1 F1350 X104.185 Y117.179 E150.9538
G0 F2550 X104.751 Y117.179
G1 F1350 X110.179 Y111.751 E151.20911
G0 F2550 X110.179 Y112.317
G1 F1350 X105.316 Y117.179 E151.43783
G0 F2550 X105.882 Y117.179
G1 F1350 X110.179 Y112.883 E151.63992
G0 F2550 X110.179 Y113.449
G1 F1350 X106.448 Y117.179 E151.8154
G0 F2550 X107.014 Y117.179
G1 F1350 X110.179 Y114.014 E151.96427
