;FLAVOR:Marlin
;TIME:3432
;Filament used: 3.72704m
;Layer height: 0.2
;MINX:27.37
;MINY:105.87
;MINZ:0.3
;MAXX:152.63
;MAXY:158.13
;MAXZ:6.9
;Generated with Cura_SteamEngine 4.6.2
M140 S70
M105
M190 S70
M104 S237
M105
M109 S237
M82 ;absolute extrusion mode
G28 ;Home
G1 Z15.0 F6000 ;Move the platform down 15mm
G92 E0
G1 F200 E3
G92 E0
G92 E0
G92 E0
G1 F2700 E-13
;LAYER_COUNT:34
;LAYER:0
M107
M204 S5000
G0 F1200 X147.066 Y106.301 Z0.3
M204 S3000
;TYPE:SKIRT
G1 F2100 E0
G1 F1200 X147.709 Y106.35 E0.03716
G1 X148.341 Y106.478 E0.07432
G1 X148.953 Y106.684 E0.11153
G1 X149.535 Y106.963 E0.14872
G1 X150.077 Y107.312 E0.18586
G1 X150.572 Y107.726 E0.22305
G1 X151.013 Y108.198 E0.26027
G1 X151.391 Y108.721 E0.29745
G1 X151.702 Y109.286 E0.33462
G1 X151.941 Y109.885 E0.37178
G1 X152.104 Y110.51 E0.409
G1 X152.199 Y111.364 E0.45851
G1 X152.21 Y127.834 E1.40757
G1 X152.19 Y129.286 E1.49124
G1 X152.151 Y130.666 E1.5708
G1 X152.151 Y133.351 E1.72551
G1 X152.182 Y134.793 E1.80863
G1 X152.208 Y135.677 E1.85959
G1 X152.21 Y151.828 E2.79026
G1 X152.201 Y152.555 E2.83215
G1 X152.153 Y153.199 E2.86937
G1 X152.026 Y153.832 E2.90657
G1 X151.821 Y154.444 E2.94376
G1 X151.543 Y155.026 E2.98093
G1 X151.195 Y155.569 E3.01809
G1 X150.782 Y156.065 E3.05528
G1 X150.311 Y156.506 E3.09246
G1 X149.789 Y156.886 E3.12967
G1 X149.224 Y157.198 E3.16686
G1 X148.625 Y157.438 E3.20404
G1 X148.001 Y157.602 E3.24122
G1 X147.137 Y157.699 E3.29132
G1 X33.64 Y157.71 E9.83138
G1 X32.942 Y157.701 E9.8716
G1 X32.298 Y157.652 E9.90882
G1 X31.666 Y157.525 E9.94597
G1 X31.054 Y157.32 E9.98316
G1 X30.472 Y157.041 E10.02035
G1 X29.929 Y156.693 E10.05751
G1 X29.433 Y156.28 E10.0947
G1 X28.992 Y155.809 E10.13188
G1 X28.613 Y155.287 E10.16905
G1 X28.301 Y154.722 E10.20625
G1 X28.061 Y154.123 E10.24343
G1 X27.897 Y153.499 E10.28061
G1 X27.801 Y152.632 E10.33087
G1 X27.79 Y136.207 E11.27733
G1 X27.811 Y134.713 E11.36343
G1 X27.849 Y133.334 E11.44292
G1 X27.849 Y130.649 E11.59764
G1 X27.817 Y129.166 E11.68312
G1 X27.792 Y128.323 E11.73171
G1 X27.79 Y112.103 E12.66636
G1 X27.799 Y111.438 E12.70469
G1 X27.848 Y110.795 E12.74184
G1 X27.976 Y110.163 E12.779
G1 X28.181 Y109.551 E12.81619
G1 X28.46 Y108.969 E12.85338
G1 X28.809 Y108.426 E12.89058
G1 X29.222 Y107.931 E12.92773
G1 X29.694 Y107.49 E12.96495
G1 X30.216 Y107.111 E13.00212
G1 X30.781 Y106.799 E13.03931
G1 X31.38 Y106.56 E13.07647
G1 X32.005 Y106.397 E13.11369
G1 X32.863 Y106.301 E13.16344
G1 X146.293 Y106.29 E19.69964
G1 X147.066 Y106.301 E19.74419
M204 S5000
G0 X147.072 Y105.881
M204 S3000
G1 X147.741 Y105.93 E19.78284
G1 X148.399 Y106.059 E19.82148
G1 X149.037 Y106.265 E19.86011
G1 X149.647 Y106.546 E19.89881
G1 X150.218 Y106.897 E19.93743
G1 X150.744 Y107.313 E19.97608
G1 X151.217 Y107.79 E20.01479
G1 X151.629 Y108.319 E20.05342
G1 X151.976 Y108.893 E20.09207
G1 X152.252 Y109.504 E20.13071
G1 X152.453 Y110.144 E20.16936
G1 X152.577 Y110.804 E20.20806
G1 X152.619 Y111.352 E20.23973
G1 X152.63 Y127.762 E21.18532
G1 X152.609 Y129.292 E21.2735
G1 X152.571 Y130.678 E21.35339
G1 X152.571 Y133.342 E21.5069
G1 X152.602 Y134.78 E21.58978
G1 X152.628 Y135.664 E21.64074
G1 X152.63 Y151.834 E22.57251
G1 X152.621 Y152.561 E22.6144
G1 X152.572 Y153.23 E22.65306
G1 X152.445 Y153.888 E22.69167
G1 X152.24 Y154.527 E22.73034
G1 X151.96 Y155.137 E22.76902
G1 X151.61 Y155.709 E22.80766
G1 X151.195 Y156.236 E22.84631
G1 X150.72 Y156.709 E22.88494
G1 X150.191 Y157.123 E22.92365
G1 X149.618 Y157.471 E22.96228
G1 X149.007 Y157.748 E23.00094
G1 X148.367 Y157.95 E23.03961
G1 X147.708 Y158.075 E23.07826
G1 X147.149 Y158.119 E23.11057
G1 X33.634 Y158.13 E29.65167
G1 X32.936 Y158.121 E29.69189
G1 X32.267 Y158.072 E29.73054
G1 X31.609 Y157.944 E29.76917
G1 X30.97 Y157.739 E29.80784
G1 X30.36 Y157.459 E29.84652
G1 X29.788 Y157.109 E29.88516
G1 X29.262 Y156.693 E29.9238
G1 X28.789 Y156.218 E29.96243
G1 X28.376 Y155.689 E30.0011
G1 X28.028 Y155.115 E30.03978
G1 X27.751 Y154.504 E30.07844
G1 X27.549 Y153.865 E30.11705
G1 X27.425 Y153.205 E30.15575
G1 X27.381 Y152.643 E30.18823
G1 X27.37 Y136.207 E31.13533
G1 X27.391 Y134.707 E31.22177
G1 X27.429 Y133.322 E31.30161
G1 X27.429 Y130.658 E31.45512
G1 X27.397 Y129.175 E31.54059
G1 X27.372 Y128.336 E31.58896
G1 X27.37 Y112.174 E32.52027
G1 X27.38 Y111.433 E32.56297
G1 X27.429 Y110.764 E32.60162
G1 X27.557 Y110.105 E32.64031
G1 X27.762 Y109.467 E32.67892
G1 X28.043 Y108.857 E32.71762
G1 X28.393 Y108.285 E32.75626
G1 X28.809 Y107.759 E32.7949
G1 X29.285 Y107.286 E32.83357
G1 X29.814 Y106.873 E32.87225
G1 X30.388 Y106.526 E32.91089
G1 X30.999 Y106.25 E32.94953
G1 X31.639 Y106.048 E32.9882
G1 X32.298 Y105.924 E33.02684
G1 X32.851 Y105.881 E33.0588
G1 X146.293 Y105.87 E39.59569
G1 X147.072 Y105.881 E39.64058
M204 S5000
G1 F2700 E26.64058
;MESH:ozonotapa1.stl(1)
G0 F1200 X142.347 Y116.153
G0 X143.63 Y114.87
G0 X143.658 Y125.158
G0 X35.95 Y125.55
M204 S3000
;TYPE:WALL-INNER
G1 F2100 E39.64058
G1 F1200 X144.05 Y125.55 E45.86965
G1 X144.05 Y114.45 E46.50927
G1 X35.95 Y114.45 E52.73833
G1 X35.95 Y125.55 E53.37795
M204 S5000
G0 X34.05 Y127.45
M204 S3000
G1 X34.05 Y112.55 E54.23654
G1 X145.95 Y112.55 E60.68457
G1 X145.95 Y127.45 E61.54316
G1 X34.05 Y127.45 E67.99119
M204 S5000
G0 X33.63 Y127.87
M204 S3000
G1 X33.63 Y112.13 E68.89818
G1 X146.37 Y112.13 E75.39462
G1 X146.37 Y127.87 E76.30161
G1 X33.63 Y127.87 E82.79804
M204 S5000
G0 X33.7 Y127.8
G0 X36.3 Y125.2
G0 X36.37 Y125.13
M204 S3000
G1 X143.63 Y125.13 E88.97871
G1 X143.63 Y114.87 E89.56992
G1 X36.37 Y114.87 E95.75058
G1 X36.37 Y125.13 E96.3418
M204 S5000
G0 X36.79 Y124.71
M204 S3000
;TYPE:WALL-OUTER
G1 X143.21 Y124.71 E102.47406
G1 X143.21 Y115.29 E103.01687
G1 X36.79 Y115.29 E109.14913
G1 X36.79 Y124.71 E109.69194
M204 S5000
G0 X36.99 Y124.71
G0 X36.99 Y125.23
G0 X33.7 Y127.8
G0 X33.21 Y128.29
M204 S3000
G1 X33.21 Y111.71 E110.64733
G1 X146.79 Y111.71 E117.19217
G1 X146.79 Y128.29 E118.14756
G1 X33.21 Y128.29 E124.6924
M204 S5000
G0 X33.21 Y128.09
G0 X33.7 Y127.8
G0 X34.46 Y127.04
M204 S3000
;TYPE:SKIN
G1 X34.46 Y112.96 E125.50374
G1 X145.54 Y112.96 E131.90452
G1 X145.54 Y127.04 E132.71586
G1 X34.46 Y127.04 E139.11664
M204 S5000
G0 X35.54 Y125.96
M204 S3000
G1 X144.46 Y125.96 E145.39296
G1 X144.46 Y114.04 E146.07982
G1 X35.54 Y114.04 E152.35614
G1 X35.54 Y125.96 E153.04301
M204 S5000
G0 X35.14 Y113.64
M204 S3000
G1 X35.14 Y126.36 E153.77598
G1 X144.86 Y126.36 E160.09839
G1 X144.86 Y113.64 E160.83136
G1 X35.14 Y113.64 E167.15378
M204 S5000
G0 X34.86 Y113.36
M204 S3000
G1 X145.14 Y113.36 E173.50846
G1 X145.14 Y126.64 E174.2737
G1 X34.86 Y126.64 E180.62838
G1 X34.86 Y113.36 E181.39362
M204 S5000
G1 F2700 E168.39362
;MESH:ozonotapa1.stl
G0 F1200 X35.95 Y127.85
G0 X35.95 Y129.165
G0 X35.95 Y134.835
G0 X35.95 Y136.15
G0 X35.95 Y149.55
M204 S3000
;TYPE:WALL-INNER
G1 F2100 E181.39362
G1 F1200 X144.05 Y149.55 E187.62268
G1 X144.05 Y138.45 E188.2623
G1 X35.95 Y138.45 E194.49137
G1 X35.95 Y149.55 E195.13098
M204 S5000
G0 X34.05 Y151.45
M204 S3000
G1 X34.05 Y136.55 E195.98957
G1 X145.95 Y136.55 E202.4376
G1 X145.95 Y151.45 E203.29619
G1 X34.05 Y151.45 E209.74422
M204 S5000
G0 X33.63 Y151.87
M204 S3000
G1 X33.63 Y136.13 E210.65121
G1 X146.37 Y136.13 E217.14765
G1 X146.37 Y151.87 E218.05464
G1 X33.63 Y151.87 E224.55108
M204 S5000
G0 X33.7 Y151.8
G0 X36.3 Y149.2
G0 X36.37 Y149.13
M204 S3000
G1 X143.63 Y149.13 E230.73174
G1 X143.63 Y138.87 E231.32295
G1 X36.37 Y138.87 E237.50362
G1 X36.37 Y149.13 E238.09483
M204 S5000
G0 X36.79 Y148.71
M204 S3000
;TYPE:WALL-OUTER
G1 X143.21 Y148.71 E244.22709
G1 X143.21 Y139.29 E244.7699
G1 X36.79 Y139.29 E250.90216
G1 X36.79 Y148.71 E251.44497
M204 S5000
G0 X36.99 Y148.71
G0 X36.99 Y149.23
G0 X33.7 Y151.8
G0 X33.21 Y152.29
M204 S3000
G1 X33.21 Y135.71 E252.40036
G1 X146.79 Y135.71 E258.9452
G1 X146.79 Y152.29 E259.9006
G1 X33.21 Y152.29 E266.44544
M204 S5000
G0 X33.21 Y152.09
G0 X33.7 Y151.8
G0 X34.46 Y151.04
M204 S3000
;TYPE:SKIN
G1 X34.46 Y136.96 E267.25677
G1 X145.54 Y136.96 E273.65755
G1 X145.54 Y151.04 E274.46889
G1 X34.46 Y151.04 E280.86967
M204 S5000
G0 X35.54 Y149.96
M204 S3000
G1 X144.46 Y149.96 E287.14599
G1 X144.46 Y138.04 E287.83286
G1 X35.54 Y138.04 E294.10917
G1 X35.54 Y149.96 E294.79604
M204 S5000
G0 X35.14 Y137.64
M204 S3000
G1 X35.14 Y150.36 E295.52901
G1 X144.86 Y150.36 E301.85143
G1 X144.86 Y137.64 E302.58439
G1 X35.14 Y137.64 E308.90681
M204 S5000
G0 X34.86 Y137.36
M204 S3000
G1 X145.14 Y137.36 E315.26149
G1 X145.14 Y150.64 E316.02673
G1 X34.86 Y150.64 E322.38141
G1 X34.86 Y137.36 E323.14665
M204 S5000
G1 F2700 E310.14665
;MESH:NONMESH
G0 F600 X34.86 Y137.36 Z0.5
G0 F1200 X36 Y136.15
G0 X36 Y134.835
G0 X36 Y129.165
G0 X36 Y127.85
G0 X36 Y125.5
;TIME_ELAPSED:304.694850
;LAYER:1
M140 S70
M106 S204
M204 S3000
;TYPE:WALL-INNER
;MESH:ozonotapa1.stl(1)
G1 F2100 E323.14665
G1 F2000 X144 Y125.5 E326.73874
G1 X144 Y114.5 E327.10461
G1 X36 Y114.5 E330.6967
G1 X36 Y125.5 E331.06256
M204 S5000
G0 F3000 X34 Y127.5
M204 S3000
G1 F2000 X34 Y112.5 E331.56146
G1 X146 Y112.5 E335.2866
G1 X146 Y127.5 E335.7855
G1 X34 Y127.5 E339.51064
M204 S5000
G0 F3000 X33.6 Y127.9
M204 S3000
G1 F2000 X33.6 Y112.1 E340.03615
G1 X146.4 Y112.1 E343.78789
G1 X146.4 Y127.9 E344.3134
G1 X33.6 Y127.9 E348.06514
M204 S5000
G0 F3000 X33.67 Y127.83
G0 X36.33 Y125.17
G0 X36.4 Y125.1
M204 S3000
G1 F2000 X143.6 Y125.1 E351.63063
G1 X143.6 Y114.9 E351.96988
G1 X36.4 Y114.9 E355.53537
G1 X36.4 Y125.1 E355.87462
M204 S5000
G0 F3000 X36.8 Y124.7
M204 S3000
;TYPE:WALL-OUTER
G1 F1400 X143.2 Y124.7 E359.4135
G1 X143.2 Y115.3 E359.72615
G1 X36.8 Y115.3 E363.26502
G1 X36.8 Y124.7 E363.57767
M204 S5000
G0 F3000 X37 Y124.7
G0 X37 Y125.2
G0 X33.67 Y127.83
G0 X33.2 Y128.3
M204 S3000
G1 F1400 X33.2 Y111.7 E364.12979
G1 X146.8 Y111.7 E367.90814
G1 X146.8 Y128.3 E368.46026
G1 X33.2 Y128.3 E372.23861
M204 S5000
G0 F3000 X33.2 Y128.1
G0 X33.67 Y127.83
G0 X34.39 Y127.11
M204 S3000
;TYPE:SKIN
G1 F1400 X34.39 Y112.89 E372.71157
G1 X145.61 Y112.89 E376.41076
G1 X145.61 Y127.11 E376.88372
G1 X34.39 Y127.11 E380.58291
M204 S5000
G0 F3000 X35.61 Y125.89
M204 S3000
G1 F1400 X144.39 Y125.89 E384.20095
G1 X144.39 Y114.11 E384.59275
G1 X35.61 Y114.11 E388.21079
G1 X35.61 Y125.89 E388.6026
M204 S5000
G0 F3000 X34.57 Y113.255
M204 S3000
G1 F1400 X34.756 Y113.069 E388.61134
M204 S5000
G0 F3000 X35.322 Y113.069
M204 S3000
G1 F1400 X34.57 Y113.821 E388.64672
M204 S5000
G0 F3000 X34.57 Y114.387
M204 S3000
G1 F1400 X35.888 Y113.069 E388.70871
M204 S5000
G0 F3000 X36.453 Y113.069
M204 S3000
G1 F1400 X35.593 Y113.929 E388.74916
M204 S5000
G0 F3000 X35.43 Y114.093
M204 S3000
G1 F1400 X34.57 Y114.953 E388.78961
M204 S5000
G0 F3000 X34.57 Y115.518
M204 S3000
G1 F1400 X35.43 Y114.658 E388.83007
M204 S5000
G0 F3000 X35.43 Y115.224
M204 S3000
G1 F1400 X34.57 Y116.084 E388.87052
M204 S5000
G0 F3000 X34.57 Y116.65
M204 S3000
G1 F1400 X35.43 Y115.79 E388.91097
M204 S5000
G0 F3000 X35.43 Y116.355
M204 S3000
G1 F1400 X34.57 Y117.215 E388.95142
M204 S5000
G0 F3000 X34.57 Y117.781
M204 S3000
G1 F1400 X35.43 Y116.921 E388.99187
M204 S5000
G0 F3000 X35.43 Y117.487
M204 S3000
G1 F1400 X34.57 Y118.347 E389.03232
M204 S5000
G0 F3000 X34.57 Y118.912
M204 S3000
G1 F1400 X35.43 Y118.052 E389.07278
M204 S5000
G0 F3000 X35.43 Y118.618
M204 S3000
G1 F1400 X34.57 Y119.478 E389.11323
M204 S5000
G0 F3000 X34.57 Y120.044
M204 S3000
G1 F1400 X35.43 Y119.184 E389.15368
M204 S5000
G0 F3000 X35.43 Y119.75
M204 S3000
G1 F1400 X34.57 Y120.609 E389.19411
M204 S5000
G0 F3000 X34.57 Y121.175
M204 S3000
G1 F1400 X35.43 Y120.315 E389.23456
M204 S5000
G0 F3000 X35.43 Y120.881
M204 S3000
G1 F1400 X34.57 Y121.741 E389.27501
M204 S5000
G0 F3000 X34.57 Y122.306
M204 S3000
G1 F1400 X35.43 Y121.447 E389.31544
M204 S5000
G0 F3000 X35.43 Y122.012
M204 S3000
G1 F1400 X34.57 Y122.872 E389.35589
M204 S5000
G0 F3000 X34.57 Y123.438
M204 S3000
G1 F1400 X35.43 Y122.578 E389.39634
M204 S5000
G0 F3000 X35.43 Y123.144
M204 S3000
G1 F1400 X34.57 Y124.003 E389.43677
M204 S5000
G0 F3000 X34.57 Y124.569
M204 S3000
G1 F1400 X35.43 Y123.709 E389.47722
M204 S5000
G0 F3000 X35.43 Y124.275
M204 S3000
G1 F1400 X34.57 Y125.135 E389.51768
M204 S5000
G0 F3000 X34.57 Y125.701
M204 S3000
G1 F1400 X35.43 Y124.841 E389.55813
M204 S5000
G0 F3000 X35.43 Y125.406
M204 S3000
G1 F1400 X34.57 Y126.266 E389.59858
M204 S5000
G0 F3000 X34.57 Y126.832
M204 S3000
G1 F1400 X35.43 Y125.972 E389.63903
M204 S5000
G0 F3000 X35.899 Y126.068
M204 S3000
G1 F1400 X35.038 Y126.93 E389.67955
M204 S5000
G0 F3000 X35.604 Y126.93
M204 S3000
G1 F1400 X36.465 Y126.068 E389.72008
M204 S5000
G0 F3000 X37.03 Y126.068
M204 S3000
G1 F1400 X36.169 Y126.93 E389.7606
M204 S5000
G0 F3000 X36.735 Y126.93
M204 S3000
G1 F1400 X37.596 Y126.068 E389.80112
M204 S5000
G0 F3000 X38.162 Y126.068
M204 S3000
G1 F1400 X37.301 Y126.93 E389.84164
M204 S5000
G0 F3000 X37.866 Y126.93
M204 S3000
G1 F1400 X38.728 Y126.068 E389.88219
M204 S5000
G0 F3000 X39.293 Y126.068
M204 S3000
G1 F1400 X38.432 Y126.93 E389.92271
M204 S5000
G0 F3000 X38.998 Y126.93
M204 S3000
G1 F1400 X39.859 Y126.068 E389.96323
M204 S5000
G0 F3000 X40.425 Y126.068
M204 S3000
G1 F1400 X39.563 Y126.93 E390.00378
M204 S5000
G0 F3000 X40.129 Y126.93
M204 S3000
G1 F1400 X40.99 Y126.068 E390.0443
M204 S5000
G0 F3000 X41.556 Y126.068
M204 S3000
G1 F1400 X40.695 Y126.93 E390.08482
M204 S5000
G0 F3000 X41.26 Y126.93
M204 S3000
G1 F1400 X42.122 Y126.068 E390.12537
M204 S5000
G0 F3000 X42.687 Y126.068
M204 S3000
G1 F1400 X41.826 Y126.93 E390.16589
M204 S5000
G0 F3000 X42.392 Y126.93
M204 S3000
G1 F1400 X43.253 Y126.068 E390.20641
M204 S5000
G0 F3000 X43.819 Y126.068
M204 S3000
G1 F1400 X42.957 Y126.93 E390.24696
M204 S5000
G0 F3000 X43.523 Y126.93
M204 S3000
G1 F1400 X44.384 Y126.068 E390.28748
M204 S5000
G0 F3000 X44.95 Y126.068
M204 S3000
G1 F1400 X44.089 Y126.93 E390.328
M204 S5000
G0 F3000 X44.655 Y126.93
M204 S3000
G1 F1400 X45.516 Y126.068 E390.36853
M204 S5000
G0 F3000 X46.081 Y126.068
M204 S3000
G1 F1400 X45.22 Y126.93 E390.40905
M204 S5000
G0 F3000 X45.786 Y126.93
M204 S3000
G1 F1400 X46.647 Y126.068 E390.44957
M204 S5000
G0 F3000 X47.213 Y126.068
M204 S3000
G1 F1400 X46.352 Y126.93 E390.49009
M204 S5000
G0 F3000 X46.917 Y126.93
M204 S3000
G1 F1400 X47.779 Y126.068 E390.53064
M204 S5000
G0 F3000 X48.344 Y126.068
M204 S3000
G1 F1400 X47.483 Y126.93 E390.57116
M204 S5000
G0 F3000 X48.049 Y126.93
M204 S3000
G1 F1400 X48.91 Y126.068 E390.61168
M204 S5000
G0 F3000 X49.476 Y126.068
M204 S3000
G1 F1400 X48.614 Y126.93 E390.65223
M204 S5000
G0 F3000 X49.18 Y126.93
M204 S3000
G1 F1400 X50.041 Y126.068 E390.69275
M204 S5000
G0 F3000 X50.607 Y126.068
M204 S3000
G1 F1400 X49.746 Y126.93 E390.73327
M204 S5000
G0 F3000 X50.311 Y126.93
M204 S3000
G1 F1400 X51.173 Y126.068 E390.77382
M204 S5000
G0 F3000 X51.738 Y126.068
M204 S3000
G1 F1400 X50.877 Y126.93 E390.81434
M204 S5000
G0 F3000 X51.443 Y126.93
M204 S3000
G1 F1400 X52.304 Y126.068 E390.85486
M204 S5000
G0 F3000 X52.87 Y126.068
M204 S3000
G1 F1400 X52.008 Y126.93 E390.89541
M204 S5000
G0 F3000 X52.574 Y126.93
M204 S3000
G1 F1400 X53.435 Y126.068 E390.93593
M204 S5000
G0 F3000 X54.001 Y126.068
M204 S3000
G1 F1400 X53.14 Y126.93 E390.97646
M204 S5000
G0 F3000 X53.705 Y126.93
M204 S3000
G1 F1400 X54.567 Y126.068 E391.017
M204 S5000
G0 F3000 X55.132 Y126.068
M204 S3000
G1 F1400 X54.271 Y126.93 E391.05752
M204 S5000
G0 F3000 X54.837 Y126.93
M204 S3000
G1 F1400 X55.698 Y126.068 E391.09805
M204 S5000
G0 F3000 X56.264 Y126.068
M204 S3000
G1 F1400 X55.403 Y126.93 E391.13857
M204 S5000
G0 F3000 X55.968 Y126.93
M204 S3000
G1 F1400 X56.829 Y126.068 E391.17909
M204 S5000
G0 F3000 X57.395 Y126.068
M204 S3000
G1 F1400 X56.534 Y126.93 E391.21961
M204 S5000
G0 F3000 X57.1 Y126.93
M204 S3000
G1 F1400 X57.961 Y126.068 E391.26014
M204 S5000
G0 F3000 X58.527 Y126.068
M204 S3000
G1 F1400 X57.665 Y126.93 E391.30068
M204 S5000
G0 F3000 X58.231 Y126.93
M204 S3000
G1 F1400 X59.092 Y126.068 E391.3412
M204 S5000
G0 F3000 X59.658 Y126.068
M204 S3000
G1 F1400 X58.797 Y126.93 E391.38173
M204 S5000
G0 F3000 X59.362 Y126.93
M204 S3000
G1 F1400 X60.224 Y126.068 E391.42227
M204 S5000
G0 F3000 X60.789 Y126.068
M204 S3000
