;FLAVOR:Marlin
;TIME:7550
;Filament used: 6.4609m
;Layer height: 0.2
;MINX:25.22
;MINY:59.72
;MINZ:0.3
;MAXX:167.281
;MAXY:179.28
;MAXZ:9.9
;Generated with Cura_SteamEngine 4.6.2
M140 S70
M105
M190 S70
M104 S237
M105
M109 S237
M82 ;absolute extrusion mode
G28 ;Home
G1 Z15.0 F6000 ;Move the platform down 15mm
G92 E0
G1 F200 E3
G92 E0
G92 E0
G92 E0
G1 F2700 E-13
;LAYER_COUNT:49
;LAYER:0
M107
G0 F1200 X106.716 Y60.151 Z0.3
;TYPE:SKIRT
G1 F2100 E0
G1 F1200 X108.421 Y60.263 E0.09846
G1 X109.853 Y60.368 E0.1812
G1 X110.639 Y60.462 E0.22681
G1 X111.263 Y60.624 E0.26396
G1 X111.863 Y60.863 E0.30118
G1 X112.429 Y61.173 E0.33836
G1 X112.952 Y61.551 E0.37555
G1 X113.424 Y61.991 E0.41273
G1 X113.838 Y62.486 E0.44991
G1 X114.198 Y63.048 E0.48837
G1 X115.556 Y65.494 E0.64959
G1 X116.928 Y67.808 E0.8046
G1 X118.373 Y70.097 E0.96058
G1 X119.861 Y72.311 E1.1143
G1 X121.411 Y74.483 E1.26806
G1 X123.012 Y76.596 E1.42082
G1 X124.726 Y78.731 E1.57858
G1 X126.442 Y80.749 E1.73122
G1 X128.243 Y82.75 E1.88635
G1 X130.096 Y84.694 E2.04111
G1 X132.003 Y86.585 E2.19586
G1 X133.956 Y88.415 E2.35009
G1 X135.971 Y90.198 E2.50513
G1 X138.009 Y91.901 E2.65817
G1 X140.122 Y93.569 E2.81329
G1 X142.261 Y95.161 E2.96694
G1 X144.47 Y96.709 E3.12237
G1 X146.714 Y98.191 E3.27733
G1 X149.001 Y99.607 E3.43233
G1 X151.314 Y100.95 E3.58645
G1 X153.632 Y102.213 E3.73856
G1 X156.057 Y103.444 E3.89527
G1 X158.489 Y104.594 E4.05029
G1 X160.928 Y105.664 E4.20376
G1 X163.509 Y106.711 E4.36426
G1 X164.091 Y106.99 E4.40145
G1 X164.543 Y107.272 E4.43215
G1 X165.056 Y107.664 E4.46935
G1 X165.516 Y108.116 E4.50651
G1 X165.917 Y108.622 E4.54372
G1 X166.252 Y109.173 E4.58087
G1 X166.517 Y109.762 E4.61809
G1 X166.707 Y110.379 E4.65529
G1 X166.819 Y111.014 E4.69245
G1 X166.851 Y111.521 E4.72172
G1 X166.859 Y112.049 E4.75215
G1 X166.861 Y114.481 E4.89229
G1 X166.852 Y115.215 E4.93459
G1 X166.803 Y115.858 E4.97175
G1 X166.675 Y116.491 E5.00896
G1 X166.47 Y117.103 E5.04615
G1 X166.191 Y117.684 E5.08329
G1 X165.842 Y118.227 E5.12049
G1 X165.428 Y118.723 E5.15771
G1 X164.716 Y119.351 E5.21242
G1 X162.341 Y121.111 E5.38276
G1 X160.226 Y122.773 E5.53776
G1 X158.2 Y124.461 E5.68971
G1 X156.172 Y126.25 E5.84554
G1 X154.206 Y128.084 E6.00047
G1 X152.325 Y129.942 E6.15282
G1 X150.427 Y131.926 E6.31104
G1 X148.661 Y133.88 E6.4628
G1 X146.91 Y135.931 E6.6182
G1 X145.238 Y138.004 E6.77167
G1 X143.599 Y140.161 E6.92777
G1 X142.045 Y142.331 E7.08157
G1 X140.556 Y144.538 E7.23498
G1 X139.09 Y146.851 E7.39278
G1 X138.824 Y147.29 E7.42236
G1 X138.542 Y147.743 E7.4531
G1 X138.108 Y148.339 E7.49559
G1 X137.612 Y148.928 E7.53996
G1 X136.715 Y149.962 E7.61884
G1 X135.421 Y151.528 E7.7359
G1 X135.057 Y151.978 E7.76925
G1 X134.621 Y152.453 E7.8064
G1 X134.129 Y152.871 E7.8436
G1 X133.666 Y153.181 E7.87571
G1 X133.208 Y153.453 E7.9064
G1 X131.504 Y154.406 E8.01891
G1 X130.191 Y155.192 E8.10709
G1 X129.413 Y155.646 E8.15899
G1 X128.528 Y156.13 E8.21712
G1 X127.633 Y156.601 E8.2754
G1 X125.285 Y157.921 E8.43061
G1 X122.984 Y159.3 E8.58519
G1 X120.741 Y160.733 E8.73856
G1 X118.517 Y162.245 E8.89353
G1 X116.348 Y163.81 E9.04765
G1 X113.226 Y166.231 E9.2753
G1 X112.41 Y166.841 E9.33401
G1 X111.842 Y167.148 E9.37121
G1 X111.24 Y167.382 E9.40843
G1 X110.615 Y167.539 E9.44557
G1 X110.033 Y167.614 E9.47938
G1 X107.474 Y167.799 E9.62722
G1 X106.801 Y167.855 E9.66614
G1 X104.125 Y168.115 E9.82106
G1 X101.486 Y168.447 E9.97433
G1 X98.783 Y168.866 E10.13194
G1 X96.189 Y169.343 E10.28393
G1 X92.585 Y170.129 E10.49648
G1 X91.947 Y170.227 E10.53368
G1 X91.39 Y170.248 E10.56579
G1 X90.069 Y170.227 E10.64192
G1 X87.188 Y170.205 E10.80794
G1 X84.666 Y170.255 E10.9533
G1 X82.609 Y170.153 E11.07197
G1 X79.927 Y170.046 E11.22664
G1 X77.214 Y170.014 E11.38298
G1 X74.577 Y170.057 E11.53496
G1 X71.865 Y170.179 E11.69139
G1 X69.204 Y170.374 E11.84513
G1 X66.531 Y170.646 E11.99996
G1 X63.889 Y170.99 E12.15348
G1 X61.24 Y171.412 E12.30805
G1 X58.606 Y171.909 E12.46251
G1 X55.953 Y172.487 E12.61897
G1 X53.417 Y173.115 E12.76952
G1 X50.781 Y173.847 E12.92716
G1 X48.233 Y174.634 E13.08083
G1 X45.686 Y175.499 E13.23582
G1 X43.172 Y176.434 E13.39038
G1 X40.724 Y177.424 E13.54254
G1 X39.534 Y177.948 E13.61747
G1 X38.397 Y178.433 E13.6887
G1 X37.789 Y178.648 E13.72586
G1 X37.159 Y178.787 E13.76304
G1 X36.457 Y178.849 E13.80364
G1 X35.901 Y178.86 E13.83569
G1 X31.531 Y178.86 E14.0875
G1 X30.798 Y178.851 E14.12974
G1 X30.155 Y178.802 E14.1669
G1 X29.522 Y178.674 E14.20412
G1 X28.911 Y178.469 E14.24125
G1 X28.329 Y178.19 E14.27844
G1 X27.786 Y177.841 E14.31564
G1 X27.29 Y177.427 E14.35287
G1 X26.85 Y176.956 E14.39001
G1 X26.471 Y176.434 E14.42718
G1 X26.159 Y175.869 E14.46437
G1 X25.92 Y175.269 E14.50159
G1 X25.757 Y174.645 E14.53875
G1 X25.667 Y173.927 E14.58045
G1 X25.64 Y173.295 E14.6169
G1 X25.64 Y111.028 E18.20492
G1 X25.651 Y110.279 E18.24809
G1 X25.7 Y109.636 E18.28524
G1 X25.829 Y109.004 E18.32241
G1 X26.035 Y108.392 E18.35962
G1 X26.315 Y107.811 E18.39679
G1 X26.664 Y107.268 E18.43398
G1 X27.078 Y106.773 E18.47117
G1 X27.579 Y106.31 E18.51048
G1 X28.251 Y105.766 E18.5603
G1 X30.321 Y104.043 E18.71549
G1 X32.35 Y102.254 E18.87136
G1 X34.318 Y100.421 E19.02634
G1 X36.217 Y98.547 E19.18007
G1 X38.064 Y96.618 E19.33397
G1 X39.885 Y94.606 E19.49034
G1 X41.598 Y92.602 E19.64225
G1 X43.302 Y90.491 E19.79858
G1 X44.937 Y88.341 E19.95422
G1 X46.487 Y86.182 E20.10737
G1 X47.134 Y85.323 E20.16934
G1 X47.51 Y84.946 E20.20002
G1 X48.31 Y84.221 E20.26224
G1 X50.329 Y82.339 E20.42128
G1 X52.224 Y80.472 E20.57457
G1 X54.095 Y78.519 E20.73042
G1 X55.9 Y76.525 E20.88541
G1 X57.612 Y74.522 E21.03724
G1 X59.322 Y72.406 E21.19401
G1 X60.941 Y70.28 E21.34799
G1 X62.494 Y68.117 E21.50143
G1 X64 Y65.889 E21.65639
G1 X65.511 Y63.509 E21.81884
G1 X65.916 Y62.849 E21.86346
G1 X66.287 Y62.321 E21.90065
G1 X66.721 Y61.843 E21.93785
G1 X67.21 Y61.422 E21.97503
G1 X67.747 Y61.065 E22.01219
G1 X68.325 Y60.778 E22.04938
G1 X68.934 Y60.564 E22.08657
G1 X69.564 Y60.426 E22.12373
G1 X72.677 Y60.189 E22.30363
G1 X74.256 Y60.142 E22.39466
G1 X105.943 Y60.14 E24.22057
G1 X106.716 Y60.151 E24.26512
G0 X106.722 Y59.731
G1 X108.451 Y59.844 E24.36496
G1 X109.882 Y59.949 E24.44764
G1 X110.693 Y60.045 E24.4947
G1 X111.343 Y60.209 E24.53333
G1 X111.97 Y60.449 E24.57201
G1 X112.563 Y60.762 E24.61065
G1 X113.115 Y61.144 E24.64933
G1 X113.617 Y61.588 E24.68795
G1 X114.063 Y62.089 E24.7266
G1 X114.566 Y62.844 E24.77888
G1 X115.939 Y65.318 E24.94192
G1 X117.284 Y67.585 E25.09381
G1 X118.717 Y69.855 E25.2485
G1 X120.208 Y72.074 E25.40255
G1 X121.756 Y74.243 E25.5561
G1 X123.358 Y76.357 E25.70894
G1 X125.042 Y78.454 E25.86392
G1 X126.743 Y80.455 E26.01525
G1 X128.58 Y82.495 E26.17344
G1 X130.382 Y84.386 E26.32396
G1 X132.29 Y86.277 E26.47875
G1 X134.243 Y88.109 E26.63306
G1 X136.219 Y89.857 E26.78508
G1 X138.298 Y91.594 E26.94119
G1 X140.376 Y93.234 E27.09373
G1 X142.513 Y94.824 E27.24721
G1 X144.726 Y96.376 E27.40297
G1 X146.926 Y97.828 E27.55486
G1 X149.217 Y99.247 E27.71015
G1 X151.51 Y100.578 E27.86292
G1 X153.849 Y101.852 E28.0164
G1 X156.253 Y103.073 E28.17177
G1 X158.634 Y104.199 E28.32354
G1 X161.098 Y105.28 E28.47858
G1 X163.667 Y106.322 E28.63833
G1 X164.273 Y106.611 E28.67702
G1 X164.777 Y106.923 E28.71118
G1 X165.311 Y107.33 E28.74986
G1 X165.793 Y107.796 E28.7885
G1 X166.216 Y108.317 E28.82717
G1 X166.574 Y108.884 E28.86581
G1 X166.862 Y109.49 E28.90447
G1 X167.076 Y110.126 E28.94314
G1 X167.212 Y110.783 E28.9818
G1 X167.271 Y111.515 E29.02412
G1 X167.279 Y112.043 E29.05454
G1 X167.281 Y114.481 E29.19503
G1 X167.271 Y115.221 E29.23767
G1 X167.222 Y115.89 E29.27633
G1 X167.094 Y116.548 E29.31495
G1 X166.888 Y117.187 E29.35364
G1 X166.608 Y117.796 E29.39227
G1 X166.258 Y118.368 E29.43091
G1 X165.841 Y118.894 E29.46959
G1 X165.365 Y119.367 E29.50825
G1 X164.964 Y119.69 E29.53792
G1 X162.593 Y121.446 E29.70794
G1 X160.513 Y123.081 E29.86039
G1 X158.45 Y124.8 E30.01513
G1 X156.456 Y126.558 E30.16831
G1 X154.509 Y128.376 E30.32181
G1 X152.609 Y130.251 E30.47562
G1 X150.762 Y132.182 E30.6296
G1 X148.96 Y134.176 E30.78447
G1 X147.228 Y136.206 E30.93823
G1 X145.568 Y138.263 E31.09055
G1 X143.942 Y140.402 E31.24537
G1 X142.408 Y142.545 E31.39724
G1 X140.883 Y144.805 E31.55434
G1 X139.469 Y147.036 E31.70654
G1 X139.184 Y147.507 E31.73827
G1 X138.898 Y147.966 E31.76943
G1 X138.429 Y148.609 E31.81529
G1 X137.933 Y149.198 E31.85966
G1 X137.036 Y150.232 E31.93854
G1 X135.747 Y151.792 E32.05515
G1 X135.383 Y152.242 E32.0885
G1 X134.931 Y152.737 E32.12712
G1 X134.423 Y153.175 E32.16578
G1 X133.881 Y153.542 E32.20349
G1 X133.423 Y153.814 E32.23419
G1 X131.684 Y154.788 E32.34904
G1 X130.406 Y155.552 E32.43484
G1 X129.624 Y156.009 E32.48703
G1 X128.729 Y156.499 E32.54583
G1 X127.818 Y156.978 E32.60514
G1 X125.505 Y158.278 E32.75803
G1 X123.21 Y159.654 E32.91222
G1 X120.962 Y161.09 E33.06593
G1 X118.765 Y162.584 E33.21903
G1 X116.599 Y164.147 E33.37294
G1 X113.526 Y166.53 E33.59702
G1 X112.654 Y167.184 E33.65983
G1 X112.066 Y167.507 E33.69849
G1 X111.444 Y167.757 E33.73712
G1 X110.796 Y167.932 E33.7758
G1 X110.063 Y168.033 E33.81843
G1 X107.509 Y168.218 E33.96599
G1 X106.87 Y168.271 E34.00293
G1 X104.152 Y168.536 E34.1603
G1 X101.529 Y168.866 E34.31263
G1 X98.854 Y169.28 E34.46861
G1 X96.289 Y169.751 E34.61889
G1 X92.674 Y170.54 E34.8321
G1 X92.012 Y170.643 E34.8707
G1 X91.383 Y170.668 E34.90698
G1 X90.066 Y170.647 E34.98288
G1 X87.194 Y170.625 E35.14837
G1 X84.675 Y170.675 E35.29356
G1 X82.627 Y170.575 E35.41171
G1 X79.905 Y170.466 E35.56869
G1 X77.216 Y170.434 E35.72364
G1 X74.568 Y170.478 E35.87625
G1 X71.913 Y170.597 E36.0294
G1 X69.246 Y170.792 E36.18349
G1 X66.59 Y171.063 E36.33733
G1 X63.94 Y171.408 E36.49132
G1 X61.315 Y171.826 E36.64449
G1 X58.671 Y172.324 E36.79952
G1 X56.068 Y172.891 E36.95303
G1 X53.497 Y173.528 E37.10566
G1 X50.929 Y174.242 E37.25925
G1 X48.358 Y175.035 E37.41428
G1 X45.836 Y175.892 E37.56777
G1 X43.32 Y176.828 E37.72246
G1 X40.862 Y177.821 E37.87522
G1 X39.703 Y178.332 E37.94821
G1 X38.562 Y178.819 E38.01969
G1 X37.93 Y179.045 E38.05837
G1 X37.276 Y179.194 E38.09702
G1 X36.465 Y179.269 E38.14395
G1 X35.909 Y179.28 E38.176
G1 X31.531 Y179.28 E38.42827
G1 X30.793 Y179.27 E38.4708
G1 X30.124 Y179.221 E38.50945
G1 X29.465 Y179.093 E38.54814
G1 X28.827 Y178.887 E38.58677
G1 X28.217 Y178.607 E38.62545
G1 X27.645 Y178.257 E38.66409
G1 X27.119 Y177.84 E38.70277
G1 X26.646 Y177.365 E38.74139
G1 X26.233 Y176.836 E38.78007
G1 X25.886 Y176.262 E38.81872
G1 X25.61 Y175.651 E38.85735
G1 X25.408 Y175.011 E38.89602
G1 X25.284 Y174.352 E38.93466
G1 X25.228 Y173.604 E38.97788
G1 X25.22 Y111.028 E42.58371
G1 X25.231 Y110.273 E42.62722
G1 X25.281 Y109.604 E42.66588
G1 X25.41 Y108.946 E42.70452
G1 X25.616 Y108.308 E42.74315
G1 X25.897 Y107.698 E42.78185
G1 X26.249 Y107.127 E42.8205
G1 X26.666 Y106.602 E42.85914
G1 X27.315 Y105.984 E42.91078
G1 X27.951 Y105.468 E42.95797
G1 X30.071 Y103.704 E43.11689
G1 X32.066 Y101.946 E43.27011
G1 X34.016 Y100.129 E43.4237
G1 X35.915 Y98.254 E43.57748
G1 X37.768 Y96.32 E43.73182
G1 X39.551 Y94.35 E43.88492
G1 X41.282 Y92.324 E44.03848
G1 X42.985 Y90.214 E44.19472
G1 X44.572 Y88.129 E44.34571
G1 X46.162 Y85.914 E44.50283
G1 X46.804 Y85.062 E44.5643
G1 X47.228 Y84.635 E44.59897
G1 X48.038 Y83.901 E44.66196
G1 X50.038 Y82.037 E44.8195
G1 X51.94 Y80.161 E44.97344
G1 X53.778 Y78.243 E45.12652
G1 X55.565 Y76.269 E45.27995
G1 X57.297 Y74.244 E45.4335
G1 X59.001 Y72.134 E45.58978
G1 X60.596 Y70.038 E45.74155
G1 X62.165 Y67.853 E45.89656
G1 X63.641 Y65.67 E46.0484
G1 X65.156 Y63.284 E46.21127
G1 X65.558 Y62.629 E46.25555
G1 X65.942 Y62.079 E46.2942
G1 X66.39 Y61.579 E46.33289
G1 X66.893 Y61.136 E46.37151
G1 X67.446 Y60.756 E46.41018
G1 X68.04 Y60.444 E46.44884
G1 X68.667 Y60.205 E46.4875
G1 X69.317 Y60.042 E46.52612
G1 X69.958 Y59.96 E46.56336
G1 X72.647 Y59.77 E46.71869
G1 X74.245 Y59.722 E46.81081
G1 X105.943 Y59.72 E48.63735
G1 X106.722 Y59.731 E48.68225
G1 F2700 E35.68225
;MESH:Spring_connection_shaft_V1.stl
G0 F1200 X110.309 Y65.421
G0 X110.312 Y69.302
G0 X106.801 Y71.311
G0 X68.349 Y77.339
G0 X67.839 Y83.151
G0 X70.77 Y83.658
G0 X69.665 Y89.444
G0 X68.356 Y89.444
G0 X52.05 Y90.15
;TYPE:WALL-INNER
G1 F2100 E48.68225
G1 F1200 X52.05 Y89.85 E48.69953
G1 X67.95 Y89.85 E49.61574
G1 X67.95 Y90.15 E49.63303
G1 X52.05 Y90.15 E50.28746
G0 X51.63 Y90.57
G1 X51.63 Y89.43 E50.35315
G1 X68.37 Y89.43 E51.31777
G1 X68.37 Y90.57 E51.38346
G1 X51.63 Y90.57 E52.34807
G0 X51.21 Y90.99
;TYPE:WALL-OUTER
G1 X51.21 Y89.01 E52.46216
G1 X68.79 Y89.01 E53.47518
G1 X68.79 Y90.99 E53.58927
G1 X51.21 Y90.99 E54.60229
G0 X51.21 Y90.79
G0 X51.926 Y90.15
G1 F2700 E41.60229
;MESH:Trigger_beam_V1.stl
G0 F1200 X68.356 Y89.444
G0 X68.356 Y88.135
G0 X69.144 Y83.665
G0 X69.144 Y82.356
G0 X104.228 Y81.785
;TYPE:WALL-INNER
G1 F2100 E54.60229
G1 F1200 X104.064 Y81.95 E54.61569
G1 X69.55 Y81.95 E56.6045
G1 X69.55 Y79.26 E56.75951
G1 X69.55 Y79.05 E56.77161
G1 X69.76 Y79.05 E56.77944
G1 X104.123 Y79.054 E58.75955
G1 X104.357 Y79.25 E58.77714
G1 X107.684 Y79.25 E58.96885
G1 X108.063 Y79.163 E58.99126
G1 X108.218 Y79.128 E59.00041
G1 X108.383 Y79.12 E59.00993
G1 X108.383 Y79.279 E59.01693
G1 X108.383 Y81.75 E59.15931
G1 X104.724 Y81.75 E59.37016
G1 X104.228 Y81.785 E59.39881
G0 X108.267 Y82.1
G0 X108.197 Y82.17
G1 X104.739 Y82.17 E59.59807
G1 X104.415 Y82.193 E59.61679
G1 X104.239 Y82.37 E59.63117
G1 X69.13 Y82.37 E61.65426
G1 X69.13 Y78.84 E61.85767
G1 X69.13 Y78.63 E61.86977
G1 X69.34 Y78.63 E61.87761
G1 X104.276 Y78.634 E63.89073
G1 X104.51 Y78.83 E63.90832
G1 X107.637 Y78.83 E64.08851
G1 X108.166 Y78.709 E64.11978
G1 X108.513 Y78.694 E64.13979
G1 X108.653 Y78.688 E64.14787
G1 X108.803 Y78.711 E64.15661
G1 X108.803 Y78.851 E64.16468
G1 X108.804 Y89.293 E64.76638
G1 X108.487 Y89.307 E64.78467
G1 X108.348 Y89.312 E64.79268
G1 X108.197 Y89.289 E64.80148
G1 X108.197 Y89.15 E64.80949
G1 X108.197 Y82.17 E65.2117
G0 X107.777 Y82.59
;TYPE:WALL-OUTER
G1 X104.754 Y82.59 E65.3859
G1 X104.602 Y82.601 E65.39468
G1 X104.414 Y82.79 E65.41004
G1 X68.71 Y82.79 E67.46742
G1 X68.71 Y78.42 E67.71923
G1 X68.71 Y78.21 E67.73133
G1 X68.92 Y78.21 E67.73917
G1 X104.429 Y78.214 E69.78531
G1 X104.663 Y78.41 E69.8029
G1 X107.59 Y78.41 E69.97156
G1 X108.114 Y78.29 E70.00254
G1 X108.671 Y78.267 E70.03466
G1 X109.138 Y78.336 E70.06186
G1 X109.223 Y78.359 E70.06694
G1 X109.224 Y89.632 E70.71652
G1 X108.886 Y89.71 E70.73651
G1 X108.33 Y89.733 E70.76858
G1 X107.863 Y89.664 E70.79578
G1 X107.777 Y89.64 E70.80093
G1 X107.777 Y82.59 E71.20717
G0 X107.577 Y82.59
G0 X107.577 Y82.07
G0 X107.973 Y81.34
;TYPE:SKIN
G1 X104.71 Y81.34 E71.39519
G1 X104.046 Y81.387 E71.43355
G1 X103.894 Y81.54 E71.44598
G1 X69.96 Y81.54 E73.40136
G1 X69.96 Y79.46 E73.52122
G1 X103.975 Y79.464 E75.48127
G1 X104.208 Y79.66 E75.49882
G1 X107.731 Y79.66 E75.70182
G1 X107.973 Y79.605 E75.71612
G1 X107.973 Y81.34 E75.8161
G0 X103.909 Y80.48
G1 X107.153 Y80.48 E76.00303
G1 X107.153 Y80.52 E76.00534
G1 X104.681 Y80.52 E76.14778
G1 X103.681 Y80.591 E76.20555
G1 X103.553 Y80.72 E76.21602
G1 X70.78 Y80.72 E78.1045
G1 X70.78 Y80.28 E78.12986
G1 X103.676 Y80.284 E80.02543
G1 X103.909 Y80.48 E80.04298
G0 X104.062 Y80.06
G1 X107.573 Y80.06 E80.24529
G1 X107.573 Y80.94 E80.296
G1 X104.696 Y80.94 E80.46178
G1 X103.868 Y80.999 E80.50961
G1 X103.728 Y81.14 E80.52106
G1 X70.36 Y81.14 E82.44383
G1 X70.36 Y79.86 E82.51759
G1 X103.829 Y79.864 E84.44618
G1 X104.062 Y80.06 E84.46373
G0 X108.401 Y82.115
G0 X108.499 Y82.213
;TYPE:SKIN
G1 X108.499 Y82.496 E84.47176
G1 X108.497 Y88.999 E84.65633
G0 X108.593 Y89.096
G0 X108.597 Y82.029
G1 X108.508 Y81.94 E84.65978
G0 X108.493 Y81.874
G1 F2700 E71.65978
;MESH:Cross_beam_1_V1.stl
G0 F1200 X105.6 Y78.85
G0 X105.6 Y77.535
G0 X105.6 Y71.315
G0 X105.6 Y70
G0 X105.6 Y69.6
;TYPE:WALL-INNER
G1 F2100 E84.65978
G1 F1200 X74.4 Y69.6 E86.45763
G1 X74.4 Y66.4 E86.64202
G1 X105.6 Y66.4 E88.43987
G1 X105.601 Y68.101 E88.53788
G1 X105.6 Y69.6 E88.62426
G0 X105.993 Y68.493
G0 X108.601 Y68.101
G1 X106.927 Y68.101 E88.72072
G1 X108.6 Y67.265 E88.82849
G1 X108.601 Y68.101 E88.87666
G0 X74 Y68.118
G0 X72.275 Y67.703
