;FLAVOR:Marlin
;TIME:8192
;Filament used: 5.98424m
;Layer height: 0.2
;MINX:34.91
;MINY:100.403
;MINZ:0.3
;MAXX:149.049
;MAXY:151.556
;MAXZ:16.1
;Generated with Cura_SteamEngine 4.6.2
M140 S70
M105
M190 S70
M104 S237
M105
M109 S237
M82 ;absolute extrusion mode
G28 ;Home
G1 Z15.0 F6000 ;Move the platform down 15mm
G92 E0
G1 F200 E3
G92 E0
G92 E0
G92 E0
G1 F2700 E-13
;LAYER_COUNT:80
;LAYER:0
M107
G0 F1200 X64.181 Y100.836 Z0.3
;TYPE:SKIRT
G1 F2100 E0
G1 F1200 X64.824 Y100.885 E0.03716
G1 X65.476 Y101.018 E0.0755
G1 X66.305 Y101.244 E0.12502
G1 X67.416 Y101.566 E0.19167
G1 X70.022 Y102.245 E0.34685
G1 X72.663 Y102.854 E0.50303
G1 X75.277 Y103.377 E0.65664
G1 X77.901 Y103.827 E0.81005
G1 X80.56 Y104.206 E0.96482
G1 X83.241 Y104.51 E1.1203
G1 X85.877 Y104.735 E1.27274
G1 X88.585 Y104.888 E1.42903
G1 X91.269 Y104.964 E1.58376
G1 X92.636 Y104.974 E1.66253
G1 X101.519 Y104.974 E2.1744
G1 X104.196 Y104.936 E2.32867
G1 X106.867 Y104.823 E2.48272
G1 X109.543 Y104.633 E2.63731
G1 X112.235 Y104.366 E2.79319
G1 X114.879 Y104.028 E2.94679
G1 X117.547 Y103.609 E3.10241
G1 X120.172 Y103.121 E3.25626
G1 X122.776 Y102.56 E3.40975
G1 X125.373 Y101.923 E3.56384
G1 X127.936 Y101.216 E3.71704
G1 X128.727 Y101.01 E3.76414
G1 X129.36 Y100.887 E3.8013
G1 X129.938 Y100.844 E3.8347
G1 X130.902 Y100.826 E3.89026
G1 X142.594 Y100.825 E4.56399
G1 X143.367 Y100.836 E4.60853
G1 X144.01 Y100.885 E4.64569
G1 X144.642 Y101.013 E4.68285
G1 X145.254 Y101.219 E4.72006
G1 X145.836 Y101.498 E4.75725
G1 X146.378 Y101.847 E4.7944
G1 X146.877 Y102.264 E4.83187
G1 X147.433 Y102.847 E4.87829
G1 X147.811 Y103.37 E4.91548
G1 X148.121 Y103.935 E4.95261
G1 X148.36 Y104.535 E4.98983
G1 X148.522 Y105.159 E5.02698
G1 X148.617 Y106.055 E5.0789
G1 X148.627 Y106.575 E5.10887
G1 X148.629 Y119.846 E5.87358
G1 X148.619 Y120.651 E5.91997
G1 X148.57 Y121.294 E5.95713
G1 X148.442 Y121.927 E5.99435
G1 X148.237 Y122.539 E6.03154
G1 X147.958 Y123.121 E6.06873
G1 X147.609 Y123.663 E6.10588
G1 X147.195 Y124.159 E6.1431
G1 X146.689 Y124.628 E6.18286
G1 X146.288 Y124.953 E6.2126
G1 X144.253 Y126.387 E6.35606
G1 X142.108 Y127.972 E6.50974
G1 X140.005 Y129.621 E6.66373
G1 X137.945 Y131.33 E6.81797
G1 X135.924 Y133.108 E6.97308
G1 X133.971 Y134.925 E7.12679
G1 X132.052 Y136.816 E7.28204
G1 X130.2 Y138.746 E7.43617
G1 X128.404 Y140.726 E7.59021
G1 X126.644 Y142.783 E7.7462
G1 X124.982 Y144.837 E7.89845
G1 X124.63 Y145.285 E7.93129
G1 X124.073 Y145.937 E7.9807
G1 X123.557 Y146.482 E8.02395
G1 X122.99 Y147.023 E8.0691
G1 X122.285 Y147.629 E8.12267
G1 X121.638 Y148.125 E8.16965
G1 X120.969 Y148.584 E8.2164
G1 X120.236 Y149.033 E8.26593
G1 X119.598 Y149.381 E8.30781
G1 X118.746 Y149.787 E8.3622
G1 X118.124 Y150.047 E8.40104
G1 X117.641 Y150.227 E8.43074
G1 X117.059 Y150.418 E8.46604
G1 X116.448 Y150.594 E8.50268
G1 X115.641 Y150.788 E8.55051
G1 X114.871 Y150.93 E8.59563
G1 X114.081 Y151.035 E8.64155
G1 X113.255 Y151.102 E8.6893
G1 X111.771 Y151.135 E8.77483
G1 X66.438 Y151.136 E11.38707
G1 X65.074 Y151.119 E11.46567
G1 X64.128 Y151.083 E11.52022
G1 X63.567 Y151.048 E11.55261
G1 X62.644 Y150.966 E11.60601
G1 X61.925 Y150.883 E11.64771
G1 X61.037 Y150.757 E11.69939
G1 X60.386 Y150.648 E11.73743
G1 X59.409 Y150.456 E11.7948
G1 X58.869 Y150.336 E11.82668
G1 X57.905 Y150.096 E11.88392
G1 X57.319 Y149.933 E11.91897
G1 X56.372 Y149.643 E11.97604
G1 X55.776 Y149.443 E12.01227
G1 X54.884 Y149.117 E12.06699
G1 X54.272 Y148.876 E12.1049
G1 X53.396 Y148.503 E12.15976
G1 X52.851 Y148.255 E12.19426
G1 X51.959 Y147.82 E12.25145
G1 X51.41 Y147.533 E12.28715
G1 X50.578 Y147.072 E12.34196
G1 X50.017 Y146.74 E12.37952
G1 X49.168 Y146.208 E12.43725
G1 X48.721 Y145.912 E12.46815
G1 X47.911 Y145.344 E12.52515
G1 X47.376 Y144.948 E12.56351
G1 X46.618 Y144.354 E12.619
G1 X46.147 Y143.965 E12.6542
G1 X45.425 Y143.336 E12.70938
G1 X44.962 Y142.912 E12.74555
G1 X44.283 Y142.254 E12.80004
G1 X43.821 Y141.784 E12.83801
G1 X43.154 Y141.067 E12.89444
G1 X42.744 Y140.604 E12.93008
G1 X42.145 Y139.889 E12.98383
G1 X41.746 Y139.388 E13.02073
G1 X41.178 Y138.632 E13.07522
G1 X40.784 Y138.079 E13.11435
G1 X40.234 Y137.258 E13.17129
G1 X39.926 Y136.775 E13.2043
G1 X39.419 Y135.929 E13.26113
G1 X39.121 Y135.403 E13.29597
G1 X38.672 Y134.555 E13.35126
G1 X38.379 Y133.968 E13.38907
G1 X37.987 Y133.126 E13.44258
G1 X37.723 Y132.516 E13.48089
G1 X37.373 Y131.649 E13.53476
G1 X37.146 Y131.041 E13.57216
G1 X36.825 Y130.104 E13.62923
G1 X36.654 Y129.562 E13.66198
G1 X36.387 Y128.627 E13.71801
G1 X36.218 Y127.972 E13.75699
G1 X36.007 Y127.058 E13.81105
G1 X35.884 Y126.447 E13.84696
G1 X35.712 Y125.463 E13.90452
G1 X35.632 Y124.925 E13.93586
G1 X35.508 Y123.913 E13.99461
G1 X35.446 Y123.267 E14.03201
G1 X35.386 Y122.395 E14.08237
G1 X35.353 Y121.658 E14.12489
G1 X35.331 Y120.147 E14.21196
G1 X35.33 Y106.736 E14.98475
G1 X35.341 Y105.97 E15.02889
G1 X35.39 Y105.326 E15.06611
G1 X35.518 Y104.694 E15.10327
G1 X35.724 Y104.082 E15.14048
G1 X36.004 Y103.501 E15.17764
G1 X36.353 Y102.958 E15.21483
G1 X36.767 Y102.463 E15.25202
G1 X37.239 Y102.023 E15.2892
G1 X37.761 Y101.644 E15.32637
G1 X38.327 Y101.333 E15.36359
G1 X38.926 Y101.095 E15.40073
G1 X39.551 Y100.932 E15.43795
G1 X40.408 Y100.837 E15.48763
G1 X47.619 Y100.823 E15.90315
G1 X63.409 Y100.825 E16.81302
G1 X64.181 Y100.836 E16.85751
G0 X64.187 Y100.416
G1 X64.856 Y100.465 E16.89617
G1 X65.587 Y100.613 E16.93914
G1 X66.416 Y100.839 E16.98866
G1 X67.561 Y101.171 E17.05735
G1 X70.12 Y101.837 E17.20972
G1 X72.731 Y102.439 E17.36413
G1 X75.362 Y102.966 E17.51874
G1 X77.957 Y103.411 E17.67046
G1 X80.633 Y103.792 E17.82621
G1 X83.254 Y104.089 E17.97821
G1 X85.939 Y104.318 E18.13349
G1 X88.584 Y104.468 E18.28615
G1 X91.284 Y104.544 E18.44179
G1 X92.639 Y104.554 E18.51987
G1 X101.513 Y104.554 E19.03122
G1 X104.172 Y104.516 E19.18446
G1 X106.857 Y104.402 E19.33931
G1 X109.507 Y104.214 E19.4924
G1 X112.206 Y103.947 E19.64868
G1 X114.8 Y103.615 E19.79938
G1 X117.474 Y103.195 E19.95535
G1 X120.083 Y102.71 E20.10827
G1 X122.69 Y102.149 E20.26193
G1 X125.263 Y101.518 E20.41459
G1 X127.824 Y100.811 E20.56768
G1 X128.621 Y100.603 E20.61514
G1 X129.279 Y100.474 E20.65378
G1 X129.93 Y100.424 E20.6914
G1 X130.894 Y100.406 E20.74696
G1 X142.594 Y100.405 E21.42115
G1 X143.373 Y100.416 E21.46605
G1 X144.042 Y100.465 E21.5047
G1 X144.7 Y100.594 E21.54334
G1 X145.338 Y100.8 E21.58197
G1 X145.948 Y101.081 E21.62067
G1 X146.519 Y101.432 E21.65929
G1 X147.166 Y101.96 E21.70741
G1 X147.74 Y102.56 E21.75526
G1 X148.137 Y103.1 E21.79388
G1 X148.467 Y103.684 E21.83254
G1 X148.725 Y104.304 E21.87123
G1 X148.907 Y104.949 E21.90985
G1 X149.012 Y105.612 E21.94853
G1 X149.047 Y106.567 E22.0036
G1 X149.049 Y119.846 E22.76878
G1 X149.038 Y120.657 E22.81551
G1 X148.989 Y121.326 E22.85417
G1 X148.861 Y121.984 E22.89279
G1 X148.655 Y122.623 E22.93148
G1 X148.375 Y123.232 E22.9701
G1 X148.024 Y123.804 E23.00877
G1 X147.608 Y124.33 E23.04742
G1 X146.954 Y124.954 E23.09951
G1 X146.553 Y125.279 E23.12925
G1 X144.502 Y126.725 E23.27385
G1 X142.359 Y128.309 E23.42741
G1 X140.27 Y129.946 E23.58034
G1 X138.215 Y131.652 E23.73425
G1 X136.208 Y133.418 E23.88829
G1 X134.255 Y135.235 E24.042
G1 X132.353 Y137.109 E24.19586
G1 X130.5 Y139.04 E24.35008
G1 X128.72 Y141.003 E24.50277
G1 X126.976 Y143.041 E24.65734
G1 X125.279 Y145.138 E24.81278
G1 X124.96 Y145.544 E24.84254
G1 X124.391 Y146.211 E24.89306
G1 X123.859 Y146.774 E24.93769
G1 X123.278 Y147.329 E24.98399
G1 X122.556 Y147.95 E25.03887
G1 X121.89 Y148.461 E25.08724
G1 X121.204 Y148.932 E25.13519
G1 X120.453 Y149.393 E25.18597
G1 X119.796 Y149.752 E25.22911
G1 X118.924 Y150.168 E25.28478
G1 X118.28 Y150.436 E25.32497
G1 X117.777 Y150.624 E25.35592
G1 X117.175 Y150.822 E25.39243
G1 X116.564 Y150.998 E25.42907
G1 X115.736 Y151.197 E25.47814
G1 X114.943 Y151.344 E25.52462
G1 X114.133 Y151.452 E25.57171
G1 X113.285 Y151.521 E25.62073
G1 X111.778 Y151.555 E25.70759
G1 X66.438 Y151.556 E28.32023
G1 X65.068 Y151.539 E28.39918
G1 X64.111 Y151.503 E28.45436
G1 X63.539 Y151.467 E28.48739
G1 X62.606 Y151.384 E28.54136
G1 X61.876 Y151.3 E28.5837
G1 X60.978 Y151.173 E28.63596
G1 X60.316 Y151.062 E28.67464
G1 X59.328 Y150.868 E28.73266
G1 X58.776 Y150.746 E28.76524
G1 X57.803 Y150.504 E28.82301
G1 X57.205 Y150.338 E28.85878
G1 X56.248 Y150.044 E28.91646
G1 X55.641 Y149.841 E28.95335
G1 X54.739 Y149.511 E29.00869
G1 X54.117 Y149.266 E29.04721
G1 X53.231 Y148.889 E29.1027
G1 X52.676 Y148.637 E29.13782
G1 X51.774 Y148.197 E29.19565
G1 X51.215 Y147.905 E29.23199
G1 X50.373 Y147.439 E29.28745
G1 X49.802 Y147.101 E29.32568
G1 X48.944 Y146.563 E29.38404
G1 X48.488 Y146.261 E29.41555
G1 X47.669 Y145.687 E29.47318
G1 X47.125 Y145.285 E29.51216
G1 X46.358 Y144.683 E29.56834
G1 X45.879 Y144.289 E29.60408
G1 X45.148 Y143.652 E29.65996
G1 X44.678 Y143.22 E29.69674
G1 X43.99 Y142.555 E29.75188
G1 X43.52 Y142.078 E29.79047
G1 X42.846 Y141.353 E29.84751
G1 X42.429 Y140.881 E29.8838
G1 X41.823 Y140.158 E29.93816
G1 X41.417 Y139.649 E29.97568
G1 X40.841 Y138.883 E30.0309
G1 X40.441 Y138.322 E30.07061
G1 X39.885 Y137.492 E30.12817
G1 X39.571 Y137 E30.1618
G1 X39.058 Y136.144 E30.21931
G1 X38.755 Y135.608 E30.25479
G1 X38.3 Y134.751 E30.3107
G1 X38.003 Y134.155 E30.34907
G1 X37.606 Y133.303 E30.40323
G1 X37.337 Y132.682 E30.44223
G1 X36.984 Y131.806 E30.49665
G1 X36.752 Y131.186 E30.5348
G1 X36.428 Y130.24 E30.59242
G1 X36.253 Y129.687 E30.62584
G1 X35.983 Y128.742 E30.68248
G1 X35.811 Y128.076 E30.72211
G1 X35.598 Y127.151 E30.77681
G1 X35.472 Y126.529 E30.81338
G1 X35.298 Y125.535 E30.87153
G1 X35.217 Y124.986 E30.9035
G1 X35.092 Y123.963 E30.96289
G1 X35.028 Y123.306 E31.00093
G1 X34.967 Y122.424 E31.05187
G1 X34.934 Y121.676 E31.09502
G1 X34.911 Y120.152 E31.18285
G1 X34.91 Y106.736 E31.95592
G1 X34.921 Y105.964 E32.00041
G1 X34.97 Y105.295 E32.03906
G1 X35.099 Y104.636 E32.07776
G1 X35.305 Y103.998 E32.11639
G1 X35.586 Y103.389 E32.15504
G1 X35.937 Y102.817 E32.19371
G1 X36.354 Y102.291 E32.23239
G1 X36.83 Y101.819 E32.27101
G1 X37.359 Y101.406 E32.30969
G1 X37.934 Y101.06 E32.34836
G1 X38.545 Y100.784 E32.38699
G1 X39.185 Y100.583 E32.42564
G1 X39.844 Y100.459 E32.46428
G1 X40.396 Y100.417 E32.49618
G1 X47.618 Y100.403 E32.91234
G1 X63.409 Y100.405 E33.82227
G1 X64.187 Y100.416 E33.8671
G0 X63.92 Y106.245
;TYPE:SUPPORT
G1 X64.14 Y109.391 E34.04839
G1 X63.922 Y109.421 E34.06104
G1 X63.342 Y109.531 E34.09498
G1 X62.758 Y109.672 E34.12952
G1 X62.19 Y109.84 E34.16357
G1 X61.612 Y110.047 E34.19886
G1 X61.062 Y110.278 E34.23315
G1 X60.533 Y110.532 E34.26689
G1 X60.005 Y110.82 E34.30146
G1 X59.497 Y111.134 E34.33579
G1 X58.996 Y111.479 E34.37076
G1 X58.529 Y111.84 E34.40469
G1 X58.075 Y112.23 E34.4391
G1 X57.633 Y112.651 E34.47419
G1 X57.222 Y113.087 E34.50863
G1 X56.835 Y113.543 E34.54302
G1 X56.478 Y114.011 E34.57685
G1 X56.133 Y114.516 E34.61201
G1 X55.83 Y115.017 E34.64567
G1 X55.539 Y115.554 E34.68078
G1 X55.284 Y116.096 E34.71521
G1 X55.057 Y116.649 E34.74958
G1 X54.861 Y117.203 E34.78336
G1 X54.69 Y117.789 E34.81845
G1 X54.548 Y118.393 E34.85412
G1 X52.009 Y118.118 E35.00093
G1 X47.832 Y117.714 E35.24217
G1 X47.831 Y106.245 E35.90148
G1 X63.92 Y106.245 E36.82637
G0 X62.677 Y106.415
G1 X62.677 Y109.519 E37.0048
G0 X63.92 Y108.679
G1 X48.001 Y108.679 E37.91992
G0 X49.342 Y106.415
G1 X49.342 Y117.688 E38.56796
G0 X48.001 Y116.68
G1 X54.865 Y116.68 E38.96255
G0 X54.676 Y117.228
G1 X54.676 Y106.415 E39.58414
G0 X52.009 Y106.415
G1 X52.009 Y117.947 E40.24707
G0 X48.001 Y114.013
G1 X56.27 Y114.013 E40.72242
G0 X57.343 Y112.711
G1 X57.343 Y106.415 E41.08436
G0 X60.01 Y106.415
G1 X60.01 Y110.623 E41.32626
G0 X58.889 Y111.346
G1 X48.001 Y111.346 E41.95216
G1 F2700 E28.95216
G0 F1200 X65.127 Y109.537
G0 X124.01 Y109.523
G0 X124.512 Y116.717
G0 X115.384 Y117.476
G1 F2100 E41.95216
G1 F1200 X118.407 Y117.476 E42.12594
G1 X118.407 Y120.32 E42.28943
G1 X118.812 Y120.725 E42.32236
G1 X125.115 Y120.725 E42.68469
G1 X125.462 Y120.206 E42.72058
G1 X124.258 Y117.323 E42.90019
G1 X124.761 Y116.82 E42.94108
G1 X124.769 Y109.93 E43.33716
G1 X124.443 Y109.604 E43.36366
G1 X129.714 Y106.345 E43.71991
G1 X130.098 Y106.245 E43.74272
G1 X143.208 Y106.245 E44.49636
G1 X143.209 Y120.5 E45.31582
G1 X135.571 Y120.505 E45.7549
G1 X127.271 Y120.505 E46.23204
G1 X126.866 Y120.91 E46.26496
G1 X126.866 Y133.564 E46.99239
G1 X123.717 Y133.776 E47.17382
G1 X123.689 Y133.566 E47.186
G1 X123.578 Y132.978 E47.2204
G1 X123.437 Y132.396 E47.25483
G1 X123.27 Y131.834 E47.28853
G1 X123.064 Y131.258 E47.32369
G1 X122.833 Y130.707 E47.35804
G1 X122.574 Y130.166 E47.39252
G1 X122.289 Y129.648 E47.42651
G1 X121.97 Y129.131 E47.46143
G1 X121.631 Y128.639 E47.49578
G1 X121.271 Y128.173 E47.52963
G1 X120.881 Y127.719 E47.56403
G1 X120.459 Y127.277 E47.59916
G1 X120.023 Y126.867 E47.63357
G1 X119.575 Y126.487 E47.66734
G1 X119.09 Y126.117 E47.70241
G1 X118.596 Y125.779 E47.73682
G1 X118.092 Y125.472 E47.77074
G1 X117.56 Y125.185 E47.80549
G1 X117.016 Y124.928 E47.84008
G1 X116.472 Y124.705 E47.87387
G1 X115.908 Y124.506 E47.90826
G1 X115.321 Y124.334 E47.94342
G1 X114.749 Y124.198 E47.97722
G1 X115.078 Y120.793 E48.17387
G1 X115.384 Y117.476 E48.36536
G0 X116.017 Y117.646
G1 X116.017 Y124.364 E48.75155
G0 X116.864 Y124.681
G1 X126.696 Y124.681 E49.31675
G0 X126.696 Y122.014
G1 X115.131 Y122.014 E49.98158
G0 X115.382 Y119.347
G1 X118.237 Y119.347 E50.1457
G0 X118.684 Y120.838
G1 X118.684 Y125.634 E50.4214
G0 X120.762 Y127.348
G1 X126.696 Y127.348 E50.76252
G0 X126.696 Y130.015
G1 X122.685 Y130.015 E50.9931
G0 X121.351 Y128.004
G1 X121.351 Y120.895 E51.40177
G0 X124.018 Y120.895
G1 X124.018 Y133.585 E52.13127
G0 X123.681 Y132.682
G1 X126.696 Y132.682 E52.30459
G0 X126.685 Y133.405
G1 X126.685 Y108.417 E53.74105
G0 X126.262 Y108.679
G1 X143.039 Y108.679 E54.70549
G0 X142.687 Y106.415
G1 X142.687 Y120.331 E55.50546
G0 X143.039 Y119.347
G1 X125.287 Y119.347 E56.52595
G0 X124.932 Y116.68
G1 X143.039 Y116.68 E57.56685
G0 X143.039 Y114.013
G1 X124.935 Y114.013 E58.60758
G0 X124.938 Y111.346
G1 X143.039 Y111.346 E59.64813
G0 X140.02 Y106.415
G1 X140.02 Y120.331 E60.44811
G0 X137.353 Y120.332
G1 X137.353 Y106.415 E61.24814
G0 X134.686 Y106.415
G1 X134.686 Y120.333 E62.04823
G0 X132.019 Y120.334
G1 X132.019 Y106.415 E62.84838
G0 X129.352 Y106.768
G1 X129.352 Y120.335 E63.62829
G1 F2700 E50.62829
;MESH:FoldedTabor14SopranoE.stl
G0 F1200 X120.669 Y127.853
G0 X119.719 Y128.76
G0 X115.454 Y131.185
;TYPE:WALL-INNER
G1 F2100 E63.62829
G1 F1200 X114.757 Y130.759 E63.67536
G1 X114.002 Y130.447 E63.72244
G1 X113.209 Y130.257 E63.76942
G1 X112.438 Y130.196 E63.81399
G1 X65.776 Y130.195 E66.5028
G1 X65.276 Y130.182 E66.53162
G1 X64.798 Y130.146 E66.55925
G1 X64.277 Y130.079 E66.58952
G1 X63.82 Y129.996 E66.61628
G1 X63.305 Y129.873 E66.64679
G1 X62.858 Y129.742 E66.67363
G1 X62.357 Y129.567 E66.70421
G1 X61.941 Y129.396 E66.73013
G1 X61.449 Y129.163 E66.7615
G1 X61.038 Y128.941 E66.78842
G1 X60.606 Y128.678 E66.81756
G1 X60.184 Y128.389 E66.84703
G1 X59.807 Y128.102 E66.87433
G1 X59.434 Y127.784 E66.90258
G1 X59.05 Y127.423 E66.93295
G1 X58.73 Y127.085 E66.95977
G1 X58.38 Y126.678 E66.9907
G1 X58.109 Y126.326 E67.0163
G1 X57.801 Y125.879 E67.04758
G1 X57.544 Y125.463 E67.07576
G1 X57.315 Y125.043 E67.10332
G1 X57.105 Y124.606 E67.13126
G1 X56.906 Y124.127 E67.16115
G1 X56.738 Y123.655 E67.19002
G1 X56.597 Y123.183 E67.2184
G1 X56.485 Y122.72 E67.24585
G1 X56.388 Y122.205 E67.27605
G1 X56.326 Y121.745 E67.3028
G1 X56.283 Y121.22 E67.33315
G1 X56.27 Y120.744 E67.36059
G1 X56.281 Y120.26 E67.38849
G1 X56.317 Y119.777 E67.41639
G1 X56.386 Y119.241 E67.44754
G1 X56.469 Y118.784 E67.4743
G1 X56.592 Y118.269 E67.50481
G1 X56.735 Y117.78 E67.53417
G1 X56.888 Y117.346 E67.56069
G1 X57.07 Y116.903 E67.58828
G1 X57.3 Y116.415 E67.61937
G1 X57.52 Y116.009 E67.64598
G1 X57.771 Y115.594 E67.67393
G1 X58.07 Y115.157 E67.70444
G1 X58.377 Y114.754 E67.73363
G1 X58.699 Y114.376 E67.76224
G1 X59.01 Y114.047 E67.78833
G1 X59.393 Y113.682 E67.81882
G1 X59.769 Y113.36 E67.84734
G1 X60.148 Y113.067 E67.87495
G1 X60.586 Y112.765 E67.9056
G1 X60.993 Y112.515 E67.93313
