;FLAVOR:Marlin
;TIME:2961
;Filament used: 2.86064m
;Layer height: 0.2
;MINX:31.57
;MINY:93.144
;MINZ:0.3
;MAXX:140.23
;MAXY:146.835
;MAXZ:21.5
;Generated with Cura_SteamEngine 4.6.2
M140 S70
M105
M190 S70
M104 S237
M105
M109 S237
M82 ;absolute extrusion mode
G28 ;Home
G1 Z15.0 F6000 ;Move the platform down 15mm
G92 E0
G1 F200 E3
G92 E0
G92 E0
G92 E0
G1 F2700 E-13
;LAYER_COUNT:107
;LAYER:0
M107
G0 F1200 X37.134 Y141.999 Z0.3
;TYPE:SKIRT
G1 F2100 E0
G1 F1200 X36.491 Y141.95 E0.03716
G1 X35.859 Y141.822 E0.07432
G1 X35.247 Y141.616 E0.11153
G1 X34.665 Y141.337 E0.14872
G1 X34.123 Y140.988 E0.18586
G1 X33.628 Y140.574 E0.22305
G1 X33.187 Y140.102 E0.26027
G1 X32.809 Y139.579 E0.29745
G1 X32.498 Y139.014 E0.33462
G1 X32.259 Y138.415 E0.37178
G1 X32.096 Y137.79 E0.409
G1 X32.001 Y136.931 E0.4588
G1 X31.99 Y103.83 E2.36618
G1 X31.999 Y103.141 E2.40589
G1 X32.048 Y102.497 E2.44311
G1 X32.175 Y101.865 E2.48025
G1 X32.38 Y101.253 E2.51744
G1 X32.659 Y100.671 E2.55464
G1 X33.008 Y100.128 E2.59183
G1 X33.421 Y99.632 E2.62902
G1 X33.892 Y99.191 E2.6662
G1 X34.414 Y98.812 E2.70337
G1 X34.979 Y98.5 E2.74057
G1 X35.578 Y98.261 E2.77773
G1 X36.202 Y98.097 E2.81491
G1 X37.063 Y98.001 E2.86483
G1 X53.522 Y97.99 E3.81325
G1 X56.2 Y97.952 E3.96758
G1 X58.87 Y97.839 E4.12157
G1 X61.546 Y97.649 E4.27616
G1 X64.238 Y97.382 E4.43204
G1 X66.882 Y97.044 E4.58563
G1 X69.55 Y96.625 E4.74126
G1 X72.175 Y96.137 E4.89511
G1 X74.779 Y95.576 E5.0486
G1 X77.358 Y94.944 E5.20161
G1 X79.988 Y94.221 E5.35878
G1 X81.412 Y93.796 E5.44441
G1 X82.041 Y93.651 E5.48161
G1 X82.811 Y93.58 E5.52617
G1 X83.668 Y93.565 E5.57556
G1 X96.376 Y93.564 E6.30783
G1 X97.149 Y93.575 E6.35238
G1 X97.792 Y93.624 E6.38954
G1 X98.424 Y93.752 E6.4267
G1 X99.139 Y94.001 E6.47033
G1 X99.943 Y94.348 E6.52078
G1 X102.483 Y95.411 E6.67945
G1 X105.009 Y96.387 E6.83549
G1 X107.535 Y97.276 E6.9898
G1 X110.063 Y98.089 E7.14282
G1 X112.62 Y98.834 E7.29629
G1 X115.237 Y99.515 E7.45211
G1 X117.869 Y100.122 E7.60775
G1 X120.466 Y100.645 E7.76041
G1 X123.113 Y101.097 E7.91514
G1 X125.771 Y101.476 E8.06985
G1 X128.455 Y101.782 E8.22552
G1 X131.083 Y102.006 E8.3775
G1 X133.883 Y102.165 E8.5391
G1 X134.801 Y102.204 E8.59205
G1 X135.443 Y102.271 E8.62925
G1 X136.071 Y102.417 E8.6664
G1 X136.677 Y102.639 E8.70359
G1 X137.251 Y102.935 E8.7408
G1 X137.783 Y103.299 E8.77795
G1 X138.267 Y103.727 E8.81518
G1 X138.694 Y104.21 E8.85232
G1 X139.057 Y104.743 E8.88948
G1 X139.353 Y105.317 E8.9267
G1 X139.575 Y105.923 E8.96389
G1 X139.72 Y106.552 E9.00108
G1 X139.782 Y107.101 E9.03292
G1 X139.81 Y107.73 E9.0692
G1 X139.81 Y131.928 E10.46357
G1 X139.801 Y132.655 E10.50546
G1 X139.753 Y133.299 E10.54267
G1 X139.626 Y133.932 E10.57988
G1 X139.421 Y134.544 E10.61707
G1 X139.143 Y135.126 E10.65423
G1 X138.795 Y135.669 E10.6914
G1 X138.382 Y136.165 E10.72859
G1 X137.911 Y136.606 E10.76577
G1 X137.389 Y136.986 E10.80297
G1 X136.824 Y137.298 E10.84017
G1 X136.225 Y137.538 E10.87735
G1 X135.601 Y137.702 E10.91453
G1 X134.737 Y137.799 E10.96463
G1 X131.809 Y137.81 E11.13335
G1 X129.131 Y137.848 E11.28768
G1 X126.461 Y137.961 E11.44167
G1 X123.785 Y138.151 E11.59626
G1 X121.093 Y138.418 E11.75214
G1 X118.449 Y138.756 E11.90574
G1 X115.781 Y139.175 E12.06136
G1 X113.156 Y139.663 E12.21521
G1 X110.552 Y140.224 E12.36871
G1 X107.973 Y140.856 E12.52171
G1 X105.345 Y141.579 E12.67877
G1 X102.79 Y142.361 E12.83274
G1 X100.226 Y143.226 E12.98867
G1 X97.745 Y144.141 E13.14105
G1 X94.081 Y145.633 E13.36901
G1 X93.403 Y145.877 E13.41053
G1 X92.585 Y146.106 E13.45948
G1 X92.078 Y146.217 E13.48939
G1 X91.449 Y146.319 E13.5261
G1 X90.935 Y146.378 E13.55592
G1 X90.4 Y146.412 E13.58681
G1 X89.322 Y146.394 E13.64893
G1 X88.652 Y146.335 E13.68769
G1 X87.899 Y146.214 E13.73164
G1 X87.397 Y146.1 E13.7613
G1 X85.807 Y145.656 E13.85643
G1 X83.142 Y144.939 E14.01545
G1 X80.54 Y144.316 E14.16963
G1 X77.884 Y143.757 E14.32603
G1 X75.256 Y143.285 E14.47988
G1 X72.631 Y142.888 E14.63287
G1 X69.971 Y142.562 E14.78729
G1 X67.305 Y142.311 E14.94159
G1 X64.6 Y142.133 E15.0978
G1 X61.964 Y142.036 E15.2498
G1 X59.706 Y142.01 E15.37992
G1 X37.907 Y142.01 E16.63605
G1 X37.134 Y141.999 E16.6806
G0 X37.128 Y142.419
G1 X36.459 Y142.37 E16.71925
G1 X35.801 Y142.241 E16.75789
G1 X35.163 Y142.035 E16.79652
G1 X34.553 Y141.754 E16.83522
G1 X33.982 Y141.403 E16.87384
G1 X33.456 Y140.987 E16.91248
G1 X32.983 Y140.51 E16.95119
G1 X32.571 Y139.981 E16.98983
G1 X32.224 Y139.407 E17.02848
G1 X31.948 Y138.796 E17.06711
G1 X31.747 Y138.156 E17.10577
G1 X31.623 Y137.496 E17.14446
G1 X31.581 Y136.943 E17.17642
G1 X31.57 Y103.824 E19.08484
G1 X31.579 Y103.135 E19.12455
G1 X31.628 Y102.466 E19.1632
G1 X31.756 Y101.808 E19.20183
G1 X31.961 Y101.169 E19.2405
G1 X32.241 Y100.56 E19.27912
G1 X32.592 Y99.988 E19.3178
G1 X33.008 Y99.461 E19.35648
G1 X33.483 Y98.988 E19.39511
G1 X34.012 Y98.575 E19.43378
G1 X34.586 Y98.228 E19.47243
G1 X35.197 Y97.951 E19.51109
G1 X35.836 Y97.749 E19.54971
G1 X36.495 Y97.624 E19.58836
G1 X37.051 Y97.581 E19.62049
G1 X53.516 Y97.57 E20.56926
G1 X56.176 Y97.532 E20.72255
G1 X58.86 Y97.418 E20.87735
G1 X61.51 Y97.23 E21.03044
G1 X64.209 Y96.963 E21.18672
G1 X66.803 Y96.631 E21.33741
G1 X69.477 Y96.211 E21.49339
G1 X72.086 Y95.726 E21.6463
G1 X74.693 Y95.165 E21.79996
G1 X77.257 Y94.536 E21.95209
G1 X79.891 Y93.812 E22.1095
G1 X81.292 Y93.394 E22.19375
G1 X81.945 Y93.241 E22.23239
G1 X82.803 Y93.16 E22.28205
G1 X83.66 Y93.145 E22.33145
G1 X96.376 Y93.144 E23.06418
G1 X97.155 Y93.155 E23.10907
G1 X97.824 Y93.204 E23.14773
G1 X98.482 Y93.333 E23.18637
G1 X99.306 Y93.615 E23.23655
G1 X100.163 Y93.985 E23.29034
G1 X102.621 Y95.014 E23.44389
G1 X105.157 Y95.994 E23.60055
G1 X107.66 Y96.875 E23.75346
G1 X110.175 Y97.684 E23.90569
G1 X112.765 Y98.438 E24.06113
G1 X115.327 Y99.105 E24.21368
G1 X117.944 Y99.708 E24.36843
G1 X120.556 Y100.234 E24.52197
G1 X123.204 Y100.686 E24.67676
G1 X125.804 Y101.058 E24.82811
G1 X128.469 Y101.361 E24.98266
G1 X131.145 Y101.589 E25.13742
G1 X133.866 Y101.744 E25.29447
G1 X134.819 Y101.784 E25.34943
G1 X135.486 Y101.852 E25.38806
G1 X136.141 Y101.999 E25.42675
G1 X136.773 Y102.223 E25.46538
G1 X137.374 Y102.521 E25.50404
G1 X137.936 Y102.888 E25.54272
G1 X138.45 Y103.319 E25.58137
G1 X138.909 Y103.808 E25.62002
G1 X139.306 Y104.348 E25.65864
G1 X139.637 Y104.932 E25.69732
G1 X139.896 Y105.551 E25.73598
G1 X140.079 Y106.196 E25.77462
G1 X140.201 Y107.076 E25.82581
G1 X140.23 Y107.73 E25.86353
G1 X140.23 Y131.934 E27.25824
G1 X140.221 Y132.661 E27.30014
G1 X140.172 Y133.33 E27.33879
G1 X140.045 Y133.988 E27.37741
G1 X139.84 Y134.627 E27.41608
G1 X139.56 Y135.237 E27.45475
G1 X139.21 Y135.809 E27.4934
G1 X138.795 Y136.336 E27.53205
G1 X138.32 Y136.809 E27.57068
G1 X137.791 Y137.223 E27.60938
G1 X137.218 Y137.571 E27.64801
G1 X136.607 Y137.848 E27.68667
G1 X135.967 Y138.05 E27.72534
G1 X135.308 Y138.175 E27.76399
G1 X134.749 Y138.219 E27.79631
G1 X131.815 Y138.23 E27.96537
G1 X129.155 Y138.268 E28.11867
G1 X126.471 Y138.382 E28.27347
G1 X123.821 Y138.57 E28.42655
G1 X121.122 Y138.837 E28.58284
G1 X118.528 Y139.169 E28.73353
G1 X115.854 Y139.589 E28.8895
G1 X113.245 Y140.074 E29.04242
G1 X110.638 Y140.635 E29.19608
G1 X108.074 Y141.264 E29.34821
G1 X105.445 Y141.987 E29.50532
G1 X102.935 Y142.755 E29.65658
G1 X100.374 Y143.619 E29.81232
G1 X97.887 Y144.536 E29.96506
G1 X94.228 Y146.026 E30.19271
G1 X93.527 Y146.278 E30.23564
G1 X92.692 Y146.512 E30.28561
G1 X92.161 Y146.629 E30.31694
G1 X91.512 Y146.735 E30.35483
G1 X90.977 Y146.796 E30.38586
G1 X90.423 Y146.831 E30.41785
G1 X89.92 Y146.835 E30.44683
G1 X89.307 Y146.813 E30.48218
G1 X88.607 Y146.752 E30.52267
G1 X87.826 Y146.628 E30.56824
G1 X87.284 Y146.505 E30.60026
G1 X85.65 Y146.049 E30.69802
G1 X83.045 Y145.347 E30.85348
G1 X80.458 Y144.727 E31.00677
G1 X77.793 Y144.167 E31.16369
G1 X75.229 Y143.706 E31.31381
G1 X72.551 Y143.301 E31.46988
G1 X69.916 Y142.978 E31.62285
G1 X67.273 Y142.729 E31.77582
G1 X64.594 Y142.554 E31.93052
G1 X61.943 Y142.455 E32.08339
G1 X59.701 Y142.43 E32.21259
G1 X37.907 Y142.43 E33.46843
G1 X37.128 Y142.419 E33.51332
G0 X87.857 Y136.348
;TYPE:SUPPORT
G1 X87.874 Y126.414 E34.08439
G1 X88.673 Y126.497 E34.13057
G1 X89.824 Y126.577 E34.19689
G1 X90.394 Y126.562 E34.22967
G1 X91.711 Y126.462 E34.3056
G1 X92.145 Y126.413 E34.3307
G1 X92.145 Y136.35 E34.90194
G1 X91.404 Y136.156 E34.94598
G1 X89.967 Y135.839 E35.03057
G1 X88.255 Y136.242 E35.13167
G1 X87.857 Y136.348 E35.15535
G0 X88.028 Y135.349
G1 X91.974 Y135.349 E35.38219
G0 X91.974 Y132.682
G1 X88.033 Y132.682 E35.60874
G0 X88.037 Y130.015
G1 X91.974 Y130.015 E35.83507
G0 X91.975 Y127.348
G1 X88.043 Y127.348 E36.0611
G0 X89.347 Y126.714
G1 X89.347 Y135.812 E36.58411
G1 F2700 E23.58411
G0 F1200 X75.531 Y122.537
G0 X75.272 Y120.409
G0 X75.511 Y118.773
G0 X75.973 Y117.18
G0 X76.731 Y115.513
G0 X77.527 Y115.322
G0 X88.91 Y119.028
G1 F2100 E36.58411
G1 F1200 X87.987 Y119.008 E36.63718
G1 X87.986 Y118.825 E36.6477
G1 X87.874 Y99.684 E37.74806
G1 X86.165 Y99.684 E37.8463
G1 X85.925 Y99.924 E37.86581
G1 X85.929 Y109.894 E38.43895
G1 X85.905 Y115.703 E38.77289
G1 X85.909 Y118.804 E38.95115
G1 X85.812 Y118.79 E38.95679
G1 X84.936 Y118.622 E39.00806
G1 X83.952 Y118.375 E39.06638
G1 X83.587 Y118.261 E39.08836
G1 X83.593 Y109.888 E39.56969
G1 X83.589 Y100.507 E40.10897
G1 X83.402 Y100.062 E40.13672
G1 X83.023 Y99.69 E40.16725
G1 X83.011 Y98.984 E40.20784
G1 X96.99 Y98.984 E41.01144
G1 X96.99 Y99.691 E41.05208
G1 X96.42 Y100.26 E41.09838
G1 X96.407 Y112.748 E41.81626
G1 X96.411 Y118.26 E42.13312
G1 X95.879 Y118.422 E42.16509
G1 X94.933 Y118.652 E42.22106
G1 X94.092 Y118.798 E42.27013
G1 X94.096 Y116.87 E42.38096
G1 X94.07 Y112.737 E42.61856
G1 X94.074 Y99.924 E43.35512
G1 X93.834 Y99.684 E43.37464
G1 X92.248 Y99.684 E43.46581
G1 X92.008 Y99.924 E43.48532
G1 X92.008 Y119.017 E44.5829
G1 X90.789 Y119.017 E44.65298
G1 X89.997 Y118.983 E44.69855
G1 X88.91 Y119.028 E44.76109
G0 X89.347 Y118.84
G1 X89.347 Y99.154 E45.89276
G0 X88.049 Y100.678
G1 X91.838 Y100.678 E46.11057
G0 X92.014 Y99.677
G1 X92.014 Y99.154 E46.14064
G0 X94.681 Y99.154
G1 X94.681 Y118.524 E47.25414
G0 X94.264 Y116.68
G1 X96.24 Y116.68 E47.36773
G0 X96.238 Y114.013
G1 X94.248 Y114.013 E47.48213
G0 X91.838 Y114.013
G1 X88.127 Y114.013 E47.69546
G0 X85.741 Y114.013
G1 X83.76 Y114.013 E47.80934
G0 X83.759 Y116.68
G1 X85.737 Y116.68 E47.92305
G0 X84.013 Y118.215
G1 X84.013 Y99.154 E49.01879
G0 X83.759 Y100.678
G1 X85.756 Y100.678 E49.13359
G0 X86.68 Y99.514
G1 X86.68 Y99.154 E49.15428
G0 X85.757 Y103.345
G1 X83.76 Y103.345 E49.26908
G0 X83.761 Y106.012
G1 X85.758 Y106.012 E49.38388
G0 X88.08 Y106.012
G1 X91.838 Y106.012 E49.59991
G0 X94.243 Y106.012
G1 X96.243 Y106.012 E49.71488
G0 X96.241 Y108.679
G1 X94.242 Y108.679 E49.8298
G0 X91.838 Y108.679
G1 X88.096 Y108.679 E50.04491
G0 X85.759 Y108.679
G1 X83.762 Y108.679 E50.15971
G0 X83.762 Y111.346
G1 X85.753 Y111.346 E50.27417
G0 X88.112 Y111.346
G1 X91.838 Y111.346 E50.48836
G0 X94.241 Y111.346
G1 X96.238 Y111.346 E50.60316
G0 X91.838 Y116.68
G1 X88.143 Y116.68 E50.81557
G0 X88.065 Y103.345
G1 X91.838 Y103.345 E51.03246
G0 X94.243 Y103.345
G1 X96.246 Y103.345 E51.14761
G0 X96.249 Y100.678
G1 X94.244 Y100.678 E51.26287
G1 F2700 E38.26287
;MESH:OuterCubeTop.stl
G0 F1200 X71.344 Y103.839
G0 X70.156 Y103.844
G0 X61.918 Y127.918
G0 X45.69 Y128.31
;TYPE:WALL-INNER
G1 F2100 E51.26287
G1 F1200 X62.31 Y128.31 E52.22056
G1 X62.31 Y111.69 E53.17826
G1 X45.69 Y111.69 E54.13596
G1 X45.69 Y128.31 E55.09366
G0 X38.25 Y135.75
G1 X38.25 Y104.25 E56.90879
G1 X69.75 Y104.25 E58.72392
G1 X69.75 Y135.75 E60.53905
G1 X38.25 Y135.75 E62.35418
G0 X37.83 Y136.17
G1 X37.83 Y103.83 E64.21771
G1 X70.17 Y103.83 E66.08124
G1 X70.17 Y136.17 E67.94478
G1 X37.83 Y136.17 E69.80831
G0 X37.9 Y136.1
G0 X46.04 Y127.96
G0 X46.11 Y127.89
G1 X61.89 Y127.89 E70.71761
G1 X61.89 Y112.11 E71.6269
G1 X46.11 Y112.11 E72.53619
G1 X46.11 Y127.89 E73.44549
G0 X46.53 Y127.47
;TYPE:WALL-OUTER
G1 X61.47 Y127.47 E74.30638
G1 X61.47 Y112.53 E75.16727
G1 X46.53 Y112.53 E76.02816
G1 X46.53 Y127.47 E76.88905
G0 X46.73 Y127.47
G0 X46.73 Y127.99
G0 X37.9 Y136.1
G0 X37.41 Y136.59
G1 X37.41 Y103.41 E78.80099
G1 X70.59 Y103.41 E80.71292
G1 X70.59 Y136.59 E82.62486
G1 X37.41 Y136.59 E84.5368
G0 X37.41 Y136.39
G0 X37.9 Y136.1
G0 X38.66 Y135.34
;TYPE:SKIN
G1 X38.66 Y104.66 E86.30468
G1 X69.34 Y104.66 E88.07256
G1 X69.34 Y135.34 E89.84044
G1 X38.66 Y135.34 E91.60832
G0 X45.28 Y128.72
G1 X62.72 Y128.72 E92.61326
G1 X62.72 Y111.28 E93.61821
G1 X45.28 Y111.28 E94.62316
G1 X45.28 Y128.72 E95.62811
G0 X42.36 Y131.64
G1 X65.64 Y131.64 E96.96958
G1 X65.64 Y108.36 E98.31104
G1 X42.36 Y108.36 E99.65251
G1 X42.36 Y131.64 E100.99398
G0 X42.78 Y131.22
G1 X65.22 Y131.22 E102.28704
G1 X65.22 Y108.78 E103.58011
G1 X42.78 Y108.78 E104.87317
G1 X42.78 Y131.22 E106.16624
G0 X43.2 Y130.8
G1 X64.8 Y130.8 E107.4109
G1 X64.8 Y109.2 E108.65556
G1 X43.2 Y109.2 E109.90022
G1 X43.2 Y130.8 E111.14488
G0 X43.62 Y130.38
G1 X64.38 Y130.38 E112.34114
G1 X64.38 Y109.62 E113.53739
G1 X43.62 Y109.62 E114.73365
G1 X43.62 Y130.38 E115.92991
G0 X44.04 Y129.96
G1 X63.96 Y129.96 E117.07776
G1 X63.96 Y110.04 E118.22562
G1 X44.04 Y110.04 E119.37347
G1 X44.04 Y129.96 E120.52132
G0 X44.46 Y129.54
G1 X63.54 Y129.54 E121.62077
G1 X63.54 Y110.46 E122.72022
G1 X44.46 Y110.46 E123.81968
G1 X44.46 Y129.54 E124.91913
G0 X44.88 Y129.12
G1 X63.12 Y129.12 E125.97017
G1 X63.12 Y110.88 E127.02122
G1 X44.88 Y110.88 E128.07227
G1 X44.88 Y129.12 E129.12331
G0 X41.58 Y132.42
G1 X41.58 Y107.58 E130.55467
G1 X66.42 Y107.58 E131.98603
G1 X66.42 Y132.42 E133.41739
G1 X41.58 Y132.42 E134.84875
G0 X41.16 Y132.84
G1 X41.16 Y107.16 E136.32852
G1 X66.84 Y107.16 E137.80828
G1 X66.84 Y132.84 E139.28804
G1 X41.16 Y132.84 E140.76781
G0 X40.74 Y133.26
G1 X40.74 Y106.74 E142.29597
G1 X67.26 Y106.74 E143.82414
G1 X67.26 Y133.26 E145.35231
G1 X40.74 Y133.26 E146.88047
G0 X40.32 Y133.68
G1 X40.32 Y106.32 E148.45704
G1 X67.68 Y106.32 E150.03361
G1 X67.68 Y133.68 E151.61018
G1 X40.32 Y133.68 E153.18675
G0 X39.9 Y134.1
G1 X39.9 Y105.9 E154.81173
G1 X68.1 Y105.9 E156.4367
G1 X68.1 Y134.1 E158.06168
G1 X39.9 Y134.1 E159.68665
G0 X39.48 Y134.52
G1 X39.48 Y105.48 E161.36003
G1 X68.52 Y105.48 E163.0334
G1 X68.52 Y134.52 E164.70678
G1 X39.48 Y134.52 E166.38016
G0 X39.06 Y134.94
G1 X39.06 Y105.06 E168.10194
G1 X68.94 Y105.06 E169.82372
G1 X68.94 Y134.94 E171.5455
G1 X39.06 Y134.94 E173.26728
G0 X41.968 Y132.214
;TYPE:SKIN
G1 X41.784 Y132.03 E173.27442
G0 X41.784 Y131.747
G1 X42.251 Y132.214 E173.29254
G0 X42.534 Y132.214
G1 X42.164 Y131.844 E173.3069
G0 X42.155 Y131.835
G1 X41.784 Y131.464 E173.3213
G0 X41.784 Y131.181
G1 X42.155 Y131.552 E173.3357
G0 X42.155 Y131.269
G1 X41.784 Y130.898 E173.35009
G0 X41.784 Y130.616
G1 X42.155 Y130.986 E173.36447
G0 X42.155 Y130.703
G1 X41.784 Y130.333 E173.37885
G0 X41.784 Y130.05
G1 X42.155 Y130.42 E173.39322
G0 X42.155 Y130.138
G1 X41.784 Y129.767 E173.40762
G0 X41.784 Y129.484
G1 X42.155 Y129.855 E173.42202
G0 X42.155 Y129.572
G1 X41.784 Y129.201 E173.43642
G0 X41.784 Y128.919
G1 X42.155 Y129.289 E173.45079
G0 X42.155 Y129.006
G1 X41.784 Y128.636 E173.46517
G0 X41.784 Y128.353
G1 X42.155 Y128.723 E173.47955
G0 X42.155 Y128.441
G1 X41.784 Y128.07 E173.49394
G0 X41.784 Y127.787
G1 X42.155 Y128.158 E173.50834
G0 X42.155 Y127.875
G1 X41.784 Y127.504 E173.52274
G0 X41.784 Y127.222
G1 X42.155 Y127.592 E173.53712
G0 X42.155 Y127.309
G1 X41.784 Y126.939 E173.55149
G0 X41.784 Y126.656
G1 X42.155 Y127.026 E173.56587
G0 X42.155 Y126.744
G1 X41.784 Y126.373 E173.58027
G0 X41.784 Y126.09
G1 X42.155 Y126.461 E173.59466
G0 X42.155 Y126.178
G1 X41.784 Y125.807 E173.60906
G0 X41.784 Y125.524
G1 X42.155 Y125.895 E173.62346
G0 X42.155 Y125.612
G1 X41.784 Y125.242 E173.63784
G0 X41.784 Y124.959
G1 X42.155 Y125.329 E173.65221
G0 X42.155 Y125.046
G1 X41.784 Y124.676 E173.66659
G0 X41.784 Y124.393
G1 X42.155 Y124.764 E173.68099
G0 X42.155 Y124.481
G1 X41.784 Y124.11 E173.69538
G0 X41.784 Y123.827
G1 X42.155 Y124.198 E173.70978
G0 X42.155 Y123.915
G1 X41.784 Y123.545 E173.72416
G0 X41.784 Y123.262
